
; ### Ellis' Pressure Advance / Linear Advance Calibration Tool ###
;
; Original Marlin linear advance calibration tool by Sineos [https://github.com/Sineos]
; Heavily modified/rewritten by Andrew Ellis [https://github.com/AndrewEllis93]
;
; -------------------------------------------
; Generated: Sat Apr 20 2024 10:40:12 GMT-0500 (Central Daylight Time)
; -------------------------------------------
;
; Advanced Mode: false
;
; Printer:
;  - Firmware: klipper
;  - Bed Shape: Rect
;  - Bed Size X: 350 mm
;  - Bed Size Y: 350 mm
;  - Origin Bed Center: false
;  - Travel Speed: 150 mm/s
;  - Nozzle Diameter: 0.4 mm
;  - Filament Diameter: 1.75 mm
;  - Extrusion Multiplier: 0.98
;
; Retraction / Z Hop:
;  - Retraction Distance: 1 mm
;  - Retract Speed: 45 mm/s
;  - Unretract Speed: 45 mm/s
;  - Z Hop Enable: true
;  - Z Hop Height: 0.2mm
;
; First Layer Settings:
;  - First Layer Height: 0.25 mm
;  - First Layer Printing Speed: 30 mm/s
;  - First Layer Fan Speed: 0%
;  - Anchor Option: anchor_frame
;
; Print Settings:
;  - Layer Height: 0.2 mm
;  - Print Speed: 100 mm/s
;  - Acceleration: Disabled
;  - Fan Speed: 100%
;
; Pressure Advance Stepping:
;  - PA Start Value: 0
;  - PA End Value: 0.08
;  - PA Increment: 0.0025
;
; Start / End G-code:
;  - Hotend Temp: 200C
;  - Bed Temp: 60C
;  - Don't Add G28: true
;  - Don't Add Heating G-Codes: false
;  - Entered Start G-code: 
;       M190 S60 ; Set & wait for bed temp
;       M109 S200 ; Set & wait for hotend temp
;       PRINT_START ; Start macro
;       ; START_PRINT ; Start macro (alternate / official start macro name)
;  - Entered End G-code: 
;       PRINT_END ; End macro. Change name to match yours
;
; Calculated Values:
;  - Print Size X: 142.34 mm
;  - Print Size Y: 56.99 mm
;  - Number of Patterns to Print: 33
;  - PA Values: 0, 0.0025, 0.005, 0.0075, 0.01, 0.0125, 0.015, 0.0175, 0.02, 0.0225, 0.025, 0.0275, 0.03, 0.0325, 0.035, 0.0375, 0.04, 0.0425, 0.045, 0.0475, 0.05, 0.0525, 0.055, 0.0575, 0.06, 0.0625, 0.065, 0.0675, 0.07, 0.0725, 0.075, 0.0775, 0.08
;
; Prepare printing
;
M190 S60 ; Set & wait for bed temp
M109 S200 ; Set & wait for hotend temp
PRINT_START ; Start macro
; START_PRINT ; Start macro (alternate / official start macro name)
G21 ; Millimeter units
G90 ; Absolute XYZ
M83 ; Relative E
G92 E0 ; Reset extruder distance
;
;  Begin printing
;
M106 S0 ; Set fan speed
G1 E-1 F2700 ; Retract
G0 Z5 F9000 ; Z raise
G0 X103.8305 Y146.5068 F9000 ; Move to start position
G0 Z0.25 F9000 ; Move to start layer height
G1 E1 F2700 ; Un-retract
SET_PRESSURE_ADVANCE ADVANCE=0 ; Set pressure advance to start value
M117 PA 0
G1 X103.8305 Y188.9332 E2.1882 F1800 ; Draw perimeter (up)
G1 X246.1695 Y188.9332 E7.34132 F1800 ; Draw perimeter (right)
G1 X246.1695 Y146.5068 E2.1882 F1800 ; Draw perimeter (down)
G1 X103.8305 Y146.5068 E7.34132 F1800 ; Draw perimeter (left)
G0 X104.3369 Y147.0131 F9000 ; Step inwards to print next perimeter
G1 X104.3369 Y188.4269 E2.13597 F1800 ; Draw perimeter (up)
G1 X245.6631 Y188.4269 E7.28909 F1800 ; Draw perimeter (right)
G1 X245.6631 Y147.0131 E2.13597 F1800 ; Draw perimeter (down)
G1 X104.3369 Y147.0131 E7.28909 F1800 ; Draw perimeter (left)
G0 X104.8432 Y147.5195 F9000 ; Step inwards to print next perimeter
G1 X104.8432 Y187.9205 E2.08374 F1800 ; Draw perimeter (up)
G1 X245.1568 Y187.9205 E7.23686 F1800 ; Draw perimeter (right)
G1 X245.1568 Y147.5195 E2.08374 F1800 ; Draw perimeter (down)
G1 X104.8432 Y147.5195 E7.23686 F1800 ; Draw perimeter (left)
G0 X105.3496 Y148.0258 F9000 ; Step inwards to print next perimeter
G1 X105.3496 Y187.4142 E2.0315 F1800 ; Draw perimeter (up)
G1 X244.6504 Y187.4142 E7.18463 F1800 ; Draw perimeter (right)
G1 X244.6504 Y148.0258 E2.0315 F1800 ; Draw perimeter (down)
G1 X105.3496 Y148.0258 E7.18463 F1800 ; Draw perimeter (left)
G1 E-1 F2700 ; Retract
G1 Z0.45 F9000 ; Z hop
G0 X103.8305 Y189.4396 F9000 ; Move to box start
G1 Z0.25 F9000 ; Z hop return
G1 E1 F2700 ; Un-retract
G1 X103.8305 Y203.9459 E0.74818 F1800 ; Draw perimeter (up)
G1 X225.7073 Y203.9459 E6.28596 F1800 ; Draw perimeter (right)
G1 X225.7073 Y189.4396 E0.74818 F1800 ; Draw perimeter (down)
G1 X103.8305 Y189.4396 E6.28596 F1800 ; Draw perimeter (left)
G0 X104.3369 Y189.9459 F9000 ; Step inwards to print next perimeter
G1 X104.3369 Y203.4396 E0.69595 F1800 ; Draw perimeter (up)
G1 X225.201 Y203.4396 E6.23373 F1800 ; Draw perimeter (right)
G1 X225.201 Y189.9459 E0.69595 F1800 ; Draw perimeter (down)
G1 X104.3369 Y189.9459 E6.23373 F1800 ; Draw perimeter (left)
G0 X104.8432 Y190.4523 F9000 ; Step inwards to print next perimeter
G1 X104.8432 Y202.9332 E0.64372 F1800 ; Draw perimeter (up)
G1 X224.6946 Y202.9332 E6.1815 F1800 ; Draw perimeter (right)
G1 X224.6946 Y190.4523 E0.64372 F1800 ; Draw perimeter (down)
G1 X104.8432 Y190.4523 E6.1815 F1800 ; Draw perimeter (left)
G0 X105.3496 Y190.9586 F9000 ; Step inwards to print next perimeter
G1 X105.3496 Y202.4269 E0.59149 F1800 ; Draw perimeter (up)
G1 X224.1883 Y202.4269 E6.12927 F1800 ; Draw perimeter (right)
G1 X224.1883 Y190.9586 E0.59149 F1800 ; Draw perimeter (down)
G1 X105.3496 Y190.9586 E6.12927 F1800 ; Draw perimeter (left)
G0 X105.7229 Y191.3319 F9000 ; Move to fill start
G0 X106.439 Y191.3319 F9000 ; Move
G1 X105.7229 Y192.048 E0.05223 F1800 ; Fill
G0 X105.7229 Y192.7641 F9000 ; Move
G1 X107.1551 Y191.3319 E0.10446 F1800 ; Fill
G0 X107.8712 Y191.3319 F9000 ; Move
G1 X105.7229 Y193.4802 E0.15669 F1800 ; Fill
G0 X105.7229 Y194.1963 F9000 ; Move
G1 X108.5873 Y191.3319 E0.20893 F1800 ; Fill
G0 X109.3034 Y191.3319 F9000 ; Move
G1 X105.7229 Y194.9124 E0.26116 F1800 ; Fill
G0 X105.7229 Y195.6285 F9000 ; Move
G1 X110.0194 Y191.3319 E0.31339 F1800 ; Fill
G0 X110.7355 Y191.3319 F9000 ; Move
G1 X105.7229 Y196.3445 E0.36562 F1800 ; Fill
G0 X105.7229 Y197.0606 F9000 ; Move
G1 X111.4516 Y191.3319 E0.41785 F1800 ; Fill
G0 X112.1677 Y191.3319 F9000 ; Move
G1 X105.7229 Y197.7767 E0.47008 F1800 ; Fill
G0 X105.7229 Y198.4928 F9000 ; Move
G1 X112.8838 Y191.3319 E0.52231 F1800 ; Fill
G0 X113.5999 Y191.3319 F9000 ; Move
G1 X105.7229 Y199.2089 E0.57454 F1800 ; Fill
G0 X105.7229 Y199.925 F9000 ; Move
G1 X114.316 Y191.3319 E0.62678 F1800 ; Fill
G0 X115.0321 Y191.3319 F9000 ; Move
G1 X105.7229 Y200.6411 E0.67901 F1800 ; Fill
G0 X105.7229 Y201.3571 F9000 ; Move
G1 X115.7481 Y191.3319 E0.73124 F1800 ; Fill
G0 X116.4642 Y191.3319 F9000 ; Move
G1 X105.7426 Y202.0535 E0.78203 F1800 ; Fill
G0 X106.4587 Y202.0535 F9000 ; Move
G1 X117.1803 Y191.3319 E0.78203 F1800 ; Fill
G0 X117.8964 Y191.3319 F9000 ; Move
G1 X107.1748 Y202.0535 E0.78203 F1800 ; Fill
G0 X107.8909 Y202.0535 F9000 ; Move
G1 X118.6125 Y191.3319 E0.78203 F1800 ; Fill
G0 X119.3286 Y191.3319 F9000 ; Move
G1 X108.607 Y202.0535 E0.78203 F1800 ; Fill
G0 X109.3231 Y202.0535 F9000 ; Move
G1 X120.0447 Y191.3319 E0.78203 F1800 ; Fill
G0 X120.7607 Y191.3319 F9000 ; Move
G1 X110.0392 Y202.0535 E0.78203 F1800 ; Fill
G0 X110.7552 Y202.0535 F9000 ; Move
G1 X121.4768 Y191.3319 E0.78203 F1800 ; Fill
G0 X122.1929 Y191.3319 F9000 ; Move
G1 X111.4713 Y202.0535 E0.78203 F1800 ; Fill
G0 X112.1874 Y202.0535 F9000 ; Move
G1 X122.909 Y191.3319 E0.78203 F1800 ; Fill
G0 X123.6251 Y191.3319 F9000 ; Move
G1 X112.9035 Y202.0535 E0.78203 F1800 ; Fill
G0 X113.6196 Y202.0535 F9000 ; Move
G1 X124.3412 Y191.3319 E0.78203 F1800 ; Fill
G0 X125.0573 Y191.3319 F9000 ; Move
G1 X114.3357 Y202.0535 E0.78203 F1800 ; Fill
G0 X115.0518 Y202.0535 F9000 ; Move
G1 X125.7734 Y191.3319 E0.78203 F1800 ; Fill
G0 X126.4894 Y191.3319 F9000 ; Move
G1 X115.7679 Y202.0535 E0.78203 F1800 ; Fill
G0 X116.4839 Y202.0535 F9000 ; Move
G1 X127.2055 Y191.3319 E0.78203 F1800 ; Fill
G0 X127.9216 Y191.3319 F9000 ; Move
G1 X117.2 Y202.0535 E0.78203 F1800 ; Fill
G0 X117.9161 Y202.0535 F9000 ; Move
G1 X128.6377 Y191.3319 E0.78203 F1800 ; Fill
G0 X129.3538 Y191.3319 F9000 ; Move
G1 X118.6322 Y202.0535 E0.78203 F1800 ; Fill
G0 X119.3483 Y202.0535 F9000 ; Move
G1 X130.0699 Y191.3319 E0.78203 F1800 ; Fill
G0 X130.786 Y191.3319 F9000 ; Move
G1 X120.0644 Y202.0535 E0.78203 F1800 ; Fill
G0 X120.7805 Y202.0535 F9000 ; Move
G1 X131.502 Y191.3319 E0.78203 F1800 ; Fill
G0 X132.2181 Y191.3319 F9000 ; Move
G1 X121.4965 Y202.0535 E0.78203 F1800 ; Fill
G0 X122.2126 Y202.0535 F9000 ; Move
G1 X132.9342 Y191.3319 E0.78203 F1800 ; Fill
G0 X133.6503 Y191.3319 F9000 ; Move
G1 X122.9287 Y202.0535 E0.78203 F1800 ; Fill
G0 X123.6448 Y202.0535 F9000 ; Move
G1 X134.3664 Y191.3319 E0.78203 F1800 ; Fill
G0 X135.0825 Y191.3319 F9000 ; Move
G1 X124.3609 Y202.0535 E0.78203 F1800 ; Fill
G0 X125.077 Y202.0535 F9000 ; Move
G1 X135.7986 Y191.3319 E0.78203 F1800 ; Fill
G0 X136.5146 Y191.3319 F9000 ; Move
G1 X125.7931 Y202.0535 E0.78203 F1800 ; Fill
G0 X126.5091 Y202.0535 F9000 ; Move
G1 X137.2307 Y191.3319 E0.78203 F1800 ; Fill
G0 X137.9468 Y191.3319 F9000 ; Move
G1 X127.2252 Y202.0535 E0.78203 F1800 ; Fill
G0 X127.9413 Y202.0535 F9000 ; Move
G1 X138.6629 Y191.3319 E0.78203 F1800 ; Fill
G0 X139.379 Y191.3319 F9000 ; Move
G1 X128.6574 Y202.0535 E0.78203 F1800 ; Fill
G0 X129.3735 Y202.0535 F9000 ; Move
G1 X140.0951 Y191.3319 E0.78203 F1800 ; Fill
G0 X140.8112 Y191.3319 F9000 ; Move
G1 X130.0896 Y202.0535 E0.78203 F1800 ; Fill
G0 X130.8057 Y202.0535 F9000 ; Move
G1 X141.5273 Y191.3319 E0.78203 F1800 ; Fill
G0 X142.2433 Y191.3319 F9000 ; Move
G1 X131.5218 Y202.0535 E0.78203 F1800 ; Fill
G0 X132.2378 Y202.0535 F9000 ; Move
G1 X142.9594 Y191.3319 E0.78203 F1800 ; Fill
G0 X143.6755 Y191.3319 F9000 ; Move
G1 X132.9539 Y202.0535 E0.78203 F1800 ; Fill
G0 X133.67 Y202.0535 F9000 ; Move
G1 X144.3916 Y191.3319 E0.78203 F1800 ; Fill
G0 X145.1077 Y191.3319 F9000 ; Move
G1 X134.3861 Y202.0535 E0.78203 F1800 ; Fill
G0 X135.1022 Y202.0535 F9000 ; Move
G1 X145.8238 Y191.3319 E0.78203 F1800 ; Fill
G0 X146.5399 Y191.3319 F9000 ; Move
G1 X135.8183 Y202.0535 E0.78203 F1800 ; Fill
G0 X136.5344 Y202.0535 F9000 ; Move
G1 X147.2559 Y191.3319 E0.78203 F1800 ; Fill
G0 X147.972 Y191.3319 F9000 ; Move
G1 X137.2504 Y202.0535 E0.78203 F1800 ; Fill
G0 X137.9665 Y202.0535 F9000 ; Move
G1 X148.6881 Y191.3319 E0.78203 F1800 ; Fill
G0 X149.4042 Y191.3319 F9000 ; Move
G1 X138.6826 Y202.0535 E0.78203 F1800 ; Fill
G0 X139.3987 Y202.0535 F9000 ; Move
G1 X150.1203 Y191.3319 E0.78203 F1800 ; Fill
G0 X150.8364 Y191.3319 F9000 ; Move
G1 X140.1148 Y202.0535 E0.78203 F1800 ; Fill
G0 X140.8309 Y202.0535 F9000 ; Move
G1 X151.5525 Y191.3319 E0.78203 F1800 ; Fill
G0 X152.2685 Y191.3319 F9000 ; Move
G1 X141.547 Y202.0535 E0.78203 F1800 ; Fill
G0 X142.263 Y202.0535 F9000 ; Move
G1 X152.9846 Y191.3319 E0.78203 F1800 ; Fill
G0 X153.7007 Y191.3319 F9000 ; Move
G1 X142.9791 Y202.0535 E0.78203 F1800 ; Fill
G0 X143.6952 Y202.0535 F9000 ; Move
G1 X154.4168 Y191.3319 E0.78203 F1800 ; Fill
G0 X155.1329 Y191.3319 F9000 ; Move
G1 X144.4113 Y202.0535 E0.78203 F1800 ; Fill
G0 X145.1274 Y202.0535 F9000 ; Move
G1 X155.849 Y191.3319 E0.78203 F1800 ; Fill
G0 X156.5651 Y191.3319 F9000 ; Move
G1 X145.8435 Y202.0535 E0.78203 F1800 ; Fill
G0 X146.5596 Y202.0535 F9000 ; Move
G1 X157.2812 Y191.3319 E0.78203 F1800 ; Fill
G0 X157.9972 Y191.3319 F9000 ; Move
G1 X147.2757 Y202.0535 E0.78203 F1800 ; Fill
G0 X147.9917 Y202.0535 F9000 ; Move
G1 X158.7133 Y191.3319 E0.78203 F1800 ; Fill
G0 X159.4294 Y191.3319 F9000 ; Move
G1 X148.7078 Y202.0535 E0.78203 F1800 ; Fill
G0 X149.4239 Y202.0535 F9000 ; Move
G1 X160.1455 Y191.3319 E0.78203 F1800 ; Fill
G0 X160.8616 Y191.3319 F9000 ; Move
G1 X150.14 Y202.0535 E0.78203 F1800 ; Fill
G0 X150.8561 Y202.0535 F9000 ; Move
G1 X161.5777 Y191.3319 E0.78203 F1800 ; Fill
G0 X162.2938 Y191.3319 F9000 ; Move
G1 X151.5722 Y202.0535 E0.78203 F1800 ; Fill
G0 X152.2883 Y202.0535 F9000 ; Move
G1 X163.0098 Y191.3319 E0.78203 F1800 ; Fill
G0 X163.7259 Y191.3319 F9000 ; Move
G1 X153.0043 Y202.0535 E0.78203 F1800 ; Fill
G0 X153.7204 Y202.0535 F9000 ; Move
G1 X164.442 Y191.3319 E0.78203 F1800 ; Fill
G0 X165.1581 Y191.3319 F9000 ; Move
G1 X154.4365 Y202.0535 E0.78203 F1800 ; Fill
G0 X155.1526 Y202.0535 F9000 ; Move
G1 X165.8742 Y191.3319 E0.78203 F1800 ; Fill
G0 X166.5903 Y191.3319 F9000 ; Move
G1 X155.8687 Y202.0535 E0.78203 F1800 ; Fill
G0 X156.5848 Y202.0535 F9000 ; Move
G1 X167.3064 Y191.3319 E0.78203 F1800 ; Fill
G0 X168.0224 Y191.3319 F9000 ; Move
G1 X157.3009 Y202.0535 E0.78203 F1800 ; Fill
G0 X158.0169 Y202.0535 F9000 ; Move
G1 X168.7385 Y191.3319 E0.78203 F1800 ; Fill
G0 X169.4546 Y191.3319 F9000 ; Move
G1 X158.733 Y202.0535 E0.78203 F1800 ; Fill
G0 X159.4491 Y202.0535 F9000 ; Move
G1 X170.1707 Y191.3319 E0.78203 F1800 ; Fill
G0 X170.8868 Y191.3319 F9000 ; Move
G1 X160.1652 Y202.0535 E0.78203 F1800 ; Fill
G0 X160.8813 Y202.0535 F9000 ; Move
G1 X171.6029 Y191.3319 E0.78203 F1800 ; Fill
G0 X172.319 Y191.3319 F9000 ; Move
G1 X161.5974 Y202.0535 E0.78203 F1800 ; Fill
G0 X162.3135 Y202.0535 F9000 ; Move
G1 X173.0351 Y191.3319 E0.78203 F1800 ; Fill
G0 X173.7511 Y191.3319 F9000 ; Move
G1 X163.0296 Y202.0535 E0.78203 F1800 ; Fill
G0 X163.7456 Y202.0535 F9000 ; Move
G1 X174.4672 Y191.3319 E0.78203 F1800 ; Fill
G0 X175.1833 Y191.3319 F9000 ; Move
G1 X164.4617 Y202.0535 E0.78203 F1800 ; Fill
G0 X165.1778 Y202.0535 F9000 ; Move
G1 X175.8994 Y191.3319 E0.78203 F1800 ; Fill
G0 X176.6155 Y191.3319 F9000 ; Move
G1 X165.8939 Y202.0535 E0.78203 F1800 ; Fill
G0 X166.61 Y202.0535 F9000 ; Move
G1 X177.3316 Y191.3319 E0.78203 F1800 ; Fill
G0 X178.0477 Y191.3319 F9000 ; Move
G1 X167.3261 Y202.0535 E0.78203 F1800 ; Fill
G0 X168.0422 Y202.0535 F9000 ; Move
G1 X178.7637 Y191.3319 E0.78203 F1800 ; Fill
G0 X179.4798 Y191.3319 F9000 ; Move
G1 X168.7582 Y202.0535 E0.78203 F1800 ; Fill
G0 X169.4743 Y202.0535 F9000 ; Move
G1 X180.1959 Y191.3319 E0.78203 F1800 ; Fill
G0 X180.912 Y191.3319 F9000 ; Move
G1 X170.1904 Y202.0535 E0.78203 F1800 ; Fill
G0 X170.9065 Y202.0535 F9000 ; Move
G1 X181.6281 Y191.3319 E0.78203 F1800 ; Fill
G0 X182.3442 Y191.3319 F9000 ; Move
G1 X171.6226 Y202.0535 E0.78203 F1800 ; Fill
G0 X172.3387 Y202.0535 F9000 ; Move
G1 X183.0603 Y191.3319 E0.78203 F1800 ; Fill
G0 X183.7763 Y191.3319 F9000 ; Move
G1 X173.0548 Y202.0535 E0.78203 F1800 ; Fill
G0 X173.7708 Y202.0535 F9000 ; Move
G1 X184.4924 Y191.3319 E0.78203 F1800 ; Fill
G0 X185.2085 Y191.3319 F9000 ; Move
G1 X174.4869 Y202.0535 E0.78203 F1800 ; Fill
G0 X175.203 Y202.0535 F9000 ; Move
G1 X185.9246 Y191.3319 E0.78203 F1800 ; Fill
G0 X186.6407 Y191.3319 F9000 ; Move
G1 X175.9191 Y202.0535 E0.78203 F1800 ; Fill
G0 X176.6352 Y202.0535 F9000 ; Move
G1 X187.3568 Y191.3319 E0.78203 F1800 ; Fill
G0 X188.0729 Y191.3319 F9000 ; Move
G1 X177.3513 Y202.0535 E0.78203 F1800 ; Fill
G0 X178.0674 Y202.0535 F9000 ; Move
G1 X188.789 Y191.3319 E0.78203 F1800 ; Fill
G0 X189.505 Y191.3319 F9000 ; Move
G1 X178.7835 Y202.0535 E0.78203 F1800 ; Fill
G0 X179.4995 Y202.0535 F9000 ; Move
G1 X190.2211 Y191.3319 E0.78203 F1800 ; Fill
G0 X190.9372 Y191.3319 F9000 ; Move
G1 X180.2156 Y202.0535 E0.78203 F1800 ; Fill
G0 X180.9317 Y202.0535 F9000 ; Move
G1 X191.6533 Y191.3319 E0.78203 F1800 ; Fill
G0 X192.3694 Y191.3319 F9000 ; Move
G1 X181.6478 Y202.0535 E0.78203 F1800 ; Fill
G0 X182.3639 Y202.0535 F9000 ; Move
G1 X193.0855 Y191.3319 E0.78203 F1800 ; Fill
G0 X193.8016 Y191.3319 F9000 ; Move
G1 X183.08 Y202.0535 E0.78203 F1800 ; Fill
G0 X183.7961 Y202.0535 F9000 ; Move
G1 X194.5176 Y191.3319 E0.78203 F1800 ; Fill
G0 X195.2337 Y191.3319 F9000 ; Move
G1 X184.5121 Y202.0535 E0.78203 F1800 ; Fill
G0 X185.2282 Y202.0535 F9000 ; Move
G1 X195.9498 Y191.3319 E0.78203 F1800 ; Fill
G0 X196.6659 Y191.3319 F9000 ; Move
G1 X185.9443 Y202.0535 E0.78203 F1800 ; Fill
G0 X186.6604 Y202.0535 F9000 ; Move
G1 X197.382 Y191.3319 E0.78203 F1800 ; Fill
G0 X198.0981 Y191.3319 F9000 ; Move
G1 X187.3765 Y202.0535 E0.78203 F1800 ; Fill
G0 X188.0926 Y202.0535 F9000 ; Move
G1 X198.8142 Y191.3319 E0.78203 F1800 ; Fill
G0 X199.5302 Y191.3319 F9000 ; Move
G1 X188.8087 Y202.0535 E0.78203 F1800 ; Fill
G0 X189.5247 Y202.0535 F9000 ; Move
G1 X200.2463 Y191.3319 E0.78203 F1800 ; Fill
G0 X200.9624 Y191.3319 F9000 ; Move
G1 X190.2408 Y202.0535 E0.78203 F1800 ; Fill
G0 X190.9569 Y202.0535 F9000 ; Move
G1 X201.6785 Y191.3319 E0.78203 F1800 ; Fill
G0 X202.3946 Y191.3319 F9000 ; Move
G1 X191.673 Y202.0535 E0.78203 F1800 ; Fill
G0 X192.3891 Y202.0535 F9000 ; Move
G1 X203.1107 Y191.3319 E0.78203 F1800 ; Fill
G0 X203.8268 Y191.3319 F9000 ; Move
G1 X193.1052 Y202.0535 E0.78203 F1800 ; Fill
G0 X193.8213 Y202.0535 F9000 ; Move
G1 X204.5429 Y191.3319 E0.78203 F1800 ; Fill
G0 X205.2589 Y191.3319 F9000 ; Move
G1 X194.5374 Y202.0535 E0.78203 F1800 ; Fill
G0 X195.2534 Y202.0535 F9000 ; Move
G1 X205.975 Y191.3319 E0.78203 F1800 ; Fill
G0 X206.6911 Y191.3319 F9000 ; Move
G1 X195.9695 Y202.0535 E0.78203 F1800 ; Fill
G0 X196.6856 Y202.0535 F9000 ; Move
G1 X207.4072 Y191.3319 E0.78203 F1800 ; Fill
G0 X208.1233 Y191.3319 F9000 ; Move
G1 X197.4017 Y202.0535 E0.78203 F1800 ; Fill
G0 X198.1178 Y202.0535 F9000 ; Move
G1 X208.8394 Y191.3319 E0.78203 F1800 ; Fill
G0 X209.5555 Y191.3319 F9000 ; Move
G1 X198.8339 Y202.0535 E0.78203 F1800 ; Fill
G0 X199.55 Y202.0535 F9000 ; Move
G1 X210.2715 Y191.3319 E0.78203 F1800 ; Fill
G0 X210.9876 Y191.3319 F9000 ; Move
G1 X200.266 Y202.0535 E0.78203 F1800 ; Fill
G0 X200.9821 Y202.0535 F9000 ; Move
G1 X211.7037 Y191.3319 E0.78203 F1800 ; Fill
G0 X212.4198 Y191.3319 F9000 ; Move
G1 X201.6982 Y202.0535 E0.78203 F1800 ; Fill
G0 X202.4143 Y202.0535 F9000 ; Move
G1 X213.1359 Y191.3319 E0.78203 F1800 ; Fill
G0 X213.852 Y191.3319 F9000 ; Move
G1 X203.1304 Y202.0535 E0.78203 F1800 ; Fill
G0 X203.8465 Y202.0535 F9000 ; Move
G1 X214.5681 Y191.3319 E0.78203 F1800 ; Fill
G0 X215.2841 Y191.3319 F9000 ; Move
G1 X204.5626 Y202.0535 E0.78203 F1800 ; Fill
G0 X205.2786 Y202.0535 F9000 ; Move
G1 X216.0002 Y191.3319 E0.78203 F1800 ; Fill
G0 X216.7163 Y191.3319 F9000 ; Move
G1 X205.9947 Y202.0535 E0.78203 F1800 ; Fill
G0 X206.7108 Y202.0535 F9000 ; Move
G1 X217.4324 Y191.3319 E0.78203 F1800 ; Fill
G0 X218.1485 Y191.3319 F9000 ; Move
G1 X207.4269 Y202.0535 E0.78203 F1800 ; Fill
G0 X208.143 Y202.0535 F9000 ; Move
G1 X218.8646 Y191.3319 E0.78203 F1800 ; Fill
G0 X219.5807 Y191.3319 F9000 ; Move
G1 X208.8591 Y202.0535 E0.78203 F1800 ; Fill
G0 X209.5752 Y202.0535 F9000 ; Move
G1 X220.2968 Y191.3319 E0.78203 F1800 ; Fill
G0 X221.0128 Y191.3319 F9000 ; Move
G1 X210.2913 Y202.0535 E0.78203 F1800 ; Fill
G0 X211.0073 Y202.0535 F9000 ; Move
G1 X221.7289 Y191.3319 E0.78203 F1800 ; Fill
G0 X222.445 Y191.3319 F9000 ; Move
G1 X211.7234 Y202.0535 E0.78203 F1800 ; Fill
G0 X212.4395 Y202.0535 F9000 ; Move
G1 X223.1611 Y191.3319 E0.78203 F1800 ; Fill
G0 X223.815 Y191.3942 F9000 ; Move
G1 X213.1556 Y202.0535 E0.77749 F1800 ; Fill
G0 X213.8717 Y202.0535 F9000 ; Move
G1 X223.815 Y192.1102 E0.72526 F1800 ; Fill
G0 X223.815 Y192.8263 F9000 ; Move
G1 X214.5878 Y202.0535 E0.67303 F1800 ; Fill
G0 X215.3039 Y202.0535 F9000 ; Move
G1 X223.815 Y193.5424 E0.6208 F1800 ; Fill
G0 X223.815 Y194.2585 F9000 ; Move
G1 X216.0199 Y202.0535 E0.56857 F1800 ; Fill
G0 X216.736 Y202.0535 F9000 ; Move
G1 X223.815 Y194.9746 E0.51634 F1800 ; Fill
G0 X223.815 Y195.6907 F9000 ; Move
G1 X217.4521 Y202.0535 E0.46411 F1800 ; Fill
G0 X218.1682 Y202.0535 F9000 ; Move
G1 X223.815 Y196.4068 E0.41187 F1800 ; Fill
G0 X223.815 Y197.1229 F9000 ; Move
G1 X218.8843 Y202.0535 E0.35964 F1800 ; Fill
G0 X219.6004 Y202.0535 F9000 ; Move
G1 X223.815 Y197.8389 E0.30741 F1800 ; Fill
G0 X223.815 Y198.555 F9000 ; Move
G1 X220.3165 Y202.0535 E0.25518 F1800 ; Fill
G0 X221.0326 Y202.0535 F9000 ; Move
G1 X223.815 Y199.2711 E0.20295 F1800 ; Fill
G0 X223.815 Y199.9872 F9000 ; Move
G1 X221.7486 Y202.0535 E0.15072 F1800 ; Fill
G0 X222.4647 Y202.0535 F9000 ; Move
G1 X223.815 Y200.7033 E0.09849 F1800 ; Fill
G0 X223.815 Y201.4194 F9000 ; Move
G1 X223.1808 Y202.0535 E0.04626 F1800 ; Fill
G0 Z0.25 F9000 ; Move to layer height
G1 E-1 F2700 ; Retract
G1 Z0.45 F9000 ; Z hop
G0 X108.4272 Y148.3992 F9000 ; Move to pattern start

G1 Z0.25 F9000 ; Z hop return
G1 E1 F2700 ; Un-retract
SET_PRESSURE_ADVANCE ADVANCE=0 ; Set pressure advance
M117 PA 0
G1 X127.7481 Y167.72 E1.10311 F1800 ; Print pattern wall
G1 X108.4272 Y187.0408 E1.10311 F1800 ; Print pattern wall
G1 E-1 F2700 ; Retract
G1 Z0.45 F9000 ; Z hop
G0 X109.0029 Y148.3992 F9000 ; Move to start next pattern wall
G1 Z0.25 F9000 ; Z hop return
G1 E1 F2700 ; Un-retract
G1 X128.3238 Y167.72 E1.10311 F1800 ; Print pattern wall
G1 X109.0029 Y187.0408 E1.10311 F1800 ; Print pattern wall
G1 E-1 F2700 ; Retract
G1 Z0.45 F9000 ; Z hop
G0 X109.5786 Y148.3992 F9000 ; Move to start next pattern wall
G1 Z0.25 F9000 ; Z hop return
G1 E1 F2700 ; Un-retract
G1 X128.8995 Y167.72 E1.10311 F1800 ; Print pattern wall
G1 X109.5786 Y187.0408 E1.10311 F1800 ; Print pattern wall
G1 E-1 F2700 ; Retract
G1 Z0.45 F9000 ; Z hop
G0 X112.0286 Y148.3992 F9000 ; Move to next pattern
G1 Z0.25 F9000 ; Z hop return
G1 E1 F2700 ; Un-retract
SET_PRESSURE_ADVANCE ADVANCE=0.0025 ; Set pressure advance
M117 PA 0.0025
G1 X131.3495 Y167.72 E1.10311 F1800 ; Print pattern wall
G1 X112.0286 Y187.0408 E1.10311 F1800 ; Print pattern wall
G1 E-1 F2700 ; Retract
G1 Z0.45 F9000 ; Z hop
G0 X112.6043 Y148.3992 F9000 ; Move to start next pattern wall
G1 Z0.25 F9000 ; Z hop return
G1 E1 F2700 ; Un-retract
G1 X131.9251 Y167.72 E1.10311 F1800 ; Print pattern wall
G1 X112.6043 Y187.0408 E1.10311 F1800 ; Print pattern wall
G1 E-1 F2700 ; Retract
G1 Z0.45 F9000 ; Z hop
G0 X113.18 Y148.3992 F9000 ; Move to start next pattern wall
G1 Z0.25 F9000 ; Z hop return
G1 E1 F2700 ; Un-retract
G1 X132.5008 Y167.72 E1.10311 F1800 ; Print pattern wall
G1 X113.18 Y187.0408 E1.10311 F1800 ; Print pattern wall
G1 E-1 F2700 ; Retract
G1 Z0.45 F9000 ; Z hop
G0 X115.63 Y148.3992 F9000 ; Move to next pattern
G1 Z0.25 F9000 ; Z hop return
G1 E1 F2700 ; Un-retract
SET_PRESSURE_ADVANCE ADVANCE=0.005 ; Set pressure advance
M117 PA 0.005
G1 X134.9508 Y167.72 E1.10311 F1800 ; Print pattern wall
G1 X115.63 Y187.0408 E1.10311 F1800 ; Print pattern wall
G1 E-1 F2700 ; Retract
G1 Z0.45 F9000 ; Z hop
G0 X116.2057 Y148.3992 F9000 ; Move to start next pattern wall
G1 Z0.25 F9000 ; Z hop return
G1 E1 F2700 ; Un-retract
G1 X135.5265 Y167.72 E1.10311 F1800 ; Print pattern wall
G1 X116.2057 Y187.0408 E1.10311 F1800 ; Print pattern wall
G1 E-1 F2700 ; Retract
G1 Z0.45 F9000 ; Z hop
G0 X116.7814 Y148.3992 F9000 ; Move to start next pattern wall
G1 Z0.25 F9000 ; Z hop return
G1 E1 F2700 ; Un-retract
G1 X136.1022 Y167.72 E1.10311 F1800 ; Print pattern wall
G1 X116.7814 Y187.0408 E1.10311 F1800 ; Print pattern wall
G1 E-1 F2700 ; Retract
G1 Z0.45 F9000 ; Z hop
G0 X119.2314 Y148.3992 F9000 ; Move to next pattern
G1 Z0.25 F9000 ; Z hop return
G1 E1 F2700 ; Un-retract
SET_PRESSURE_ADVANCE ADVANCE=0.0075 ; Set pressure advance
M117 PA 0.0075
G1 X138.5522 Y167.72 E1.10311 F1800 ; Print pattern wall
G1 X119.2314 Y187.0408 E1.10311 F1800 ; Print pattern wall
G1 E-1 F2700 ; Retract
G1 Z0.45 F9000 ; Z hop
G0 X119.8071 Y148.3992 F9000 ; Move to start next pattern wall
G1 Z0.25 F9000 ; Z hop return
G1 E1 F2700 ; Un-retract
G1 X139.1279 Y167.72 E1.10311 F1800 ; Print pattern wall
G1 X119.8071 Y187.0408 E1.10311 F1800 ; Print pattern wall
G1 E-1 F2700 ; Retract
G1 Z0.45 F9000 ; Z hop
G0 X120.3828 Y148.3992 F9000 ; Move to start next pattern wall
G1 Z0.25 F9000 ; Z hop return
G1 E1 F2700 ; Un-retract
G1 X139.7036 Y167.72 E1.10311 F1800 ; Print pattern wall
G1 X120.3828 Y187.0408 E1.10311 F1800 ; Print pattern wall
G1 E-1 F2700 ; Retract
G1 Z0.45 F9000 ; Z hop
G0 X122.8328 Y148.3992 F9000 ; Move to next pattern
G1 Z0.25 F9000 ; Z hop return
G1 E1 F2700 ; Un-retract
SET_PRESSURE_ADVANCE ADVANCE=0.01 ; Set pressure advance
M117 PA 0.01
G1 X142.1536 Y167.72 E1.10311 F1800 ; Print pattern wall
G1 X122.8328 Y187.0408 E1.10311 F1800 ; Print pattern wall
G1 E-1 F2700 ; Retract
G1 Z0.45 F9000 ; Z hop
G0 X123.4085 Y148.3992 F9000 ; Move to start next pattern wall
G1 Z0.25 F9000 ; Z hop return
G1 E1 F2700 ; Un-retract
G1 X142.7293 Y167.72 E1.10311 F1800 ; Print pattern wall
G1 X123.4085 Y187.0408 E1.10311 F1800 ; Print pattern wall
G1 E-1 F2700 ; Retract
G1 Z0.45 F9000 ; Z hop
G0 X123.9842 Y148.3992 F9000 ; Move to start next pattern wall
G1 Z0.25 F9000 ; Z hop return
G1 E1 F2700 ; Un-retract
G1 X143.305 Y167.72 E1.10311 F1800 ; Print pattern wall
G1 X123.9842 Y187.0408 E1.10311 F1800 ; Print pattern wall
G1 E-1 F2700 ; Retract
G1 Z0.45 F9000 ; Z hop
G0 X126.4342 Y148.3992 F9000 ; Move to next pattern
G1 Z0.25 F9000 ; Z hop return
G1 E1 F2700 ; Un-retract
SET_PRESSURE_ADVANCE ADVANCE=0.0125 ; Set pressure advance
M117 PA 0.0125
G1 X145.755 Y167.72 E1.10311 F1800 ; Print pattern wall
G1 X126.4342 Y187.0408 E1.10311 F1800 ; Print pattern wall
G1 E-1 F2700 ; Retract
G1 Z0.45 F9000 ; Z hop
G0 X127.0099 Y148.3992 F9000 ; Move to start next pattern wall
G1 Z0.25 F9000 ; Z hop return
G1 E1 F2700 ; Un-retract
G1 X146.3307 Y167.72 E1.10311 F1800 ; Print pattern wall
G1 X127.0099 Y187.0408 E1.10311 F1800 ; Print pattern wall
G1 E-1 F2700 ; Retract
G1 Z0.45 F9000 ; Z hop
G0 X127.5856 Y148.3992 F9000 ; Move to start next pattern wall
G1 Z0.25 F9000 ; Z hop return
G1 E1 F2700 ; Un-retract
G1 X146.9064 Y167.72 E1.10311 F1800 ; Print pattern wall
G1 X127.5856 Y187.0408 E1.10311 F1800 ; Print pattern wall
G1 E-1 F2700 ; Retract
G1 Z0.45 F9000 ; Z hop
G0 X130.0356 Y148.3992 F9000 ; Move to next pattern
G1 Z0.25 F9000 ; Z hop return
G1 E1 F2700 ; Un-retract
SET_PRESSURE_ADVANCE ADVANCE=0.015 ; Set pressure advance
M117 PA 0.015
G1 X149.3564 Y167.72 E1.10311 F1800 ; Print pattern wall
G1 X130.0356 Y187.0408 E1.10311 F1800 ; Print pattern wall
G1 E-1 F2700 ; Retract
G1 Z0.45 F9000 ; Z hop
G0 X130.6113 Y148.3992 F9000 ; Move to start next pattern wall
G1 Z0.25 F9000 ; Z hop return
G1 E1 F2700 ; Un-retract
G1 X149.9321 Y167.72 E1.10311 F1800 ; Print pattern wall
G1 X130.6113 Y187.0408 E1.10311 F1800 ; Print pattern wall
G1 E-1 F2700 ; Retract
G1 Z0.45 F9000 ; Z hop
G0 X131.187 Y148.3992 F9000 ; Move to start next pattern wall
G1 Z0.25 F9000 ; Z hop return
G1 E1 F2700 ; Un-retract
G1 X150.5078 Y167.72 E1.10311 F1800 ; Print pattern wall
G1 X131.187 Y187.0408 E1.10311 F1800 ; Print pattern wall
G1 E-1 F2700 ; Retract
G1 Z0.45 F9000 ; Z hop
G0 X133.637 Y148.3992 F9000 ; Move to next pattern
G1 Z0.25 F9000 ; Z hop return
G1 E1 F2700 ; Un-retract
SET_PRESSURE_ADVANCE ADVANCE=0.0175 ; Set pressure advance
M117 PA 0.0175
G1 X152.9578 Y167.72 E1.10311 F1800 ; Print pattern wall
G1 X133.637 Y187.0408 E1.10311 F1800 ; Print pattern wall
G1 E-1 F2700 ; Retract
G1 Z0.45 F9000 ; Z hop
G0 X134.2127 Y148.3992 F9000 ; Move to start next pattern wall
G1 Z0.25 F9000 ; Z hop return
G1 E1 F2700 ; Un-retract
G1 X153.5335 Y167.72 E1.10311 F1800 ; Print pattern wall
G1 X134.2127 Y187.0408 E1.10311 F1800 ; Print pattern wall
G1 E-1 F2700 ; Retract
G1 Z0.45 F9000 ; Z hop
G0 X134.7884 Y148.3992 F9000 ; Move to start next pattern wall
G1 Z0.25 F9000 ; Z hop return
G1 E1 F2700 ; Un-retract
G1 X154.1092 Y167.72 E1.10311 F1800 ; Print pattern wall
G1 X134.7884 Y187.0408 E1.10311 F1800 ; Print pattern wall
G1 E-1 F2700 ; Retract
G1 Z0.45 F9000 ; Z hop
G0 X137.2384 Y148.3992 F9000 ; Move to next pattern
G1 Z0.25 F9000 ; Z hop return
G1 E1 F2700 ; Un-retract
SET_PRESSURE_ADVANCE ADVANCE=0.02 ; Set pressure advance
M117 PA 0.02
G1 X156.5592 Y167.72 E1.10311 F1800 ; Print pattern wall
G1 X137.2384 Y187.0408 E1.10311 F1800 ; Print pattern wall
G1 E-1 F2700 ; Retract
G1 Z0.45 F9000 ; Z hop
G0 X137.8141 Y148.3992 F9000 ; Move to start next pattern wall
G1 Z0.25 F9000 ; Z hop return
G1 E1 F2700 ; Un-retract
G1 X157.1349 Y167.72 E1.10311 F1800 ; Print pattern wall
G1 X137.8141 Y187.0408 E1.10311 F1800 ; Print pattern wall
G1 E-1 F2700 ; Retract
G1 Z0.45 F9000 ; Z hop
G0 X138.3898 Y148.3992 F9000 ; Move to start next pattern wall
G1 Z0.25 F9000 ; Z hop return
G1 E1 F2700 ; Un-retract
G1 X157.7106 Y167.72 E1.10311 F1800 ; Print pattern wall
G1 X138.3898 Y187.0408 E1.10311 F1800 ; Print pattern wall
G1 E-1 F2700 ; Retract
G1 Z0.45 F9000 ; Z hop
G0 X140.8398 Y148.3992 F9000 ; Move to next pattern
G1 Z0.25 F9000 ; Z hop return
G1 E1 F2700 ; Un-retract
SET_PRESSURE_ADVANCE ADVANCE=0.0225 ; Set pressure advance
M117 PA 0.0225
G1 X160.1606 Y167.72 E1.10311 F1800 ; Print pattern wall
G1 X140.8398 Y187.0408 E1.10311 F1800 ; Print pattern wall
G1 E-1 F2700 ; Retract
G1 Z0.45 F9000 ; Z hop
G0 X141.4155 Y148.3992 F9000 ; Move to start next pattern wall
G1 Z0.25 F9000 ; Z hop return
G1 E1 F2700 ; Un-retract
G1 X160.7363 Y167.72 E1.10311 F1800 ; Print pattern wall
G1 X141.4155 Y187.0408 E1.10311 F1800 ; Print pattern wall
G1 E-1 F2700 ; Retract
G1 Z0.45 F9000 ; Z hop
G0 X141.9912 Y148.3992 F9000 ; Move to start next pattern wall
G1 Z0.25 F9000 ; Z hop return
G1 E1 F2700 ; Un-retract
G1 X161.312 Y167.72 E1.10311 F1800 ; Print pattern wall
G1 X141.9912 Y187.0408 E1.10311 F1800 ; Print pattern wall
G1 E-1 F2700 ; Retract
G1 Z0.45 F9000 ; Z hop
G0 X144.4412 Y148.3992 F9000 ; Move to next pattern
G1 Z0.25 F9000 ; Z hop return
G1 E1 F2700 ; Un-retract
SET_PRESSURE_ADVANCE ADVANCE=0.025 ; Set pressure advance
M117 PA 0.025
G1 X163.762 Y167.72 E1.10311 F1800 ; Print pattern wall
G1 X144.4412 Y187.0408 E1.10311 F1800 ; Print pattern wall
G1 E-1 F2700 ; Retract
G1 Z0.45 F9000 ; Z hop
G0 X145.0169 Y148.3992 F9000 ; Move to start next pattern wall
G1 Z0.25 F9000 ; Z hop return
G1 E1 F2700 ; Un-retract
G1 X164.3377 Y167.72 E1.10311 F1800 ; Print pattern wall
G1 X145.0169 Y187.0408 E1.10311 F1800 ; Print pattern wall
G1 E-1 F2700 ; Retract
G1 Z0.45 F9000 ; Z hop
G0 X145.5926 Y148.3992 F9000 ; Move to start next pattern wall
G1 Z0.25 F9000 ; Z hop return
G1 E1 F2700 ; Un-retract
G1 X164.9134 Y167.72 E1.10311 F1800 ; Print pattern wall
G1 X145.5926 Y187.0408 E1.10311 F1800 ; Print pattern wall
G1 E-1 F2700 ; Retract
G1 Z0.45 F9000 ; Z hop
G0 X148.0426 Y148.3992 F9000 ; Move to next pattern
G1 Z0.25 F9000 ; Z hop return
G1 E1 F2700 ; Un-retract
SET_PRESSURE_ADVANCE ADVANCE=0.0275 ; Set pressure advance
M117 PA 0.0275
G1 X167.3634 Y167.72 E1.10311 F1800 ; Print pattern wall
G1 X148.0426 Y187.0408 E1.10311 F1800 ; Print pattern wall
G1 E-1 F2700 ; Retract
G1 Z0.45 F9000 ; Z hop
G0 X148.6183 Y148.3992 F9000 ; Move to start next pattern wall
G1 Z0.25 F9000 ; Z hop return
G1 E1 F2700 ; Un-retract
G1 X167.9391 Y167.72 E1.10311 F1800 ; Print pattern wall
G1 X148.6183 Y187.0408 E1.10311 F1800 ; Print pattern wall
G1 E-1 F2700 ; Retract
G1 Z0.45 F9000 ; Z hop
G0 X149.194 Y148.3992 F9000 ; Move to start next pattern wall
G1 Z0.25 F9000 ; Z hop return
G1 E1 F2700 ; Un-retract
G1 X168.5148 Y167.72 E1.10311 F1800 ; Print pattern wall
G1 X149.194 Y187.0408 E1.10311 F1800 ; Print pattern wall
G1 E-1 F2700 ; Retract
G1 Z0.45 F9000 ; Z hop
G0 X151.644 Y148.3992 F9000 ; Move to next pattern
G1 Z0.25 F9000 ; Z hop return
G1 E1 F2700 ; Un-retract
SET_PRESSURE_ADVANCE ADVANCE=0.03 ; Set pressure advance
M117 PA 0.03
G1 X170.9648 Y167.72 E1.10311 F1800 ; Print pattern wall
G1 X151.644 Y187.0408 E1.10311 F1800 ; Print pattern wall
G1 E-1 F2700 ; Retract
G1 Z0.45 F9000 ; Z hop
G0 X152.2197 Y148.3992 F9000 ; Move to start next pattern wall
G1 Z0.25 F9000 ; Z hop return
G1 E1 F2700 ; Un-retract
G1 X171.5405 Y167.72 E1.10311 F1800 ; Print pattern wall
G1 X152.2197 Y187.0408 E1.10311 F1800 ; Print pattern wall
G1 E-1 F2700 ; Retract
G1 Z0.45 F9000 ; Z hop
G0 X152.7954 Y148.3992 F9000 ; Move to start next pattern wall
G1 Z0.25 F9000 ; Z hop return
G1 E1 F2700 ; Un-retract
G1 X172.1162 Y167.72 E1.10311 F1800 ; Print pattern wall
G1 X152.7954 Y187.0408 E1.10311 F1800 ; Print pattern wall
G1 E-1 F2700 ; Retract
G1 Z0.45 F9000 ; Z hop
G0 X155.2454 Y148.3992 F9000 ; Move to next pattern
G1 Z0.25 F9000 ; Z hop return
G1 E1 F2700 ; Un-retract
SET_PRESSURE_ADVANCE ADVANCE=0.0325 ; Set pressure advance
M117 PA 0.0325
G1 X174.5662 Y167.72 E1.10311 F1800 ; Print pattern wall
G1 X155.2454 Y187.0408 E1.10311 F1800 ; Print pattern wall
G1 E-1 F2700 ; Retract
G1 Z0.45 F9000 ; Z hop
G0 X155.8211 Y148.3992 F9000 ; Move to start next pattern wall
G1 Z0.25 F9000 ; Z hop return
G1 E1 F2700 ; Un-retract
G1 X175.1419 Y167.72 E1.10311 F1800 ; Print pattern wall
G1 X155.8211 Y187.0408 E1.10311 F1800 ; Print pattern wall
G1 E-1 F2700 ; Retract
G1 Z0.45 F9000 ; Z hop
G0 X156.3968 Y148.3992 F9000 ; Move to start next pattern wall
G1 Z0.25 F9000 ; Z hop return
G1 E1 F2700 ; Un-retract
G1 X175.7176 Y167.72 E1.10311 F1800 ; Print pattern wall
G1 X156.3968 Y187.0408 E1.10311 F1800 ; Print pattern wall
G1 E-1 F2700 ; Retract
G1 Z0.45 F9000 ; Z hop
G0 X158.8468 Y148.3992 F9000 ; Move to next pattern
G1 Z0.25 F9000 ; Z hop return
G1 E1 F2700 ; Un-retract
SET_PRESSURE_ADVANCE ADVANCE=0.035 ; Set pressure advance
M117 PA 0.035
G1 X178.1676 Y167.72 E1.10311 F1800 ; Print pattern wall
G1 X158.8468 Y187.0408 E1.10311 F1800 ; Print pattern wall
G1 E-1 F2700 ; Retract
G1 Z0.45 F9000 ; Z hop
G0 X159.4225 Y148.3992 F9000 ; Move to start next pattern wall
G1 Z0.25 F9000 ; Z hop return
G1 E1 F2700 ; Un-retract
G1 X178.7433 Y167.72 E1.10311 F1800 ; Print pattern wall
G1 X159.4225 Y187.0408 E1.10311 F1800 ; Print pattern wall
G1 E-1 F2700 ; Retract
G1 Z0.45 F9000 ; Z hop
G0 X159.9982 Y148.3992 F9000 ; Move to start next pattern wall
G1 Z0.25 F9000 ; Z hop return
G1 E1 F2700 ; Un-retract
G1 X179.319 Y167.72 E1.10311 F1800 ; Print pattern wall
G1 X159.9982 Y187.0408 E1.10311 F1800 ; Print pattern wall
G1 E-1 F2700 ; Retract
G1 Z0.45 F9000 ; Z hop
G0 X162.4482 Y148.3992 F9000 ; Move to next pattern
G1 Z0.25 F9000 ; Z hop return
G1 E1 F2700 ; Un-retract
SET_PRESSURE_ADVANCE ADVANCE=0.0375 ; Set pressure advance
M117 PA 0.0375
G1 X181.769 Y167.72 E1.10311 F1800 ; Print pattern wall
G1 X162.4482 Y187.0408 E1.10311 F1800 ; Print pattern wall
G1 E-1 F2700 ; Retract
G1 Z0.45 F9000 ; Z hop
G0 X163.0239 Y148.3992 F9000 ; Move to start next pattern wall
G1 Z0.25 F9000 ; Z hop return
G1 E1 F2700 ; Un-retract
G1 X182.3447 Y167.72 E1.10311 F1800 ; Print pattern wall
G1 X163.0239 Y187.0408 E1.10311 F1800 ; Print pattern wall
G1 E-1 F2700 ; Retract
G1 Z0.45 F9000 ; Z hop
G0 X163.5996 Y148.3992 F9000 ; Move to start next pattern wall
G1 Z0.25 F9000 ; Z hop return
G1 E1 F2700 ; Un-retract
G1 X182.9204 Y167.72 E1.10311 F1800 ; Print pattern wall
G1 X163.5996 Y187.0408 E1.10311 F1800 ; Print pattern wall
G1 E-1 F2700 ; Retract
G1 Z0.45 F9000 ; Z hop
G0 X166.0496 Y148.3992 F9000 ; Move to next pattern
G1 Z0.25 F9000 ; Z hop return
G1 E1 F2700 ; Un-retract
SET_PRESSURE_ADVANCE ADVANCE=0.04 ; Set pressure advance
M117 PA 0.04
G1 X185.3704 Y167.72 E1.10311 F1800 ; Print pattern wall
G1 X166.0496 Y187.0408 E1.10311 F1800 ; Print pattern wall
G1 E-1 F2700 ; Retract
G1 Z0.45 F9000 ; Z hop
G0 X166.6253 Y148.3992 F9000 ; Move to start next pattern wall
G1 Z0.25 F9000 ; Z hop return
G1 E1 F2700 ; Un-retract
G1 X185.9461 Y167.72 E1.10311 F1800 ; Print pattern wall
G1 X166.6253 Y187.0408 E1.10311 F1800 ; Print pattern wall
G1 E-1 F2700 ; Retract
G1 Z0.45 F9000 ; Z hop
G0 X167.201 Y148.3992 F9000 ; Move to start next pattern wall
G1 Z0.25 F9000 ; Z hop return
G1 E1 F2700 ; Un-retract
G1 X186.5218 Y167.72 E1.10311 F1800 ; Print pattern wall
G1 X167.201 Y187.0408 E1.10311 F1800 ; Print pattern wall
G1 E-1 F2700 ; Retract
G1 Z0.45 F9000 ; Z hop
G0 X169.651 Y148.3992 F9000 ; Move to next pattern
G1 Z0.25 F9000 ; Z hop return
G1 E1 F2700 ; Un-retract
SET_PRESSURE_ADVANCE ADVANCE=0.0425 ; Set pressure advance
M117 PA 0.0425
G1 X188.9718 Y167.72 E1.10311 F1800 ; Print pattern wall
G1 X169.651 Y187.0408 E1.10311 F1800 ; Print pattern wall
G1 E-1 F2700 ; Retract
G1 Z0.45 F9000 ; Z hop
G0 X170.2266 Y148.3992 F9000 ; Move to start next pattern wall
G1 Z0.25 F9000 ; Z hop return
G1 E1 F2700 ; Un-retract
G1 X189.5475 Y167.72 E1.10311 F1800 ; Print pattern wall
G1 X170.2266 Y187.0408 E1.10311 F1800 ; Print pattern wall
G1 E-1 F2700 ; Retract
G1 Z0.45 F9000 ; Z hop
G0 X170.8023 Y148.3992 F9000 ; Move to start next pattern wall
G1 Z0.25 F9000 ; Z hop return
G1 E1 F2700 ; Un-retract
G1 X190.1232 Y167.72 E1.10311 F1800 ; Print pattern wall
G1 X170.8023 Y187.0408 E1.10311 F1800 ; Print pattern wall
G1 E-1 F2700 ; Retract
G1 Z0.45 F9000 ; Z hop
G0 X173.2523 Y148.3992 F9000 ; Move to next pattern
G1 Z0.25 F9000 ; Z hop return
G1 E1 F2700 ; Un-retract
SET_PRESSURE_ADVANCE ADVANCE=0.045 ; Set pressure advance
M117 PA 0.045
G1 X192.5732 Y167.72 E1.10311 F1800 ; Print pattern wall
G1 X173.2523 Y187.0408 E1.10311 F1800 ; Print pattern wall
G1 E-1 F2700 ; Retract
G1 Z0.45 F9000 ; Z hop
G0 X173.828 Y148.3992 F9000 ; Move to start next pattern wall
G1 Z0.25 F9000 ; Z hop return
G1 E1 F2700 ; Un-retract
G1 X193.1489 Y167.72 E1.10311 F1800 ; Print pattern wall
G1 X173.828 Y187.0408 E1.10311 F1800 ; Print pattern wall
G1 E-1 F2700 ; Retract
G1 Z0.45 F9000 ; Z hop
G0 X174.4037 Y148.3992 F9000 ; Move to start next pattern wall
G1 Z0.25 F9000 ; Z hop return
G1 E1 F2700 ; Un-retract
G1 X193.7246 Y167.72 E1.10311 F1800 ; Print pattern wall
G1 X174.4037 Y187.0408 E1.10311 F1800 ; Print pattern wall
G1 E-1 F2700 ; Retract
G1 Z0.45 F9000 ; Z hop
G0 X176.8537 Y148.3992 F9000 ; Move to next pattern
G1 Z0.25 F9000 ; Z hop return
G1 E1 F2700 ; Un-retract
SET_PRESSURE_ADVANCE ADVANCE=0.0475 ; Set pressure advance
M117 PA 0.0475
G1 X196.1746 Y167.72 E1.10311 F1800 ; Print pattern wall
G1 X176.8537 Y187.0408 E1.10311 F1800 ; Print pattern wall
G1 E-1 F2700 ; Retract
G1 Z0.45 F9000 ; Z hop
G0 X177.4294 Y148.3992 F9000 ; Move to start next pattern wall
G1 Z0.25 F9000 ; Z hop return
G1 E1 F2700 ; Un-retract
G1 X196.7503 Y167.72 E1.10311 F1800 ; Print pattern wall
G1 X177.4294 Y187.0408 E1.10311 F1800 ; Print pattern wall
G1 E-1 F2700 ; Retract
G1 Z0.45 F9000 ; Z hop
G0 X178.0051 Y148.3992 F9000 ; Move to start next pattern wall
G1 Z0.25 F9000 ; Z hop return
G1 E1 F2700 ; Un-retract
G1 X197.326 Y167.72 E1.10311 F1800 ; Print pattern wall
G1 X178.0051 Y187.0408 E1.10311 F1800 ; Print pattern wall
G1 E-1 F2700 ; Retract
G1 Z0.45 F9000 ; Z hop
G0 X180.4551 Y148.3992 F9000 ; Move to next pattern
G1 Z0.25 F9000 ; Z hop return
G1 E1 F2700 ; Un-retract
SET_PRESSURE_ADVANCE ADVANCE=0.05 ; Set pressure advance
M117 PA 0.05
G1 X199.776 Y167.72 E1.10311 F1800 ; Print pattern wall
G1 X180.4551 Y187.0408 E1.10311 F1800 ; Print pattern wall
G1 E-1 F2700 ; Retract
G1 Z0.45 F9000 ; Z hop
G0 X181.0308 Y148.3992 F9000 ; Move to start next pattern wall
G1 Z0.25 F9000 ; Z hop return
G1 E1 F2700 ; Un-retract
G1 X200.3517 Y167.72 E1.10311 F1800 ; Print pattern wall
G1 X181.0308 Y187.0408 E1.10311 F1800 ; Print pattern wall
G1 E-1 F2700 ; Retract
G1 Z0.45 F9000 ; Z hop
G0 X181.6065 Y148.3992 F9000 ; Move to start next pattern wall
G1 Z0.25 F9000 ; Z hop return
G1 E1 F2700 ; Un-retract
G1 X200.9274 Y167.72 E1.10311 F1800 ; Print pattern wall
G1 X181.6065 Y187.0408 E1.10311 F1800 ; Print pattern wall
G1 E-1 F2700 ; Retract
G1 Z0.45 F9000 ; Z hop
G0 X184.0565 Y148.3992 F9000 ; Move to next pattern
G1 Z0.25 F9000 ; Z hop return
G1 E1 F2700 ; Un-retract
SET_PRESSURE_ADVANCE ADVANCE=0.0525 ; Set pressure advance
M117 PA 0.0525
G1 X203.3774 Y167.72 E1.10311 F1800 ; Print pattern wall
G1 X184.0565 Y187.0408 E1.10311 F1800 ; Print pattern wall
G1 E-1 F2700 ; Retract
G1 Z0.45 F9000 ; Z hop
G0 X184.6322 Y148.3992 F9000 ; Move to start next pattern wall
G1 Z0.25 F9000 ; Z hop return
G1 E1 F2700 ; Un-retract
G1 X203.953 Y167.72 E1.10311 F1800 ; Print pattern wall
G1 X184.6322 Y187.0408 E1.10311 F1800 ; Print pattern wall
G1 E-1 F2700 ; Retract
G1 Z0.45 F9000 ; Z hop
G0 X185.2079 Y148.3992 F9000 ; Move to start next pattern wall
G1 Z0.25 F9000 ; Z hop return
G1 E1 F2700 ; Un-retract
G1 X204.5287 Y167.72 E1.10311 F1800 ; Print pattern wall
G1 X185.2079 Y187.0408 E1.10311 F1800 ; Print pattern wall
G1 E-1 F2700 ; Retract
G1 Z0.45 F9000 ; Z hop
G0 X187.6579 Y148.3992 F9000 ; Move to next pattern
G1 Z0.25 F9000 ; Z hop return
G1 E1 F2700 ; Un-retract
SET_PRESSURE_ADVANCE ADVANCE=0.055 ; Set pressure advance
M117 PA 0.055
G1 X206.9787 Y167.72 E1.10311 F1800 ; Print pattern wall
G1 X187.6579 Y187.0408 E1.10311 F1800 ; Print pattern wall
G1 E-1 F2700 ; Retract
G1 Z0.45 F9000 ; Z hop
G0 X188.2336 Y148.3992 F9000 ; Move to start next pattern wall
G1 Z0.25 F9000 ; Z hop return
G1 E1 F2700 ; Un-retract
G1 X207.5544 Y167.72 E1.10311 F1800 ; Print pattern wall
G1 X188.2336 Y187.0408 E1.10311 F1800 ; Print pattern wall
G1 E-1 F2700 ; Retract
G1 Z0.45 F9000 ; Z hop
G0 X188.8093 Y148.3992 F9000 ; Move to start next pattern wall
G1 Z0.25 F9000 ; Z hop return
G1 E1 F2700 ; Un-retract
G1 X208.1301 Y167.72 E1.10311 F1800 ; Print pattern wall
G1 X188.8093 Y187.0408 E1.10311 F1800 ; Print pattern wall
G1 E-1 F2700 ; Retract
G1 Z0.45 F9000 ; Z hop
G0 X191.2593 Y148.3992 F9000 ; Move to next pattern
G1 Z0.25 F9000 ; Z hop return
G1 E1 F2700 ; Un-retract
SET_PRESSURE_ADVANCE ADVANCE=0.0575 ; Set pressure advance
M117 PA 0.0575
G1 X210.5801 Y167.72 E1.10311 F1800 ; Print pattern wall
G1 X191.2593 Y187.0408 E1.10311 F1800 ; Print pattern wall
G1 E-1 F2700 ; Retract
G1 Z0.45 F9000 ; Z hop
G0 X191.835 Y148.3992 F9000 ; Move to start next pattern wall
G1 Z0.25 F9000 ; Z hop return
G1 E1 F2700 ; Un-retract
G1 X211.1558 Y167.72 E1.10311 F1800 ; Print pattern wall
G1 X191.835 Y187.0408 E1.10311 F1800 ; Print pattern wall
G1 E-1 F2700 ; Retract
G1 Z0.45 F9000 ; Z hop
G0 X192.4107 Y148.3992 F9000 ; Move to start next pattern wall
G1 Z0.25 F9000 ; Z hop return
G1 E1 F2700 ; Un-retract
G1 X211.7315 Y167.72 E1.10311 F1800 ; Print pattern wall
G1 X192.4107 Y187.0408 E1.10311 F1800 ; Print pattern wall
G1 E-1 F2700 ; Retract
G1 Z0.45 F9000 ; Z hop
G0 X194.8607 Y148.3992 F9000 ; Move to next pattern
G1 Z0.25 F9000 ; Z hop return
G1 E1 F2700 ; Un-retract
SET_PRESSURE_ADVANCE ADVANCE=0.06 ; Set pressure advance
M117 PA 0.06
G1 X214.1815 Y167.72 E1.10311 F1800 ; Print pattern wall
G1 X194.8607 Y187.0408 E1.10311 F1800 ; Print pattern wall
G1 E-1 F2700 ; Retract
G1 Z0.45 F9000 ; Z hop
G0 X195.4364 Y148.3992 F9000 ; Move to start next pattern wall
G1 Z0.25 F9000 ; Z hop return
G1 E1 F2700 ; Un-retract
G1 X214.7572 Y167.72 E1.10311 F1800 ; Print pattern wall
G1 X195.4364 Y187.0408 E1.10311 F1800 ; Print pattern wall
G1 E-1 F2700 ; Retract
G1 Z0.45 F9000 ; Z hop
G0 X196.0121 Y148.3992 F9000 ; Move to start next pattern wall
G1 Z0.25 F9000 ; Z hop return
G1 E1 F2700 ; Un-retract
G1 X215.3329 Y167.72 E1.10311 F1800 ; Print pattern wall
G1 X196.0121 Y187.0408 E1.10311 F1800 ; Print pattern wall
G1 E-1 F2700 ; Retract
G1 Z0.45 F9000 ; Z hop
G0 X198.4621 Y148.3992 F9000 ; Move to next pattern
G1 Z0.25 F9000 ; Z hop return
G1 E1 F2700 ; Un-retract
SET_PRESSURE_ADVANCE ADVANCE=0.0625 ; Set pressure advance
M117 PA 0.0625
G1 X217.7829 Y167.72 E1.10311 F1800 ; Print pattern wall
G1 X198.4621 Y187.0408 E1.10311 F1800 ; Print pattern wall
G1 E-1 F2700 ; Retract
G1 Z0.45 F9000 ; Z hop
G0 X199.0378 Y148.3992 F9000 ; Move to start next pattern wall
G1 Z0.25 F9000 ; Z hop return
G1 E1 F2700 ; Un-retract
G1 X218.3586 Y167.72 E1.10311 F1800 ; Print pattern wall
G1 X199.0378 Y187.0408 E1.10311 F1800 ; Print pattern wall
G1 E-1 F2700 ; Retract
G1 Z0.45 F9000 ; Z hop
G0 X199.6135 Y148.3992 F9000 ; Move to start next pattern wall
G1 Z0.25 F9000 ; Z hop return
G1 E1 F2700 ; Un-retract
G1 X218.9343 Y167.72 E1.10311 F1800 ; Print pattern wall
G1 X199.6135 Y187.0408 E1.10311 F1800 ; Print pattern wall
G1 E-1 F2700 ; Retract
G1 Z0.45 F9000 ; Z hop
G0 X202.0635 Y148.3992 F9000 ; Move to next pattern
G1 Z0.25 F9000 ; Z hop return
G1 E1 F2700 ; Un-retract
SET_PRESSURE_ADVANCE ADVANCE=0.065 ; Set pressure advance
M117 PA 0.065
G1 X221.3843 Y167.72 E1.10311 F1800 ; Print pattern wall
G1 X202.0635 Y187.0408 E1.10311 F1800 ; Print pattern wall
G1 E-1 F2700 ; Retract
G1 Z0.45 F9000 ; Z hop
G0 X202.6392 Y148.3992 F9000 ; Move to start next pattern wall
G1 Z0.25 F9000 ; Z hop return
G1 E1 F2700 ; Un-retract
G1 X221.96 Y167.72 E1.10311 F1800 ; Print pattern wall
G1 X202.6392 Y187.0408 E1.10311 F1800 ; Print pattern wall
G1 E-1 F2700 ; Retract
G1 Z0.45 F9000 ; Z hop
G0 X203.2149 Y148.3992 F9000 ; Move to start next pattern wall
G1 Z0.25 F9000 ; Z hop return
G1 E1 F2700 ; Un-retract
G1 X222.5357 Y167.72 E1.10311 F1800 ; Print pattern wall
G1 X203.2149 Y187.0408 E1.10311 F1800 ; Print pattern wall
G1 E-1 F2700 ; Retract
G1 Z0.45 F9000 ; Z hop
G0 X205.6649 Y148.3992 F9000 ; Move to next pattern
G1 Z0.25 F9000 ; Z hop return
G1 E1 F2700 ; Un-retract
SET_PRESSURE_ADVANCE ADVANCE=0.0675 ; Set pressure advance
M117 PA 0.0675
G1 X224.9857 Y167.72 E1.10311 F1800 ; Print pattern wall
G1 X205.6649 Y187.0408 E1.10311 F1800 ; Print pattern wall
G1 E-1 F2700 ; Retract
G1 Z0.45 F9000 ; Z hop
G0 X206.2406 Y148.3992 F9000 ; Move to start next pattern wall
G1 Z0.25 F9000 ; Z hop return
G1 E1 F2700 ; Un-retract
G1 X225.5614 Y167.72 E1.10311 F1800 ; Print pattern wall
G1 X206.2406 Y187.0408 E1.10311 F1800 ; Print pattern wall
G1 E-1 F2700 ; Retract
G1 Z0.45 F9000 ; Z hop
G0 X206.8163 Y148.3992 F9000 ; Move to start next pattern wall
G1 Z0.25 F9000 ; Z hop return
G1 E1 F2700 ; Un-retract
G1 X226.1371 Y167.72 E1.10311 F1800 ; Print pattern wall
G1 X206.8163 Y187.0408 E1.10311 F1800 ; Print pattern wall
G1 E-1 F2700 ; Retract
G1 Z0.45 F9000 ; Z hop
G0 X209.2663 Y148.3992 F9000 ; Move to next pattern
G1 Z0.25 F9000 ; Z hop return
G1 E1 F2700 ; Un-retract
SET_PRESSURE_ADVANCE ADVANCE=0.07 ; Set pressure advance
M117 PA 0.07
G1 X228.5871 Y167.72 E1.10311 F1800 ; Print pattern wall
G1 X209.2663 Y187.0408 E1.10311 F1800 ; Print pattern wall
G1 E-1 F2700 ; Retract
G1 Z0.45 F9000 ; Z hop
G0 X209.842 Y148.3992 F9000 ; Move to start next pattern wall
G1 Z0.25 F9000 ; Z hop return
G1 E1 F2700 ; Un-retract
G1 X229.1628 Y167.72 E1.10311 F1800 ; Print pattern wall
G1 X209.842 Y187.0408 E1.10311 F1800 ; Print pattern wall
G1 E-1 F2700 ; Retract
G1 Z0.45 F9000 ; Z hop
G0 X210.4177 Y148.3992 F9000 ; Move to start next pattern wall
G1 Z0.25 F9000 ; Z hop return
G1 E1 F2700 ; Un-retract
G1 X229.7385 Y167.72 E1.10311 F1800 ; Print pattern wall
G1 X210.4177 Y187.0408 E1.10311 F1800 ; Print pattern wall
G1 E-1 F2700 ; Retract
G1 Z0.45 F9000 ; Z hop
G0 X212.8677 Y148.3992 F9000 ; Move to next pattern
G1 Z0.25 F9000 ; Z hop return
G1 E1 F2700 ; Un-retract
SET_PRESSURE_ADVANCE ADVANCE=0.0725 ; Set pressure advance
M117 PA 0.0725
G1 X232.1885 Y167.72 E1.10311 F1800 ; Print pattern wall
G1 X212.8677 Y187.0408 E1.10311 F1800 ; Print pattern wall
G1 E-1 F2700 ; Retract
G1 Z0.45 F9000 ; Z hop
G0 X213.4434 Y148.3992 F9000 ; Move to start next pattern wall
G1 Z0.25 F9000 ; Z hop return
G1 E1 F2700 ; Un-retract
G1 X232.7642 Y167.72 E1.10311 F1800 ; Print pattern wall
G1 X213.4434 Y187.0408 E1.10311 F1800 ; Print pattern wall
G1 E-1 F2700 ; Retract
G1 Z0.45 F9000 ; Z hop
G0 X214.0191 Y148.3992 F9000 ; Move to start next pattern wall
G1 Z0.25 F9000 ; Z hop return
G1 E1 F2700 ; Un-retract
G1 X233.3399 Y167.72 E1.10311 F1800 ; Print pattern wall
G1 X214.0191 Y187.0408 E1.10311 F1800 ; Print pattern wall
G1 E-1 F2700 ; Retract
G1 Z0.45 F9000 ; Z hop
G0 X216.4691 Y148.3992 F9000 ; Move to next pattern
G1 Z0.25 F9000 ; Z hop return
G1 E1 F2700 ; Un-retract
SET_PRESSURE_ADVANCE ADVANCE=0.075 ; Set pressure advance
M117 PA 0.075
G1 X235.7899 Y167.72 E1.10311 F1800 ; Print pattern wall
G1 X216.4691 Y187.0408 E1.10311 F1800 ; Print pattern wall
G1 E-1 F2700 ; Retract
G1 Z0.45 F9000 ; Z hop
G0 X217.0448 Y148.3992 F9000 ; Move to start next pattern wall
G1 Z0.25 F9000 ; Z hop return
G1 E1 F2700 ; Un-retract
G1 X236.3656 Y167.72 E1.10311 F1800 ; Print pattern wall
G1 X217.0448 Y187.0408 E1.10311 F1800 ; Print pattern wall
G1 E-1 F2700 ; Retract
G1 Z0.45 F9000 ; Z hop
G0 X217.6205 Y148.3992 F9000 ; Move to start next pattern wall
G1 Z0.25 F9000 ; Z hop return
G1 E1 F2700 ; Un-retract
G1 X236.9413 Y167.72 E1.10311 F1800 ; Print pattern wall
G1 X217.6205 Y187.0408 E1.10311 F1800 ; Print pattern wall
G1 E-1 F2700 ; Retract
G1 Z0.45 F9000 ; Z hop
G0 X220.0705 Y148.3992 F9000 ; Move to next pattern
G1 Z0.25 F9000 ; Z hop return
G1 E1 F2700 ; Un-retract
SET_PRESSURE_ADVANCE ADVANCE=0.0775 ; Set pressure advance
M117 PA 0.0775
G1 X239.3913 Y167.72 E1.10311 F1800 ; Print pattern wall
G1 X220.0705 Y187.0408 E1.10311 F1800 ; Print pattern wall
G1 E-1 F2700 ; Retract
G1 Z0.45 F9000 ; Z hop
G0 X220.6462 Y148.3992 F9000 ; Move to start next pattern wall
G1 Z0.25 F9000 ; Z hop return
G1 E1 F2700 ; Un-retract
G1 X239.967 Y167.72 E1.10311 F1800 ; Print pattern wall
G1 X220.6462 Y187.0408 E1.10311 F1800 ; Print pattern wall
G1 E-1 F2700 ; Retract
G1 Z0.45 F9000 ; Z hop
G0 X221.2219 Y148.3992 F9000 ; Move to start next pattern wall
G1 Z0.25 F9000 ; Z hop return
G1 E1 F2700 ; Un-retract
G1 X240.5427 Y167.72 E1.10311 F1800 ; Print pattern wall
G1 X221.2219 Y187.0408 E1.10311 F1800 ; Print pattern wall
G1 E-1 F2700 ; Retract
G1 Z0.45 F9000 ; Z hop
G0 X223.6719 Y148.3992 F9000 ; Move to next pattern
G1 Z0.25 F9000 ; Z hop return
G1 E1 F2700 ; Un-retract
SET_PRESSURE_ADVANCE ADVANCE=0.08 ; Set pressure advance
M117 PA 0.08
G1 X242.9927 Y167.72 E1.10311 F1800 ; Print pattern wall
G1 X223.6719 Y187.0408 E1.10311 F1800 ; Print pattern wall
G1 E-1 F2700 ; Retract
G1 Z0.45 F9000 ; Z hop
G0 X224.2476 Y148.3992 F9000 ; Move to start next pattern wall
G1 Z0.25 F9000 ; Z hop return
G1 E1 F2700 ; Un-retract
G1 X243.5684 Y167.72 E1.10311 F1800 ; Print pattern wall
G1 X224.2476 Y187.0408 E1.10311 F1800 ; Print pattern wall
G1 E-1 F2700 ; Retract
G1 Z0.45 F9000 ; Z hop
G0 X224.8233 Y148.3992 F9000 ; Move to start next pattern wall
G1 Z0.25 F9000 ; Z hop return
G1 E1 F2700 ; Un-retract
G1 X244.1441 Y167.72 E1.10311 F1800 ; Print pattern wall
G1 X224.8233 Y187.0408 E1.10311 F1800 ; Print pattern wall
G1 E-1 F2700 ; Retract
G1 Z0.45 F9000 ; Z hop
G0 X108.4272 Y148.3992 F9000 ; Move back to start position
G1 Z0.25 F9000 ; Z hop return
G1 E1 F2700 ; Un-retract
M106 S255 ; Set fan speed
G0 Z0.45 F9000 ; Move to layer height
SET_PRESSURE_ADVANCE ADVANCE=0 ; Set pressure advance to start value for numbering
M117 PA 0
G1 E-1 F2700 ; Retract
G1 Z0.65 F9000 ; Z hop
G0 X105.1105 Y190.3832 F9000 ; Move
G1 Z0.45 F9000 ; Z hop return
G1 E1 F2700 ; Un-retract
G1 X107.1105 Y190.3832 E0.06634 F1800 ; Glyph: 0
G1 X109.1105 Y190.3832 E0.06634 F1800 ; Glyph: 0
G1 X109.1105 Y192.3832 E0.06634 F1800 ; Glyph: 0
G1 X107.1105 Y192.3832 E0.06634 F1800 ; Glyph: 0
G1 X105.1105 Y192.3832 E0.06634 F1800 ; Glyph: 0
G1 X105.1105 Y190.3832 E0.06634 F1800 ; Glyph: 0
G1 E-1 F2700 ; Retract
G1 Z0.65 F9000 ; Z hop
G0 X112.3133 Y190.3832 F9000 ; Move
G1 Z0.45 F9000 ; Z hop return
G1 E1 F2700 ; Un-retract
G1 X114.3133 Y190.3832 E0.06634 F1800 ; Glyph: 0
G1 X116.3133 Y190.3832 E0.06634 F1800 ; Glyph: 0
G1 X116.3133 Y192.3832 E0.06634 F1800 ; Glyph: 0
G1 X114.3133 Y192.3832 E0.06634 F1800 ; Glyph: 0
G1 X112.3133 Y192.3832 E0.06634 F1800 ; Glyph: 0
G1 X112.3133 Y190.3832 E0.06634 F1800 ; Glyph: 0
G1 E-1 F2700 ; Retract
G1 Z0.65 F9000 ; Z hop
G0 X116.3133 Y193.3832 F9000 ; Move
G1 Z0.45 F9000 ; Z hop return
G1 E1 F2700 ; Un-retract
G1 X115.5633 Y193.3832 E0.02488 F1800 ; Glyph: .
G1 E-1 F2700 ; Retract
G1 Z0.65 F9000 ; Z hop
G0 X112.3133 Y194.3832 F9000 ; Move
G1 Z0.45 F9000 ; Z hop return
G1 E1 F2700 ; Un-retract
G1 X114.3133 Y194.3832 E0.06634 F1800 ; Glyph: 0
G1 X116.3133 Y194.3832 E0.06634 F1800 ; Glyph: 0
G1 X116.3133 Y196.3832 E0.06634 F1800 ; Glyph: 0
G1 X114.3133 Y196.3832 E0.06634 F1800 ; Glyph: 0
G1 X112.3133 Y196.3832 E0.06634 F1800 ; Glyph: 0
G1 X112.3133 Y194.3832 E0.06634 F1800 ; Glyph: 0
G1 E-1 F2700 ; Retract
G1 Z0.65 F9000 ; Z hop
G0 X112.3133 Y197.3832 F9000 ; Move
G1 Z0.45 F9000 ; Z hop return
G1 E1 F2700 ; Un-retract
G1 X114.3133 Y197.3832 E0.06634 F1800 ; Glyph: 0
G1 X116.3133 Y197.3832 E0.06634 F1800 ; Glyph: 0
G1 X116.3133 Y199.3832 E0.06634 F1800 ; Glyph: 0
G1 X114.3133 Y199.3832 E0.06634 F1800 ; Glyph: 0
G1 X112.3133 Y199.3832 E0.06634 F1800 ; Glyph: 0
G1 X112.3133 Y197.3832 E0.06634 F1800 ; Glyph: 0
G1 E-1 F2700 ; Retract
G1 Z0.65 F9000 ; Z hop
G0 X112.3133 Y202.3832 F9000 ; Move
G1 Z0.45 F9000 ; Z hop return
G1 E1 F2700 ; Un-retract
G1 X112.3133 Y200.3832 E0.06634 F1800 ; Glyph: 5
G1 X114.3133 Y200.3832 E0.06634 F1800 ; Glyph: 5
G1 X114.3133 Y202.3832 E0.06634 F1800 ; Glyph: 5
G1 X116.3133 Y202.3832 E0.06634 F1800 ; Glyph: 5
G1 X116.3133 Y200.3832 E0.06634 F1800 ; Glyph: 5
G1 E-1 F2700 ; Retract
G1 Z0.65 F9000 ; Z hop
G0 X119.5161 Y190.3832 F9000 ; Move
G1 Z0.45 F9000 ; Z hop return
G1 E1 F2700 ; Un-retract
G1 X121.5161 Y190.3832 E0.06634 F1800 ; Glyph: 0
G1 X123.5161 Y190.3832 E0.06634 F1800 ; Glyph: 0
G1 X123.5161 Y192.3832 E0.06634 F1800 ; Glyph: 0
G1 X121.5161 Y192.3832 E0.06634 F1800 ; Glyph: 0
G1 X119.5161 Y192.3832 E0.06634 F1800 ; Glyph: 0
G1 X119.5161 Y190.3832 E0.06634 F1800 ; Glyph: 0
G1 E-1 F2700 ; Retract
G1 Z0.65 F9000 ; Z hop
G0 X123.5161 Y193.3832 F9000 ; Move
G1 Z0.45 F9000 ; Z hop return
G1 E1 F2700 ; Un-retract
G1 X122.7661 Y193.3832 E0.02488 F1800 ; Glyph: .
G1 E-1 F2700 ; Retract
G1 Z0.65 F9000 ; Z hop
G0 X119.5161 Y194.3832 F9000 ; Move
G1 Z0.45 F9000 ; Z hop return
G1 E1 F2700 ; Un-retract
G1 X121.5161 Y194.3832 E0.06634 F1800 ; Glyph: 0
G1 X123.5161 Y194.3832 E0.06634 F1800 ; Glyph: 0
G1 X123.5161 Y196.3832 E0.06634 F1800 ; Glyph: 0
G1 X121.5161 Y196.3832 E0.06634 F1800 ; Glyph: 0
G1 X119.5161 Y196.3832 E0.06634 F1800 ; Glyph: 0
G1 X119.5161 Y194.3832 E0.06634 F1800 ; Glyph: 0
G1 E-1 F2700 ; Retract
G1 Z0.65 F9000 ; Z hop
G0 X119.5161 Y197.3832 F9000 ; Move
G1 Z0.45 F9000 ; Z hop return
G1 E1 F2700 ; Un-retract
G1 X121.5161 Y197.3832 E0.06634 F1800 ; Glyph: 1
G1 X123.5161 Y197.3832 E0.06634 F1800 ; Glyph: 1
G1 E-1 F2700 ; Retract
G1 Z0.65 F9000 ; Z hop
G0 X126.7189 Y190.3832 F9000 ; Move
G1 Z0.45 F9000 ; Z hop return
G1 E1 F2700 ; Un-retract
G1 X128.7189 Y190.3832 E0.06634 F1800 ; Glyph: 0
G1 X130.7189 Y190.3832 E0.06634 F1800 ; Glyph: 0
G1 X130.7189 Y192.3832 E0.06634 F1800 ; Glyph: 0
G1 X128.7189 Y192.3832 E0.06634 F1800 ; Glyph: 0
G1 X126.7189 Y192.3832 E0.06634 F1800 ; Glyph: 0
G1 X126.7189 Y190.3832 E0.06634 F1800 ; Glyph: 0
G1 E-1 F2700 ; Retract
G1 Z0.65 F9000 ; Z hop
G0 X130.7189 Y193.3832 F9000 ; Move
G1 Z0.45 F9000 ; Z hop return
G1 E1 F2700 ; Un-retract
G1 X129.9689 Y193.3832 E0.02488 F1800 ; Glyph: .
G1 E-1 F2700 ; Retract
G1 Z0.65 F9000 ; Z hop
G0 X126.7189 Y194.3832 F9000 ; Move
G1 Z0.45 F9000 ; Z hop return
G1 E1 F2700 ; Un-retract
G1 X128.7189 Y194.3832 E0.06634 F1800 ; Glyph: 0
G1 X130.7189 Y194.3832 E0.06634 F1800 ; Glyph: 0
G1 X130.7189 Y196.3832 E0.06634 F1800 ; Glyph: 0
G1 X128.7189 Y196.3832 E0.06634 F1800 ; Glyph: 0
G1 X126.7189 Y196.3832 E0.06634 F1800 ; Glyph: 0
G1 X126.7189 Y194.3832 E0.06634 F1800 ; Glyph: 0
G1 E-1 F2700 ; Retract
G1 Z0.65 F9000 ; Z hop
G0 X126.7189 Y197.3832 F9000 ; Move
G1 Z0.45 F9000 ; Z hop return
G1 E1 F2700 ; Un-retract
G1 X128.7189 Y197.3832 E0.06634 F1800 ; Glyph: 1
G1 X130.7189 Y197.3832 E0.06634 F1800 ; Glyph: 1
G1 E-1 F2700 ; Retract
G1 Z0.65 F9000 ; Z hop
G0 X126.7189 Y200.3832 F9000 ; Move
G1 Z0.45 F9000 ; Z hop return
G1 E1 F2700 ; Un-retract
G1 X126.7189 Y198.3832 E0.06634 F1800 ; Glyph: 5
G1 X128.7189 Y198.3832 E0.06634 F1800 ; Glyph: 5
G1 X128.7189 Y200.3832 E0.06634 F1800 ; Glyph: 5
G1 X130.7189 Y200.3832 E0.06634 F1800 ; Glyph: 5
G1 X130.7189 Y198.3832 E0.06634 F1800 ; Glyph: 5
G1 E-1 F2700 ; Retract
G1 Z0.65 F9000 ; Z hop
G0 X133.9217 Y190.3832 F9000 ; Move
G1 Z0.45 F9000 ; Z hop return
G1 E1 F2700 ; Un-retract
G1 X135.9217 Y190.3832 E0.06634 F1800 ; Glyph: 0
G1 X137.9217 Y190.3832 E0.06634 F1800 ; Glyph: 0
G1 X137.9217 Y192.3832 E0.06634 F1800 ; Glyph: 0
G1 X135.9217 Y192.3832 E0.06634 F1800 ; Glyph: 0
G1 X133.9217 Y192.3832 E0.06634 F1800 ; Glyph: 0
G1 X133.9217 Y190.3832 E0.06634 F1800 ; Glyph: 0
G1 E-1 F2700 ; Retract
G1 Z0.65 F9000 ; Z hop
G0 X137.9217 Y193.3832 F9000 ; Move
G1 Z0.45 F9000 ; Z hop return
G1 E1 F2700 ; Un-retract
G1 X137.1717 Y193.3832 E0.02488 F1800 ; Glyph: .
G1 E-1 F2700 ; Retract
G1 Z0.65 F9000 ; Z hop
G0 X133.9217 Y194.3832 F9000 ; Move
G1 Z0.45 F9000 ; Z hop return
G1 E1 F2700 ; Un-retract
G1 X135.9217 Y194.3832 E0.06634 F1800 ; Glyph: 0
G1 X137.9217 Y194.3832 E0.06634 F1800 ; Glyph: 0
G1 X137.9217 Y196.3832 E0.06634 F1800 ; Glyph: 0
G1 X135.9217 Y196.3832 E0.06634 F1800 ; Glyph: 0
G1 X133.9217 Y196.3832 E0.06634 F1800 ; Glyph: 0
G1 X133.9217 Y194.3832 E0.06634 F1800 ; Glyph: 0
G1 E-1 F2700 ; Retract
G1 Z0.65 F9000 ; Z hop
G0 X133.9217 Y197.3832 F9000 ; Move
G1 Z0.45 F9000 ; Z hop return
G1 E1 F2700 ; Un-retract
G1 X133.9217 Y199.3832 E0.06634 F1800 ; Glyph: 2
G1 X135.9217 Y199.3832 E0.06634 F1800 ; Glyph: 2
G1 X135.9217 Y197.3832 E0.06634 F1800 ; Glyph: 2
G1 X137.9217 Y197.3832 E0.06634 F1800 ; Glyph: 2
G1 X137.9217 Y199.3832 E0.06634 F1800 ; Glyph: 2
G1 E-1 F2700 ; Retract
G1 Z0.65 F9000 ; Z hop
G0 X141.1245 Y190.3832 F9000 ; Move
G1 Z0.45 F9000 ; Z hop return
G1 E1 F2700 ; Un-retract
G1 X143.1245 Y190.3832 E0.06634 F1800 ; Glyph: 0
G1 X145.1245 Y190.3832 E0.06634 F1800 ; Glyph: 0
G1 X145.1245 Y192.3832 E0.06634 F1800 ; Glyph: 0
G1 X143.1245 Y192.3832 E0.06634 F1800 ; Glyph: 0
G1 X141.1245 Y192.3832 E0.06634 F1800 ; Glyph: 0
G1 X141.1245 Y190.3832 E0.06634 F1800 ; Glyph: 0
G1 E-1 F2700 ; Retract
G1 Z0.65 F9000 ; Z hop
G0 X145.1245 Y193.3832 F9000 ; Move
G1 Z0.45 F9000 ; Z hop return
G1 E1 F2700 ; Un-retract
G1 X144.3745 Y193.3832 E0.02488 F1800 ; Glyph: .
G1 E-1 F2700 ; Retract
G1 Z0.65 F9000 ; Z hop
G0 X141.1245 Y194.3832 F9000 ; Move
G1 Z0.45 F9000 ; Z hop return
G1 E1 F2700 ; Un-retract
G1 X143.1245 Y194.3832 E0.06634 F1800 ; Glyph: 0
G1 X145.1245 Y194.3832 E0.06634 F1800 ; Glyph: 0
G1 X145.1245 Y196.3832 E0.06634 F1800 ; Glyph: 0
G1 X143.1245 Y196.3832 E0.06634 F1800 ; Glyph: 0
G1 X141.1245 Y196.3832 E0.06634 F1800 ; Glyph: 0
G1 X141.1245 Y194.3832 E0.06634 F1800 ; Glyph: 0
G1 E-1 F2700 ; Retract
G1 Z0.65 F9000 ; Z hop
G0 X141.1245 Y197.3832 F9000 ; Move
G1 Z0.45 F9000 ; Z hop return
G1 E1 F2700 ; Un-retract
G1 X141.1245 Y199.3832 E0.06634 F1800 ; Glyph: 2
G1 X143.1245 Y199.3832 E0.06634 F1800 ; Glyph: 2
G1 X143.1245 Y197.3832 E0.06634 F1800 ; Glyph: 2
G1 X145.1245 Y197.3832 E0.06634 F1800 ; Glyph: 2
G1 X145.1245 Y199.3832 E0.06634 F1800 ; Glyph: 2
G1 E-1 F2700 ; Retract
G1 Z0.65 F9000 ; Z hop
G0 X141.1245 Y202.3832 F9000 ; Move
G1 Z0.45 F9000 ; Z hop return
G1 E1 F2700 ; Un-retract
G1 X141.1245 Y200.3832 E0.06634 F1800 ; Glyph: 5
G1 X143.1245 Y200.3832 E0.06634 F1800 ; Glyph: 5
G1 X143.1245 Y202.3832 E0.06634 F1800 ; Glyph: 5
G1 X145.1245 Y202.3832 E0.06634 F1800 ; Glyph: 5
G1 X145.1245 Y200.3832 E0.06634 F1800 ; Glyph: 5
G1 E-1 F2700 ; Retract
G1 Z0.65 F9000 ; Z hop
G0 X148.3273 Y190.3832 F9000 ; Move
G1 Z0.45 F9000 ; Z hop return
G1 E1 F2700 ; Un-retract
G1 X150.3273 Y190.3832 E0.06634 F1800 ; Glyph: 0
G1 X152.3273 Y190.3832 E0.06634 F1800 ; Glyph: 0
G1 X152.3273 Y192.3832 E0.06634 F1800 ; Glyph: 0
G1 X150.3273 Y192.3832 E0.06634 F1800 ; Glyph: 0
G1 X148.3273 Y192.3832 E0.06634 F1800 ; Glyph: 0
G1 X148.3273 Y190.3832 E0.06634 F1800 ; Glyph: 0
G1 E-1 F2700 ; Retract
G1 Z0.65 F9000 ; Z hop
G0 X152.3273 Y193.3832 F9000 ; Move
G1 Z0.45 F9000 ; Z hop return
G1 E1 F2700 ; Un-retract
G1 X151.5773 Y193.3832 E0.02488 F1800 ; Glyph: .
G1 E-1 F2700 ; Retract
G1 Z0.65 F9000 ; Z hop
G0 X148.3273 Y194.3832 F9000 ; Move
G1 Z0.45 F9000 ; Z hop return
G1 E1 F2700 ; Un-retract
G1 X150.3273 Y194.3832 E0.06634 F1800 ; Glyph: 0
G1 X152.3273 Y194.3832 E0.06634 F1800 ; Glyph: 0
G1 X152.3273 Y196.3832 E0.06634 F1800 ; Glyph: 0
G1 X150.3273 Y196.3832 E0.06634 F1800 ; Glyph: 0
G1 X148.3273 Y196.3832 E0.06634 F1800 ; Glyph: 0
G1 X148.3273 Y194.3832 E0.06634 F1800 ; Glyph: 0
G1 E-1 F2700 ; Retract
G1 Z0.65 F9000 ; Z hop
G0 X148.3273 Y197.3832 F9000 ; Move
G1 Z0.45 F9000 ; Z hop return
G1 E1 F2700 ; Un-retract
G1 X148.3273 Y199.3832 E0.06634 F1800 ; Glyph: 3
G1 X150.3273 Y199.3832 E0.06634 F1800 ; Glyph: 3
G1 X150.3273 Y197.3832 E0.06634 F1800 ; Glyph: 3
G0 X150.3273 Y199.3832 F9000 ; Move
G1 X152.3273 Y199.3832 E0.06634 F1800 ; Glyph: 3
G1 X152.3273 Y197.3832 E0.06634 F1800 ; Glyph: 3
G1 E-1 F2700 ; Retract
G1 Z0.65 F9000 ; Z hop
G0 X155.5301 Y190.3832 F9000 ; Move
G1 Z0.45 F9000 ; Z hop return
G1 E1 F2700 ; Un-retract
G1 X157.5301 Y190.3832 E0.06634 F1800 ; Glyph: 0
G1 X159.5301 Y190.3832 E0.06634 F1800 ; Glyph: 0
G1 X159.5301 Y192.3832 E0.06634 F1800 ; Glyph: 0
G1 X157.5301 Y192.3832 E0.06634 F1800 ; Glyph: 0
G1 X155.5301 Y192.3832 E0.06634 F1800 ; Glyph: 0
G1 X155.5301 Y190.3832 E0.06634 F1800 ; Glyph: 0
G1 E-1 F2700 ; Retract
G1 Z0.65 F9000 ; Z hop
G0 X159.5301 Y193.3832 F9000 ; Move
G1 Z0.45 F9000 ; Z hop return
G1 E1 F2700 ; Un-retract
G1 X158.7801 Y193.3832 E0.02488 F1800 ; Glyph: .
G1 E-1 F2700 ; Retract
G1 Z0.65 F9000 ; Z hop
G0 X155.5301 Y194.3832 F9000 ; Move
G1 Z0.45 F9000 ; Z hop return
G1 E1 F2700 ; Un-retract
G1 X157.5301 Y194.3832 E0.06634 F1800 ; Glyph: 0
G1 X159.5301 Y194.3832 E0.06634 F1800 ; Glyph: 0
G1 X159.5301 Y196.3832 E0.06634 F1800 ; Glyph: 0
G1 X157.5301 Y196.3832 E0.06634 F1800 ; Glyph: 0
G1 X155.5301 Y196.3832 E0.06634 F1800 ; Glyph: 0
G1 X155.5301 Y194.3832 E0.06634 F1800 ; Glyph: 0
G1 E-1 F2700 ; Retract
G1 Z0.65 F9000 ; Z hop
G0 X155.5301 Y197.3832 F9000 ; Move
G1 Z0.45 F9000 ; Z hop return
G1 E1 F2700 ; Un-retract
G1 X155.5301 Y199.3832 E0.06634 F1800 ; Glyph: 3
G1 X157.5301 Y199.3832 E0.06634 F1800 ; Glyph: 3
G1 X157.5301 Y197.3832 E0.06634 F1800 ; Glyph: 3
G0 X157.5301 Y199.3832 F9000 ; Move
G1 X159.5301 Y199.3832 E0.06634 F1800 ; Glyph: 3
G1 X159.5301 Y197.3832 E0.06634 F1800 ; Glyph: 3
G1 E-1 F2700 ; Retract
G1 Z0.65 F9000 ; Z hop
G0 X155.5301 Y202.3832 F9000 ; Move
G1 Z0.45 F9000 ; Z hop return
G1 E1 F2700 ; Un-retract
G1 X155.5301 Y200.3832 E0.06634 F1800 ; Glyph: 5
G1 X157.5301 Y200.3832 E0.06634 F1800 ; Glyph: 5
G1 X157.5301 Y202.3832 E0.06634 F1800 ; Glyph: 5
G1 X159.5301 Y202.3832 E0.06634 F1800 ; Glyph: 5
G1 X159.5301 Y200.3832 E0.06634 F1800 ; Glyph: 5
G1 E-1 F2700 ; Retract
G1 Z0.65 F9000 ; Z hop
G0 X162.7329 Y190.3832 F9000 ; Move
G1 Z0.45 F9000 ; Z hop return
G1 E1 F2700 ; Un-retract
G1 X164.7329 Y190.3832 E0.06634 F1800 ; Glyph: 0
G1 X166.7329 Y190.3832 E0.06634 F1800 ; Glyph: 0
G1 X166.7329 Y192.3832 E0.06634 F1800 ; Glyph: 0
G1 X164.7329 Y192.3832 E0.06634 F1800 ; Glyph: 0
G1 X162.7329 Y192.3832 E0.06634 F1800 ; Glyph: 0
G1 X162.7329 Y190.3832 E0.06634 F1800 ; Glyph: 0
G1 E-1 F2700 ; Retract
G1 Z0.65 F9000 ; Z hop
G0 X166.7329 Y193.3832 F9000 ; Move
G1 Z0.45 F9000 ; Z hop return
G1 E1 F2700 ; Un-retract
G1 X165.9829 Y193.3832 E0.02488 F1800 ; Glyph: .
G1 E-1 F2700 ; Retract
G1 Z0.65 F9000 ; Z hop
G0 X162.7329 Y194.3832 F9000 ; Move
G1 Z0.45 F9000 ; Z hop return
G1 E1 F2700 ; Un-retract
G1 X164.7329 Y194.3832 E0.06634 F1800 ; Glyph: 0
G1 X166.7329 Y194.3832 E0.06634 F1800 ; Glyph: 0
G1 X166.7329 Y196.3832 E0.06634 F1800 ; Glyph: 0
G1 X164.7329 Y196.3832 E0.06634 F1800 ; Glyph: 0
G1 X162.7329 Y196.3832 E0.06634 F1800 ; Glyph: 0
G1 X162.7329 Y194.3832 E0.06634 F1800 ; Glyph: 0
G1 E-1 F2700 ; Retract
G1 Z0.65 F9000 ; Z hop
G0 X162.7329 Y199.3832 F9000 ; Move
G1 Z0.45 F9000 ; Z hop return
G1 E1 F2700 ; Un-retract
G1 X164.7329 Y199.3832 E0.06634 F1800 ; Glyph: 4
G1 X166.7329 Y199.3832 E0.06634 F1800 ; Glyph: 4
G0 X164.7329 Y199.3832 F9000 ; Move
G1 X164.7329 Y197.3832 E0.06634 F1800 ; Glyph: 4
G1 X162.7329 Y197.3832 E0.06634 F1800 ; Glyph: 4
G1 E-1 F2700 ; Retract
G1 Z0.65 F9000 ; Z hop
G0 X169.9357 Y190.3832 F9000 ; Move
G1 Z0.45 F9000 ; Z hop return
G1 E1 F2700 ; Un-retract
G1 X171.9357 Y190.3832 E0.06634 F1800 ; Glyph: 0
G1 X173.9357 Y190.3832 E0.06634 F1800 ; Glyph: 0
G1 X173.9357 Y192.3832 E0.06634 F1800 ; Glyph: 0
G1 X171.9357 Y192.3832 E0.06634 F1800 ; Glyph: 0
G1 X169.9357 Y192.3832 E0.06634 F1800 ; Glyph: 0
G1 X169.9357 Y190.3832 E0.06634 F1800 ; Glyph: 0
G1 E-1 F2700 ; Retract
G1 Z0.65 F9000 ; Z hop
G0 X173.9357 Y193.3832 F9000 ; Move
G1 Z0.45 F9000 ; Z hop return
G1 E1 F2700 ; Un-retract
G1 X173.1857 Y193.3832 E0.02488 F1800 ; Glyph: .
G1 E-1 F2700 ; Retract
G1 Z0.65 F9000 ; Z hop
G0 X169.9357 Y194.3832 F9000 ; Move
G1 Z0.45 F9000 ; Z hop return
G1 E1 F2700 ; Un-retract
G1 X171.9357 Y194.3832 E0.06634 F1800 ; Glyph: 0
G1 X173.9357 Y194.3832 E0.06634 F1800 ; Glyph: 0
G1 X173.9357 Y196.3832 E0.06634 F1800 ; Glyph: 0
G1 X171.9357 Y196.3832 E0.06634 F1800 ; Glyph: 0
G1 X169.9357 Y196.3832 E0.06634 F1800 ; Glyph: 0
G1 X169.9357 Y194.3832 E0.06634 F1800 ; Glyph: 0
G1 E-1 F2700 ; Retract
G1 Z0.65 F9000 ; Z hop
G0 X169.9357 Y199.3832 F9000 ; Move
G1 Z0.45 F9000 ; Z hop return
G1 E1 F2700 ; Un-retract
G1 X171.9357 Y199.3832 E0.06634 F1800 ; Glyph: 4
G1 X173.9357 Y199.3832 E0.06634 F1800 ; Glyph: 4
G0 X171.9357 Y199.3832 F9000 ; Move
G1 X171.9357 Y197.3832 E0.06634 F1800 ; Glyph: 4
G1 X169.9357 Y197.3832 E0.06634 F1800 ; Glyph: 4
G1 E-1 F2700 ; Retract
G1 Z0.65 F9000 ; Z hop
G0 X169.9357 Y202.3832 F9000 ; Move
G1 Z0.45 F9000 ; Z hop return
G1 E1 F2700 ; Un-retract
G1 X169.9357 Y200.3832 E0.06634 F1800 ; Glyph: 5
G1 X171.9357 Y200.3832 E0.06634 F1800 ; Glyph: 5
G1 X171.9357 Y202.3832 E0.06634 F1800 ; Glyph: 5
G1 X173.9357 Y202.3832 E0.06634 F1800 ; Glyph: 5
G1 X173.9357 Y200.3832 E0.06634 F1800 ; Glyph: 5
G1 E-1 F2700 ; Retract
G1 Z0.65 F9000 ; Z hop
G0 X177.1385 Y190.3832 F9000 ; Move
G1 Z0.45 F9000 ; Z hop return
G1 E1 F2700 ; Un-retract
G1 X179.1385 Y190.3832 E0.06634 F1800 ; Glyph: 0
G1 X181.1385 Y190.3832 E0.06634 F1800 ; Glyph: 0
G1 X181.1385 Y192.3832 E0.06634 F1800 ; Glyph: 0
G1 X179.1385 Y192.3832 E0.06634 F1800 ; Glyph: 0
G1 X177.1385 Y192.3832 E0.06634 F1800 ; Glyph: 0
G1 X177.1385 Y190.3832 E0.06634 F1800 ; Glyph: 0
G1 E-1 F2700 ; Retract
G1 Z0.65 F9000 ; Z hop
G0 X181.1385 Y193.3832 F9000 ; Move
G1 Z0.45 F9000 ; Z hop return
G1 E1 F2700 ; Un-retract
G1 X180.3885 Y193.3832 E0.02488 F1800 ; Glyph: .
G1 E-1 F2700 ; Retract
G1 Z0.65 F9000 ; Z hop
G0 X177.1385 Y194.3832 F9000 ; Move
G1 Z0.45 F9000 ; Z hop return
G1 E1 F2700 ; Un-retract
G1 X179.1385 Y194.3832 E0.06634 F1800 ; Glyph: 0
G1 X181.1385 Y194.3832 E0.06634 F1800 ; Glyph: 0
G1 X181.1385 Y196.3832 E0.06634 F1800 ; Glyph: 0
G1 X179.1385 Y196.3832 E0.06634 F1800 ; Glyph: 0
G1 X177.1385 Y196.3832 E0.06634 F1800 ; Glyph: 0
G1 X177.1385 Y194.3832 E0.06634 F1800 ; Glyph: 0
G1 E-1 F2700 ; Retract
G1 Z0.65 F9000 ; Z hop
G0 X177.1385 Y199.3832 F9000 ; Move
G1 Z0.45 F9000 ; Z hop return
G1 E1 F2700 ; Un-retract
G1 X177.1385 Y197.3832 E0.06634 F1800 ; Glyph: 5
G1 X179.1385 Y197.3832 E0.06634 F1800 ; Glyph: 5
G1 X179.1385 Y199.3832 E0.06634 F1800 ; Glyph: 5
G1 X181.1385 Y199.3832 E0.06634 F1800 ; Glyph: 5
G1 X181.1385 Y197.3832 E0.06634 F1800 ; Glyph: 5
G1 E-1 F2700 ; Retract
G1 Z0.65 F9000 ; Z hop
G0 X184.3412 Y190.3832 F9000 ; Move
G1 Z0.45 F9000 ; Z hop return
G1 E1 F2700 ; Un-retract
G1 X186.3412 Y190.3832 E0.06634 F1800 ; Glyph: 0
G1 X188.3412 Y190.3832 E0.06634 F1800 ; Glyph: 0
G1 X188.3412 Y192.3832 E0.06634 F1800 ; Glyph: 0
G1 X186.3412 Y192.3832 E0.06634 F1800 ; Glyph: 0
G1 X184.3412 Y192.3832 E0.06634 F1800 ; Glyph: 0
G1 X184.3412 Y190.3832 E0.06634 F1800 ; Glyph: 0
G1 E-1 F2700 ; Retract
G1 Z0.65 F9000 ; Z hop
G0 X188.3412 Y193.3832 F9000 ; Move
G1 Z0.45 F9000 ; Z hop return
G1 E1 F2700 ; Un-retract
G1 X187.5912 Y193.3832 E0.02488 F1800 ; Glyph: .
G1 E-1 F2700 ; Retract
G1 Z0.65 F9000 ; Z hop
G0 X184.3412 Y194.3832 F9000 ; Move
G1 Z0.45 F9000 ; Z hop return
G1 E1 F2700 ; Un-retract
G1 X186.3412 Y194.3832 E0.06634 F1800 ; Glyph: 0
G1 X188.3412 Y194.3832 E0.06634 F1800 ; Glyph: 0
G1 X188.3412 Y196.3832 E0.06634 F1800 ; Glyph: 0
G1 X186.3412 Y196.3832 E0.06634 F1800 ; Glyph: 0
G1 X184.3412 Y196.3832 E0.06634 F1800 ; Glyph: 0
G1 X184.3412 Y194.3832 E0.06634 F1800 ; Glyph: 0
G1 E-1 F2700 ; Retract
G1 Z0.65 F9000 ; Z hop
G0 X184.3412 Y199.3832 F9000 ; Move
G1 Z0.45 F9000 ; Z hop return
G1 E1 F2700 ; Un-retract
G1 X184.3412 Y197.3832 E0.06634 F1800 ; Glyph: 5
G1 X186.3412 Y197.3832 E0.06634 F1800 ; Glyph: 5
G1 X186.3412 Y199.3832 E0.06634 F1800 ; Glyph: 5
G1 X188.3412 Y199.3832 E0.06634 F1800 ; Glyph: 5
G1 X188.3412 Y197.3832 E0.06634 F1800 ; Glyph: 5
G1 E-1 F2700 ; Retract
G1 Z0.65 F9000 ; Z hop
G0 X184.3412 Y202.3832 F9000 ; Move
G1 Z0.45 F9000 ; Z hop return
G1 E1 F2700 ; Un-retract
G1 X184.3412 Y200.3832 E0.06634 F1800 ; Glyph: 5
G1 X186.3412 Y200.3832 E0.06634 F1800 ; Glyph: 5
G1 X186.3412 Y202.3832 E0.06634 F1800 ; Glyph: 5
G1 X188.3412 Y202.3832 E0.06634 F1800 ; Glyph: 5
G1 X188.3412 Y200.3832 E0.06634 F1800 ; Glyph: 5
G1 E-1 F2700 ; Retract
G1 Z0.65 F9000 ; Z hop
G0 X191.544 Y190.3832 F9000 ; Move
G1 Z0.45 F9000 ; Z hop return
G1 E1 F2700 ; Un-retract
G1 X193.544 Y190.3832 E0.06634 F1800 ; Glyph: 0
G1 X195.544 Y190.3832 E0.06634 F1800 ; Glyph: 0
G1 X195.544 Y192.3832 E0.06634 F1800 ; Glyph: 0
G1 X193.544 Y192.3832 E0.06634 F1800 ; Glyph: 0
G1 X191.544 Y192.3832 E0.06634 F1800 ; Glyph: 0
G1 X191.544 Y190.3832 E0.06634 F1800 ; Glyph: 0
G1 E-1 F2700 ; Retract
G1 Z0.65 F9000 ; Z hop
G0 X195.544 Y193.3832 F9000 ; Move
G1 Z0.45 F9000 ; Z hop return
G1 E1 F2700 ; Un-retract
G1 X194.794 Y193.3832 E0.02488 F1800 ; Glyph: .
G1 E-1 F2700 ; Retract
G1 Z0.65 F9000 ; Z hop
G0 X191.544 Y194.3832 F9000 ; Move
G1 Z0.45 F9000 ; Z hop return
G1 E1 F2700 ; Un-retract
G1 X193.544 Y194.3832 E0.06634 F1800 ; Glyph: 0
G1 X195.544 Y194.3832 E0.06634 F1800 ; Glyph: 0
G1 X195.544 Y196.3832 E0.06634 F1800 ; Glyph: 0
G1 X193.544 Y196.3832 E0.06634 F1800 ; Glyph: 0
G1 X191.544 Y196.3832 E0.06634 F1800 ; Glyph: 0
G1 X191.544 Y194.3832 E0.06634 F1800 ; Glyph: 0
G1 E-1 F2700 ; Retract
G1 Z0.65 F9000 ; Z hop
G0 X191.544 Y199.3832 F9000 ; Move
G1 Z0.45 F9000 ; Z hop return
G1 E1 F2700 ; Un-retract
G1 X191.544 Y197.3832 E0.06634 F1800 ; Glyph: 6
G1 X193.544 Y197.3832 E0.06634 F1800 ; Glyph: 6
G1 X195.544 Y197.3832 E0.06634 F1800 ; Glyph: 6
G1 X195.544 Y199.3832 E0.06634 F1800 ; Glyph: 6
G1 X193.544 Y199.3832 E0.06634 F1800 ; Glyph: 6
G1 X193.544 Y197.3832 E0.06634 F1800 ; Glyph: 6
G1 E-1 F2700 ; Retract
G1 Z0.65 F9000 ; Z hop
G0 X198.7468 Y190.3832 F9000 ; Move
G1 Z0.45 F9000 ; Z hop return
G1 E1 F2700 ; Un-retract
G1 X200.7468 Y190.3832 E0.06634 F1800 ; Glyph: 0
G1 X202.7468 Y190.3832 E0.06634 F1800 ; Glyph: 0
G1 X202.7468 Y192.3832 E0.06634 F1800 ; Glyph: 0
G1 X200.7468 Y192.3832 E0.06634 F1800 ; Glyph: 0
G1 X198.7468 Y192.3832 E0.06634 F1800 ; Glyph: 0
G1 X198.7468 Y190.3832 E0.06634 F1800 ; Glyph: 0
G1 E-1 F2700 ; Retract
G1 Z0.65 F9000 ; Z hop
G0 X202.7468 Y193.3832 F9000 ; Move
G1 Z0.45 F9000 ; Z hop return
G1 E1 F2700 ; Un-retract
G1 X201.9968 Y193.3832 E0.02488 F1800 ; Glyph: .
G1 E-1 F2700 ; Retract
G1 Z0.65 F9000 ; Z hop
G0 X198.7468 Y194.3832 F9000 ; Move
G1 Z0.45 F9000 ; Z hop return
G1 E1 F2700 ; Un-retract
G1 X200.7468 Y194.3832 E0.06634 F1800 ; Glyph: 0
G1 X202.7468 Y194.3832 E0.06634 F1800 ; Glyph: 0
G1 X202.7468 Y196.3832 E0.06634 F1800 ; Glyph: 0
G1 X200.7468 Y196.3832 E0.06634 F1800 ; Glyph: 0
G1 X198.7468 Y196.3832 E0.06634 F1800 ; Glyph: 0
G1 X198.7468 Y194.3832 E0.06634 F1800 ; Glyph: 0
G1 E-1 F2700 ; Retract
G1 Z0.65 F9000 ; Z hop
G0 X198.7468 Y199.3832 F9000 ; Move
G1 Z0.45 F9000 ; Z hop return
G1 E1 F2700 ; Un-retract
G1 X198.7468 Y197.3832 E0.06634 F1800 ; Glyph: 6
G1 X200.7468 Y197.3832 E0.06634 F1800 ; Glyph: 6
G1 X202.7468 Y197.3832 E0.06634 F1800 ; Glyph: 6
G1 X202.7468 Y199.3832 E0.06634 F1800 ; Glyph: 6
G1 X200.7468 Y199.3832 E0.06634 F1800 ; Glyph: 6
G1 X200.7468 Y197.3832 E0.06634 F1800 ; Glyph: 6
G1 E-1 F2700 ; Retract
G1 Z0.65 F9000 ; Z hop
G0 X198.7468 Y202.3832 F9000 ; Move
G1 Z0.45 F9000 ; Z hop return
G1 E1 F2700 ; Un-retract
G1 X198.7468 Y200.3832 E0.06634 F1800 ; Glyph: 5
G1 X200.7468 Y200.3832 E0.06634 F1800 ; Glyph: 5
G1 X200.7468 Y202.3832 E0.06634 F1800 ; Glyph: 5
G1 X202.7468 Y202.3832 E0.06634 F1800 ; Glyph: 5
G1 X202.7468 Y200.3832 E0.06634 F1800 ; Glyph: 5
G1 E-1 F2700 ; Retract
G1 Z0.65 F9000 ; Z hop
G0 X205.9496 Y190.3832 F9000 ; Move
G1 Z0.45 F9000 ; Z hop return
G1 E1 F2700 ; Un-retract
G1 X207.9496 Y190.3832 E0.06634 F1800 ; Glyph: 0
G1 X209.9496 Y190.3832 E0.06634 F1800 ; Glyph: 0
G1 X209.9496 Y192.3832 E0.06634 F1800 ; Glyph: 0
G1 X207.9496 Y192.3832 E0.06634 F1800 ; Glyph: 0
G1 X205.9496 Y192.3832 E0.06634 F1800 ; Glyph: 0
G1 X205.9496 Y190.3832 E0.06634 F1800 ; Glyph: 0
G1 E-1 F2700 ; Retract
G1 Z0.65 F9000 ; Z hop
G0 X209.9496 Y193.3832 F9000 ; Move
G1 Z0.45 F9000 ; Z hop return
G1 E1 F2700 ; Un-retract
G1 X209.1996 Y193.3832 E0.02488 F1800 ; Glyph: .
G1 E-1 F2700 ; Retract
G1 Z0.65 F9000 ; Z hop
G0 X205.9496 Y194.3832 F9000 ; Move
G1 Z0.45 F9000 ; Z hop return
G1 E1 F2700 ; Un-retract
G1 X207.9496 Y194.3832 E0.06634 F1800 ; Glyph: 0
G1 X209.9496 Y194.3832 E0.06634 F1800 ; Glyph: 0
G1 X209.9496 Y196.3832 E0.06634 F1800 ; Glyph: 0
G1 X207.9496 Y196.3832 E0.06634 F1800 ; Glyph: 0
G1 X205.9496 Y196.3832 E0.06634 F1800 ; Glyph: 0
G1 X205.9496 Y194.3832 E0.06634 F1800 ; Glyph: 0
G1 E-1 F2700 ; Retract
G1 Z0.65 F9000 ; Z hop
G0 X205.9496 Y197.3832 F9000 ; Move
G1 Z0.45 F9000 ; Z hop return
G1 E1 F2700 ; Un-retract
G1 X205.9496 Y199.3832 E0.06634 F1800 ; Glyph: 7
G1 X207.9496 Y199.3832 E0.06634 F1800 ; Glyph: 7
G1 X209.9496 Y199.3832 E0.06634 F1800 ; Glyph: 7
G1 E-1 F2700 ; Retract
G1 Z0.65 F9000 ; Z hop
G0 X213.1524 Y190.3832 F9000 ; Move
G1 Z0.45 F9000 ; Z hop return
G1 E1 F2700 ; Un-retract
G1 X215.1524 Y190.3832 E0.06634 F1800 ; Glyph: 0
G1 X217.1524 Y190.3832 E0.06634 F1800 ; Glyph: 0
G1 X217.1524 Y192.3832 E0.06634 F1800 ; Glyph: 0
G1 X215.1524 Y192.3832 E0.06634 F1800 ; Glyph: 0
G1 X213.1524 Y192.3832 E0.06634 F1800 ; Glyph: 0
G1 X213.1524 Y190.3832 E0.06634 F1800 ; Glyph: 0
G1 E-1 F2700 ; Retract
G1 Z0.65 F9000 ; Z hop
G0 X217.1524 Y193.3832 F9000 ; Move
G1 Z0.45 F9000 ; Z hop return
G1 E1 F2700 ; Un-retract
G1 X216.4024 Y193.3832 E0.02488 F1800 ; Glyph: .
G1 E-1 F2700 ; Retract
G1 Z0.65 F9000 ; Z hop
G0 X213.1524 Y194.3832 F9000 ; Move
G1 Z0.45 F9000 ; Z hop return
G1 E1 F2700 ; Un-retract
G1 X215.1524 Y194.3832 E0.06634 F1800 ; Glyph: 0
G1 X217.1524 Y194.3832 E0.06634 F1800 ; Glyph: 0
G1 X217.1524 Y196.3832 E0.06634 F1800 ; Glyph: 0
G1 X215.1524 Y196.3832 E0.06634 F1800 ; Glyph: 0
G1 X213.1524 Y196.3832 E0.06634 F1800 ; Glyph: 0
G1 X213.1524 Y194.3832 E0.06634 F1800 ; Glyph: 0
G1 E-1 F2700 ; Retract
G1 Z0.65 F9000 ; Z hop
G0 X213.1524 Y197.3832 F9000 ; Move
G1 Z0.45 F9000 ; Z hop return
G1 E1 F2700 ; Un-retract
G1 X213.1524 Y199.3832 E0.06634 F1800 ; Glyph: 7
G1 X215.1524 Y199.3832 E0.06634 F1800 ; Glyph: 7
G1 X217.1524 Y199.3832 E0.06634 F1800 ; Glyph: 7
G1 E-1 F2700 ; Retract
G1 Z0.65 F9000 ; Z hop
G0 X213.1524 Y202.3832 F9000 ; Move
G1 Z0.45 F9000 ; Z hop return
G1 E1 F2700 ; Un-retract
G1 X213.1524 Y200.3832 E0.06634 F1800 ; Glyph: 5
G1 X215.1524 Y200.3832 E0.06634 F1800 ; Glyph: 5
G1 X215.1524 Y202.3832 E0.06634 F1800 ; Glyph: 5
G1 X217.1524 Y202.3832 E0.06634 F1800 ; Glyph: 5
G1 X217.1524 Y200.3832 E0.06634 F1800 ; Glyph: 5
G1 E-1 F2700 ; Retract
G1 Z0.65 F9000 ; Z hop
G0 X220.3552 Y190.3832 F9000 ; Move
G1 Z0.45 F9000 ; Z hop return
G1 E1 F2700 ; Un-retract
G1 X222.3552 Y190.3832 E0.06634 F1800 ; Glyph: 0
G1 X224.3552 Y190.3832 E0.06634 F1800 ; Glyph: 0
G1 X224.3552 Y192.3832 E0.06634 F1800 ; Glyph: 0
G1 X222.3552 Y192.3832 E0.06634 F1800 ; Glyph: 0
G1 X220.3552 Y192.3832 E0.06634 F1800 ; Glyph: 0
G1 X220.3552 Y190.3832 E0.06634 F1800 ; Glyph: 0
G1 E-1 F2700 ; Retract
G1 Z0.65 F9000 ; Z hop
G0 X224.3552 Y193.3832 F9000 ; Move
G1 Z0.45 F9000 ; Z hop return
G1 E1 F2700 ; Un-retract
G1 X223.6052 Y193.3832 E0.02488 F1800 ; Glyph: .
G1 E-1 F2700 ; Retract
G1 Z0.65 F9000 ; Z hop
G0 X220.3552 Y194.3832 F9000 ; Move
G1 Z0.45 F9000 ; Z hop return
G1 E1 F2700 ; Un-retract
G1 X222.3552 Y194.3832 E0.06634 F1800 ; Glyph: 0
G1 X224.3552 Y194.3832 E0.06634 F1800 ; Glyph: 0
G1 X224.3552 Y196.3832 E0.06634 F1800 ; Glyph: 0
G1 X222.3552 Y196.3832 E0.06634 F1800 ; Glyph: 0
G1 X220.3552 Y196.3832 E0.06634 F1800 ; Glyph: 0
G1 X220.3552 Y194.3832 E0.06634 F1800 ; Glyph: 0
G1 E-1 F2700 ; Retract
G1 Z0.65 F9000 ; Z hop
G0 X220.3552 Y197.3832 F9000 ; Move
G1 Z0.45 F9000 ; Z hop return
G1 E1 F2700 ; Un-retract
G1 X222.3552 Y197.3832 E0.06634 F1800 ; Glyph: 8
G1 X224.3552 Y197.3832 E0.06634 F1800 ; Glyph: 8
G1 X224.3552 Y199.3832 E0.06634 F1800 ; Glyph: 8
G1 X222.3552 Y199.3832 E0.06634 F1800 ; Glyph: 8
G1 X220.3552 Y199.3832 E0.06634 F1800 ; Glyph: 8
G1 X220.3552 Y197.3832 E0.06634 F1800 ; Glyph: 8
G0 X222.3552 Y197.3832 F9000 ; Move
G1 X222.3552 Y199.3832 E0.06634 F1800 ; Glyph: 8
G1 E-1 F2700 ; Retract
G1 Z0.65 F9000 ; Z hop
G0 X106.5349 Y146.5068 F9000 ; Move to pattern start

G1 Z0.45 F9000 ; Z hop return
G1 E1 F2700 ; Un-retract
SET_PRESSURE_ADVANCE ADVANCE=0 ; Set pressure advance
M117 PA 0
G1 X127.7481 Y167.72 E0.99515 F6000 ; Print pattern wall
G1 X106.5349 Y188.9332 E0.99515 F6000 ; Print pattern wall
G1 E-1 F2700 ; Retract
G1 Z0.65 F9000 ; Z hop
G0 X107.1105 Y146.5068 F9000 ; Move to start next pattern wall
G1 Z0.45 F9000 ; Z hop return
G1 E1 F2700 ; Un-retract
G1 X128.3238 Y167.72 E0.99515 F6000 ; Print pattern wall
G1 X107.1105 Y188.9332 E0.99515 F6000 ; Print pattern wall
G1 E-1 F2700 ; Retract
G1 Z0.65 F9000 ; Z hop
G0 X107.6862 Y146.5068 F9000 ; Move to start next pattern wall
G1 Z0.45 F9000 ; Z hop return
G1 E1 F2700 ; Un-retract
G1 X128.8995 Y167.72 E0.99515 F6000 ; Print pattern wall
G1 X107.6862 Y188.9332 E0.99515 F6000 ; Print pattern wall
G1 E-1 F2700 ; Retract
G1 Z0.65 F9000 ; Z hop
G0 X110.1362 Y146.5068 F9000 ; Move to next pattern
G1 Z0.45 F9000 ; Z hop return
G1 E1 F2700 ; Un-retract
SET_PRESSURE_ADVANCE ADVANCE=0.0025 ; Set pressure advance
M117 PA 0.0025
G1 X131.3495 Y167.72 E0.99515 F6000 ; Print pattern wall
G1 X110.1362 Y188.9332 E0.99515 F6000 ; Print pattern wall
G1 E-1 F2700 ; Retract
G1 Z0.65 F9000 ; Z hop
G0 X110.7119 Y146.5068 F9000 ; Move to start next pattern wall
G1 Z0.45 F9000 ; Z hop return
G1 E1 F2700 ; Un-retract
G1 X131.9251 Y167.72 E0.99515 F6000 ; Print pattern wall
G1 X110.7119 Y188.9332 E0.99515 F6000 ; Print pattern wall
G1 E-1 F2700 ; Retract
G1 Z0.65 F9000 ; Z hop
G0 X111.2876 Y146.5068 F9000 ; Move to start next pattern wall
G1 Z0.45 F9000 ; Z hop return
G1 E1 F2700 ; Un-retract
G1 X132.5008 Y167.72 E0.99515 F6000 ; Print pattern wall
G1 X111.2876 Y188.9332 E0.99515 F6000 ; Print pattern wall
G1 E-1 F2700 ; Retract
G1 Z0.65 F9000 ; Z hop
G0 X113.7376 Y146.5068 F9000 ; Move to next pattern
G1 Z0.45 F9000 ; Z hop return
G1 E1 F2700 ; Un-retract
SET_PRESSURE_ADVANCE ADVANCE=0.005 ; Set pressure advance
M117 PA 0.005
G1 X134.9508 Y167.72 E0.99515 F6000 ; Print pattern wall
G1 X113.7376 Y188.9332 E0.99515 F6000 ; Print pattern wall
G1 E-1 F2700 ; Retract
G1 Z0.65 F9000 ; Z hop
G0 X114.3133 Y146.5068 F9000 ; Move to start next pattern wall
G1 Z0.45 F9000 ; Z hop return
G1 E1 F2700 ; Un-retract
G1 X135.5265 Y167.72 E0.99515 F6000 ; Print pattern wall
G1 X114.3133 Y188.9332 E0.99515 F6000 ; Print pattern wall
G1 E-1 F2700 ; Retract
G1 Z0.65 F9000 ; Z hop
G0 X114.889 Y146.5068 F9000 ; Move to start next pattern wall
G1 Z0.45 F9000 ; Z hop return
G1 E1 F2700 ; Un-retract
G1 X136.1022 Y167.72 E0.99515 F6000 ; Print pattern wall
G1 X114.889 Y188.9332 E0.99515 F6000 ; Print pattern wall
G1 E-1 F2700 ; Retract
G1 Z0.65 F9000 ; Z hop
G0 X117.339 Y146.5068 F9000 ; Move to next pattern
G1 Z0.45 F9000 ; Z hop return
G1 E1 F2700 ; Un-retract
SET_PRESSURE_ADVANCE ADVANCE=0.0075 ; Set pressure advance
M117 PA 0.0075
G1 X138.5522 Y167.72 E0.99515 F6000 ; Print pattern wall
G1 X117.339 Y188.9332 E0.99515 F6000 ; Print pattern wall
G1 E-1 F2700 ; Retract
G1 Z0.65 F9000 ; Z hop
G0 X117.9147 Y146.5068 F9000 ; Move to start next pattern wall
G1 Z0.45 F9000 ; Z hop return
G1 E1 F2700 ; Un-retract
G1 X139.1279 Y167.72 E0.99515 F6000 ; Print pattern wall
G1 X117.9147 Y188.9332 E0.99515 F6000 ; Print pattern wall
G1 E-1 F2700 ; Retract
G1 Z0.65 F9000 ; Z hop
G0 X118.4904 Y146.5068 F9000 ; Move to start next pattern wall
G1 Z0.45 F9000 ; Z hop return
G1 E1 F2700 ; Un-retract
G1 X139.7036 Y167.72 E0.99515 F6000 ; Print pattern wall
G1 X118.4904 Y188.9332 E0.99515 F6000 ; Print pattern wall
G1 E-1 F2700 ; Retract
G1 Z0.65 F9000 ; Z hop
G0 X120.9404 Y146.5068 F9000 ; Move to next pattern
G1 Z0.45 F9000 ; Z hop return
G1 E1 F2700 ; Un-retract
SET_PRESSURE_ADVANCE ADVANCE=0.01 ; Set pressure advance
M117 PA 0.01
G1 X142.1536 Y167.72 E0.99515 F6000 ; Print pattern wall
G1 X120.9404 Y188.9332 E0.99515 F6000 ; Print pattern wall
G1 E-1 F2700 ; Retract
G1 Z0.65 F9000 ; Z hop
G0 X121.5161 Y146.5068 F9000 ; Move to start next pattern wall
G1 Z0.45 F9000 ; Z hop return
G1 E1 F2700 ; Un-retract
G1 X142.7293 Y167.72 E0.99515 F6000 ; Print pattern wall
G1 X121.5161 Y188.9332 E0.99515 F6000 ; Print pattern wall
G1 E-1 F2700 ; Retract
G1 Z0.65 F9000 ; Z hop
G0 X122.0918 Y146.5068 F9000 ; Move to start next pattern wall
G1 Z0.45 F9000 ; Z hop return
G1 E1 F2700 ; Un-retract
G1 X143.305 Y167.72 E0.99515 F6000 ; Print pattern wall
G1 X122.0918 Y188.9332 E0.99515 F6000 ; Print pattern wall
G1 E-1 F2700 ; Retract
G1 Z0.65 F9000 ; Z hop
G0 X124.5418 Y146.5068 F9000 ; Move to next pattern
G1 Z0.45 F9000 ; Z hop return
G1 E1 F2700 ; Un-retract
SET_PRESSURE_ADVANCE ADVANCE=0.0125 ; Set pressure advance
M117 PA 0.0125
G1 X145.755 Y167.72 E0.99515 F6000 ; Print pattern wall
G1 X124.5418 Y188.9332 E0.99515 F6000 ; Print pattern wall
G1 E-1 F2700 ; Retract
G1 Z0.65 F9000 ; Z hop
G0 X125.1175 Y146.5068 F9000 ; Move to start next pattern wall
G1 Z0.45 F9000 ; Z hop return
G1 E1 F2700 ; Un-retract
G1 X146.3307 Y167.72 E0.99515 F6000 ; Print pattern wall
G1 X125.1175 Y188.9332 E0.99515 F6000 ; Print pattern wall
G1 E-1 F2700 ; Retract
G1 Z0.65 F9000 ; Z hop
G0 X125.6932 Y146.5068 F9000 ; Move to start next pattern wall
G1 Z0.45 F9000 ; Z hop return
G1 E1 F2700 ; Un-retract
G1 X146.9064 Y167.72 E0.99515 F6000 ; Print pattern wall
G1 X125.6932 Y188.9332 E0.99515 F6000 ; Print pattern wall
G1 E-1 F2700 ; Retract
G1 Z0.65 F9000 ; Z hop
G0 X128.1432 Y146.5068 F9000 ; Move to next pattern
G1 Z0.45 F9000 ; Z hop return
G1 E1 F2700 ; Un-retract
SET_PRESSURE_ADVANCE ADVANCE=0.015 ; Set pressure advance
M117 PA 0.015
G1 X149.3564 Y167.72 E0.99515 F6000 ; Print pattern wall
G1 X128.1432 Y188.9332 E0.99515 F6000 ; Print pattern wall
G1 E-1 F2700 ; Retract
G1 Z0.65 F9000 ; Z hop
G0 X128.7189 Y146.5068 F9000 ; Move to start next pattern wall
G1 Z0.45 F9000 ; Z hop return
G1 E1 F2700 ; Un-retract
G1 X149.9321 Y167.72 E0.99515 F6000 ; Print pattern wall
G1 X128.7189 Y188.9332 E0.99515 F6000 ; Print pattern wall
G1 E-1 F2700 ; Retract
G1 Z0.65 F9000 ; Z hop
G0 X129.2946 Y146.5068 F9000 ; Move to start next pattern wall
G1 Z0.45 F9000 ; Z hop return
G1 E1 F2700 ; Un-retract
G1 X150.5078 Y167.72 E0.99515 F6000 ; Print pattern wall
G1 X129.2946 Y188.9332 E0.99515 F6000 ; Print pattern wall
G1 E-1 F2700 ; Retract
G1 Z0.65 F9000 ; Z hop
G0 X131.7446 Y146.5068 F9000 ; Move to next pattern
G1 Z0.45 F9000 ; Z hop return
G1 E1 F2700 ; Un-retract
SET_PRESSURE_ADVANCE ADVANCE=0.0175 ; Set pressure advance
M117 PA 0.0175
G1 X152.9578 Y167.72 E0.99515 F6000 ; Print pattern wall
G1 X131.7446 Y188.9332 E0.99515 F6000 ; Print pattern wall
G1 E-1 F2700 ; Retract
G1 Z0.65 F9000 ; Z hop
G0 X132.3203 Y146.5068 F9000 ; Move to start next pattern wall
G1 Z0.45 F9000 ; Z hop return
G1 E1 F2700 ; Un-retract
G1 X153.5335 Y167.72 E0.99515 F6000 ; Print pattern wall
G1 X132.3203 Y188.9332 E0.99515 F6000 ; Print pattern wall
G1 E-1 F2700 ; Retract
G1 Z0.65 F9000 ; Z hop
G0 X132.896 Y146.5068 F9000 ; Move to start next pattern wall
G1 Z0.45 F9000 ; Z hop return
G1 E1 F2700 ; Un-retract
G1 X154.1092 Y167.72 E0.99515 F6000 ; Print pattern wall
G1 X132.896 Y188.9332 E0.99515 F6000 ; Print pattern wall
G1 E-1 F2700 ; Retract
G1 Z0.65 F9000 ; Z hop
G0 X135.346 Y146.5068 F9000 ; Move to next pattern
G1 Z0.45 F9000 ; Z hop return
G1 E1 F2700 ; Un-retract
SET_PRESSURE_ADVANCE ADVANCE=0.02 ; Set pressure advance
M117 PA 0.02
G1 X156.5592 Y167.72 E0.99515 F6000 ; Print pattern wall
G1 X135.346 Y188.9332 E0.99515 F6000 ; Print pattern wall
G1 E-1 F2700 ; Retract
G1 Z0.65 F9000 ; Z hop
G0 X135.9217 Y146.5068 F9000 ; Move to start next pattern wall
G1 Z0.45 F9000 ; Z hop return
G1 E1 F2700 ; Un-retract
G1 X157.1349 Y167.72 E0.99515 F6000 ; Print pattern wall
G1 X135.9217 Y188.9332 E0.99515 F6000 ; Print pattern wall
G1 E-1 F2700 ; Retract
G1 Z0.65 F9000 ; Z hop
G0 X136.4974 Y146.5068 F9000 ; Move to start next pattern wall
G1 Z0.45 F9000 ; Z hop return
G1 E1 F2700 ; Un-retract
G1 X157.7106 Y167.72 E0.99515 F6000 ; Print pattern wall
G1 X136.4974 Y188.9332 E0.99515 F6000 ; Print pattern wall
G1 E-1 F2700 ; Retract
G1 Z0.65 F9000 ; Z hop
G0 X138.9474 Y146.5068 F9000 ; Move to next pattern
G1 Z0.45 F9000 ; Z hop return
G1 E1 F2700 ; Un-retract
SET_PRESSURE_ADVANCE ADVANCE=0.0225 ; Set pressure advance
M117 PA 0.0225
G1 X160.1606 Y167.72 E0.99515 F6000 ; Print pattern wall
G1 X138.9474 Y188.9332 E0.99515 F6000 ; Print pattern wall
G1 E-1 F2700 ; Retract
G1 Z0.65 F9000 ; Z hop
G0 X139.5231 Y146.5068 F9000 ; Move to start next pattern wall
G1 Z0.45 F9000 ; Z hop return
G1 E1 F2700 ; Un-retract
G1 X160.7363 Y167.72 E0.99515 F6000 ; Print pattern wall
G1 X139.5231 Y188.9332 E0.99515 F6000 ; Print pattern wall
G1 E-1 F2700 ; Retract
G1 Z0.65 F9000 ; Z hop
G0 X140.0988 Y146.5068 F9000 ; Move to start next pattern wall
G1 Z0.45 F9000 ; Z hop return
G1 E1 F2700 ; Un-retract
G1 X161.312 Y167.72 E0.99515 F6000 ; Print pattern wall
G1 X140.0988 Y188.9332 E0.99515 F6000 ; Print pattern wall
G1 E-1 F2700 ; Retract
G1 Z0.65 F9000 ; Z hop
G0 X142.5488 Y146.5068 F9000 ; Move to next pattern
G1 Z0.45 F9000 ; Z hop return
G1 E1 F2700 ; Un-retract
SET_PRESSURE_ADVANCE ADVANCE=0.025 ; Set pressure advance
M117 PA 0.025
G1 X163.762 Y167.72 E0.99515 F6000 ; Print pattern wall
G1 X142.5488 Y188.9332 E0.99515 F6000 ; Print pattern wall
G1 E-1 F2700 ; Retract
G1 Z0.65 F9000 ; Z hop
G0 X143.1245 Y146.5068 F9000 ; Move to start next pattern wall
G1 Z0.45 F9000 ; Z hop return
G1 E1 F2700 ; Un-retract
G1 X164.3377 Y167.72 E0.99515 F6000 ; Print pattern wall
G1 X143.1245 Y188.9332 E0.99515 F6000 ; Print pattern wall
G1 E-1 F2700 ; Retract
G1 Z0.65 F9000 ; Z hop
G0 X143.7002 Y146.5068 F9000 ; Move to start next pattern wall
G1 Z0.45 F9000 ; Z hop return
G1 E1 F2700 ; Un-retract
G1 X164.9134 Y167.72 E0.99515 F6000 ; Print pattern wall
G1 X143.7002 Y188.9332 E0.99515 F6000 ; Print pattern wall
G1 E-1 F2700 ; Retract
G1 Z0.65 F9000 ; Z hop
G0 X146.1502 Y146.5068 F9000 ; Move to next pattern
G1 Z0.45 F9000 ; Z hop return
G1 E1 F2700 ; Un-retract
SET_PRESSURE_ADVANCE ADVANCE=0.0275 ; Set pressure advance
M117 PA 0.0275
G1 X167.3634 Y167.72 E0.99515 F6000 ; Print pattern wall
G1 X146.1502 Y188.9332 E0.99515 F6000 ; Print pattern wall
G1 E-1 F2700 ; Retract
G1 Z0.65 F9000 ; Z hop
G0 X146.7259 Y146.5068 F9000 ; Move to start next pattern wall
G1 Z0.45 F9000 ; Z hop return
G1 E1 F2700 ; Un-retract
G1 X167.9391 Y167.72 E0.99515 F6000 ; Print pattern wall
G1 X146.7259 Y188.9332 E0.99515 F6000 ; Print pattern wall
G1 E-1 F2700 ; Retract
G1 Z0.65 F9000 ; Z hop
G0 X147.3016 Y146.5068 F9000 ; Move to start next pattern wall
G1 Z0.45 F9000 ; Z hop return
G1 E1 F2700 ; Un-retract
G1 X168.5148 Y167.72 E0.99515 F6000 ; Print pattern wall
G1 X147.3016 Y188.9332 E0.99515 F6000 ; Print pattern wall
G1 E-1 F2700 ; Retract
G1 Z0.65 F9000 ; Z hop
G0 X149.7516 Y146.5068 F9000 ; Move to next pattern
G1 Z0.45 F9000 ; Z hop return
G1 E1 F2700 ; Un-retract
SET_PRESSURE_ADVANCE ADVANCE=0.03 ; Set pressure advance
M117 PA 0.03
G1 X170.9648 Y167.72 E0.99515 F6000 ; Print pattern wall
G1 X149.7516 Y188.9332 E0.99515 F6000 ; Print pattern wall
G1 E-1 F2700 ; Retract
G1 Z0.65 F9000 ; Z hop
G0 X150.3273 Y146.5068 F9000 ; Move to start next pattern wall
G1 Z0.45 F9000 ; Z hop return
G1 E1 F2700 ; Un-retract
G1 X171.5405 Y167.72 E0.99515 F6000 ; Print pattern wall
G1 X150.3273 Y188.9332 E0.99515 F6000 ; Print pattern wall
G1 E-1 F2700 ; Retract
G1 Z0.65 F9000 ; Z hop
G0 X150.903 Y146.5068 F9000 ; Move to start next pattern wall
G1 Z0.45 F9000 ; Z hop return
G1 E1 F2700 ; Un-retract
G1 X172.1162 Y167.72 E0.99515 F6000 ; Print pattern wall
G1 X150.903 Y188.9332 E0.99515 F6000 ; Print pattern wall
G1 E-1 F2700 ; Retract
G1 Z0.65 F9000 ; Z hop
G0 X153.353 Y146.5068 F9000 ; Move to next pattern
G1 Z0.45 F9000 ; Z hop return
G1 E1 F2700 ; Un-retract
SET_PRESSURE_ADVANCE ADVANCE=0.0325 ; Set pressure advance
M117 PA 0.0325
G1 X174.5662 Y167.72 E0.99515 F6000 ; Print pattern wall
G1 X153.353 Y188.9332 E0.99515 F6000 ; Print pattern wall
G1 E-1 F2700 ; Retract
G1 Z0.65 F9000 ; Z hop
G0 X153.9287 Y146.5068 F9000 ; Move to start next pattern wall
G1 Z0.45 F9000 ; Z hop return
G1 E1 F2700 ; Un-retract
G1 X175.1419 Y167.72 E0.99515 F6000 ; Print pattern wall
G1 X153.9287 Y188.9332 E0.99515 F6000 ; Print pattern wall
G1 E-1 F2700 ; Retract
G1 Z0.65 F9000 ; Z hop
G0 X154.5044 Y146.5068 F9000 ; Move to start next pattern wall
G1 Z0.45 F9000 ; Z hop return
G1 E1 F2700 ; Un-retract
G1 X175.7176 Y167.72 E0.99515 F6000 ; Print pattern wall
G1 X154.5044 Y188.9332 E0.99515 F6000 ; Print pattern wall
G1 E-1 F2700 ; Retract
G1 Z0.65 F9000 ; Z hop
G0 X156.9544 Y146.5068 F9000 ; Move to next pattern
G1 Z0.45 F9000 ; Z hop return
G1 E1 F2700 ; Un-retract
SET_PRESSURE_ADVANCE ADVANCE=0.035 ; Set pressure advance
M117 PA 0.035
G1 X178.1676 Y167.72 E0.99515 F6000 ; Print pattern wall
G1 X156.9544 Y188.9332 E0.99515 F6000 ; Print pattern wall
G1 E-1 F2700 ; Retract
G1 Z0.65 F9000 ; Z hop
G0 X157.5301 Y146.5068 F9000 ; Move to start next pattern wall
G1 Z0.45 F9000 ; Z hop return
G1 E1 F2700 ; Un-retract
G1 X178.7433 Y167.72 E0.99515 F6000 ; Print pattern wall
G1 X157.5301 Y188.9332 E0.99515 F6000 ; Print pattern wall
G1 E-1 F2700 ; Retract
G1 Z0.65 F9000 ; Z hop
G0 X158.1058 Y146.5068 F9000 ; Move to start next pattern wall
G1 Z0.45 F9000 ; Z hop return
G1 E1 F2700 ; Un-retract
G1 X179.319 Y167.72 E0.99515 F6000 ; Print pattern wall
G1 X158.1058 Y188.9332 E0.99515 F6000 ; Print pattern wall
G1 E-1 F2700 ; Retract
G1 Z0.65 F9000 ; Z hop
G0 X160.5558 Y146.5068 F9000 ; Move to next pattern
G1 Z0.45 F9000 ; Z hop return
G1 E1 F2700 ; Un-retract
SET_PRESSURE_ADVANCE ADVANCE=0.0375 ; Set pressure advance
M117 PA 0.0375
G1 X181.769 Y167.72 E0.99515 F6000 ; Print pattern wall
G1 X160.5558 Y188.9332 E0.99515 F6000 ; Print pattern wall
G1 E-1 F2700 ; Retract
G1 Z0.65 F9000 ; Z hop
G0 X161.1315 Y146.5068 F9000 ; Move to start next pattern wall
G1 Z0.45 F9000 ; Z hop return
G1 E1 F2700 ; Un-retract
G1 X182.3447 Y167.72 E0.99515 F6000 ; Print pattern wall
G1 X161.1315 Y188.9332 E0.99515 F6000 ; Print pattern wall
G1 E-1 F2700 ; Retract
G1 Z0.65 F9000 ; Z hop
G0 X161.7072 Y146.5068 F9000 ; Move to start next pattern wall
G1 Z0.45 F9000 ; Z hop return
G1 E1 F2700 ; Un-retract
G1 X182.9204 Y167.72 E0.99515 F6000 ; Print pattern wall
G1 X161.7072 Y188.9332 E0.99515 F6000 ; Print pattern wall
G1 E-1 F2700 ; Retract
G1 Z0.65 F9000 ; Z hop
G0 X164.1572 Y146.5068 F9000 ; Move to next pattern
G1 Z0.45 F9000 ; Z hop return
G1 E1 F2700 ; Un-retract
SET_PRESSURE_ADVANCE ADVANCE=0.04 ; Set pressure advance
M117 PA 0.04
G1 X185.3704 Y167.72 E0.99515 F6000 ; Print pattern wall
G1 X164.1572 Y188.9332 E0.99515 F6000 ; Print pattern wall
G1 E-1 F2700 ; Retract
G1 Z0.65 F9000 ; Z hop
G0 X164.7329 Y146.5068 F9000 ; Move to start next pattern wall
G1 Z0.45 F9000 ; Z hop return
G1 E1 F2700 ; Un-retract
G1 X185.9461 Y167.72 E0.99515 F6000 ; Print pattern wall
G1 X164.7329 Y188.9332 E0.99515 F6000 ; Print pattern wall
G1 E-1 F2700 ; Retract
G1 Z0.65 F9000 ; Z hop
G0 X165.3086 Y146.5068 F9000 ; Move to start next pattern wall
G1 Z0.45 F9000 ; Z hop return
G1 E1 F2700 ; Un-retract
G1 X186.5218 Y167.72 E0.99515 F6000 ; Print pattern wall
G1 X165.3086 Y188.9332 E0.99515 F6000 ; Print pattern wall
G1 E-1 F2700 ; Retract
G1 Z0.65 F9000 ; Z hop
G0 X167.7586 Y146.5068 F9000 ; Move to next pattern
G1 Z0.45 F9000 ; Z hop return
G1 E1 F2700 ; Un-retract
SET_PRESSURE_ADVANCE ADVANCE=0.0425 ; Set pressure advance
M117 PA 0.0425
G1 X188.9718 Y167.72 E0.99515 F6000 ; Print pattern wall
G1 X167.7586 Y188.9332 E0.99515 F6000 ; Print pattern wall
G1 E-1 F2700 ; Retract
G1 Z0.65 F9000 ; Z hop
G0 X168.3343 Y146.5068 F9000 ; Move to start next pattern wall
G1 Z0.45 F9000 ; Z hop return
G1 E1 F2700 ; Un-retract
G1 X189.5475 Y167.72 E0.99515 F6000 ; Print pattern wall
G1 X168.3343 Y188.9332 E0.99515 F6000 ; Print pattern wall
G1 E-1 F2700 ; Retract
G1 Z0.65 F9000 ; Z hop
G0 X168.91 Y146.5068 F9000 ; Move to start next pattern wall
G1 Z0.45 F9000 ; Z hop return
G1 E1 F2700 ; Un-retract
G1 X190.1232 Y167.72 E0.99515 F6000 ; Print pattern wall
G1 X168.91 Y188.9332 E0.99515 F6000 ; Print pattern wall
G1 E-1 F2700 ; Retract
G1 Z0.65 F9000 ; Z hop
G0 X171.36 Y146.5068 F9000 ; Move to next pattern
G1 Z0.45 F9000 ; Z hop return
G1 E1 F2700 ; Un-retract
SET_PRESSURE_ADVANCE ADVANCE=0.045 ; Set pressure advance
M117 PA 0.045
G1 X192.5732 Y167.72 E0.99515 F6000 ; Print pattern wall
G1 X171.36 Y188.9332 E0.99515 F6000 ; Print pattern wall
G1 E-1 F2700 ; Retract
G1 Z0.65 F9000 ; Z hop
G0 X171.9357 Y146.5068 F9000 ; Move to start next pattern wall
G1 Z0.45 F9000 ; Z hop return
G1 E1 F2700 ; Un-retract
G1 X193.1489 Y167.72 E0.99515 F6000 ; Print pattern wall
G1 X171.9357 Y188.9332 E0.99515 F6000 ; Print pattern wall
G1 E-1 F2700 ; Retract
G1 Z0.65 F9000 ; Z hop
G0 X172.5114 Y146.5068 F9000 ; Move to start next pattern wall
G1 Z0.45 F9000 ; Z hop return
G1 E1 F2700 ; Un-retract
G1 X193.7246 Y167.72 E0.99515 F6000 ; Print pattern wall
G1 X172.5114 Y188.9332 E0.99515 F6000 ; Print pattern wall
G1 E-1 F2700 ; Retract
G1 Z0.65 F9000 ; Z hop
G0 X174.9614 Y146.5068 F9000 ; Move to next pattern
G1 Z0.45 F9000 ; Z hop return
G1 E1 F2700 ; Un-retract
SET_PRESSURE_ADVANCE ADVANCE=0.0475 ; Set pressure advance
M117 PA 0.0475
G1 X196.1746 Y167.72 E0.99515 F6000 ; Print pattern wall
G1 X174.9614 Y188.9332 E0.99515 F6000 ; Print pattern wall
G1 E-1 F2700 ; Retract
G1 Z0.65 F9000 ; Z hop
G0 X175.5371 Y146.5068 F9000 ; Move to start next pattern wall
G1 Z0.45 F9000 ; Z hop return
G1 E1 F2700 ; Un-retract
G1 X196.7503 Y167.72 E0.99515 F6000 ; Print pattern wall
G1 X175.5371 Y188.9332 E0.99515 F6000 ; Print pattern wall
G1 E-1 F2700 ; Retract
G1 Z0.65 F9000 ; Z hop
G0 X176.1128 Y146.5068 F9000 ; Move to start next pattern wall
G1 Z0.45 F9000 ; Z hop return
G1 E1 F2700 ; Un-retract
G1 X197.326 Y167.72 E0.99515 F6000 ; Print pattern wall
G1 X176.1128 Y188.9332 E0.99515 F6000 ; Print pattern wall
G1 E-1 F2700 ; Retract
G1 Z0.65 F9000 ; Z hop
G0 X178.5628 Y146.5068 F9000 ; Move to next pattern
G1 Z0.45 F9000 ; Z hop return
G1 E1 F2700 ; Un-retract
SET_PRESSURE_ADVANCE ADVANCE=0.05 ; Set pressure advance
M117 PA 0.05
G1 X199.776 Y167.72 E0.99515 F6000 ; Print pattern wall
G1 X178.5628 Y188.9332 E0.99515 F6000 ; Print pattern wall
G1 E-1 F2700 ; Retract
G1 Z0.65 F9000 ; Z hop
G0 X179.1385 Y146.5068 F9000 ; Move to start next pattern wall
G1 Z0.45 F9000 ; Z hop return
G1 E1 F2700 ; Un-retract
G1 X200.3517 Y167.72 E0.99515 F6000 ; Print pattern wall
G1 X179.1385 Y188.9332 E0.99515 F6000 ; Print pattern wall
G1 E-1 F2700 ; Retract
G1 Z0.65 F9000 ; Z hop
G0 X179.7141 Y146.5068 F9000 ; Move to start next pattern wall
G1 Z0.45 F9000 ; Z hop return
G1 E1 F2700 ; Un-retract
G1 X200.9274 Y167.72 E0.99515 F6000 ; Print pattern wall
G1 X179.7141 Y188.9332 E0.99515 F6000 ; Print pattern wall
G1 E-1 F2700 ; Retract
G1 Z0.65 F9000 ; Z hop
G0 X182.1641 Y146.5068 F9000 ; Move to next pattern
G1 Z0.45 F9000 ; Z hop return
G1 E1 F2700 ; Un-retract
SET_PRESSURE_ADVANCE ADVANCE=0.0525 ; Set pressure advance
M117 PA 0.0525
G1 X203.3774 Y167.72 E0.99515 F6000 ; Print pattern wall
G1 X182.1641 Y188.9332 E0.99515 F6000 ; Print pattern wall
G1 E-1 F2700 ; Retract
G1 Z0.65 F9000 ; Z hop
G0 X182.7398 Y146.5068 F9000 ; Move to start next pattern wall
G1 Z0.45 F9000 ; Z hop return
G1 E1 F2700 ; Un-retract
G1 X203.953 Y167.72 E0.99515 F6000 ; Print pattern wall
G1 X182.7398 Y188.9332 E0.99515 F6000 ; Print pattern wall
G1 E-1 F2700 ; Retract
G1 Z0.65 F9000 ; Z hop
G0 X183.3155 Y146.5068 F9000 ; Move to start next pattern wall
G1 Z0.45 F9000 ; Z hop return
G1 E1 F2700 ; Un-retract
G1 X204.5287 Y167.72 E0.99515 F6000 ; Print pattern wall
G1 X183.3155 Y188.9332 E0.99515 F6000 ; Print pattern wall
G1 E-1 F2700 ; Retract
G1 Z0.65 F9000 ; Z hop
G0 X185.7655 Y146.5068 F9000 ; Move to next pattern
G1 Z0.45 F9000 ; Z hop return
G1 E1 F2700 ; Un-retract
SET_PRESSURE_ADVANCE ADVANCE=0.055 ; Set pressure advance
M117 PA 0.055
G1 X206.9787 Y167.72 E0.99515 F6000 ; Print pattern wall
G1 X185.7655 Y188.9332 E0.99515 F6000 ; Print pattern wall
G1 E-1 F2700 ; Retract
G1 Z0.65 F9000 ; Z hop
G0 X186.3412 Y146.5068 F9000 ; Move to start next pattern wall
G1 Z0.45 F9000 ; Z hop return
G1 E1 F2700 ; Un-retract
G1 X207.5544 Y167.72 E0.99515 F6000 ; Print pattern wall
G1 X186.3412 Y188.9332 E0.99515 F6000 ; Print pattern wall
G1 E-1 F2700 ; Retract
G1 Z0.65 F9000 ; Z hop
G0 X186.9169 Y146.5068 F9000 ; Move to start next pattern wall
G1 Z0.45 F9000 ; Z hop return
G1 E1 F2700 ; Un-retract
G1 X208.1301 Y167.72 E0.99515 F6000 ; Print pattern wall
G1 X186.9169 Y188.9332 E0.99515 F6000 ; Print pattern wall
G1 E-1 F2700 ; Retract
G1 Z0.65 F9000 ; Z hop
G0 X189.3669 Y146.5068 F9000 ; Move to next pattern
G1 Z0.45 F9000 ; Z hop return
G1 E1 F2700 ; Un-retract
SET_PRESSURE_ADVANCE ADVANCE=0.0575 ; Set pressure advance
M117 PA 0.0575
G1 X210.5801 Y167.72 E0.99515 F6000 ; Print pattern wall
G1 X189.3669 Y188.9332 E0.99515 F6000 ; Print pattern wall
G1 E-1 F2700 ; Retract
G1 Z0.65 F9000 ; Z hop
G0 X189.9426 Y146.5068 F9000 ; Move to start next pattern wall
G1 Z0.45 F9000 ; Z hop return
G1 E1 F2700 ; Un-retract
G1 X211.1558 Y167.72 E0.99515 F6000 ; Print pattern wall
G1 X189.9426 Y188.9332 E0.99515 F6000 ; Print pattern wall
G1 E-1 F2700 ; Retract
G1 Z0.65 F9000 ; Z hop
G0 X190.5183 Y146.5068 F9000 ; Move to start next pattern wall
G1 Z0.45 F9000 ; Z hop return
G1 E1 F2700 ; Un-retract
G1 X211.7315 Y167.72 E0.99515 F6000 ; Print pattern wall
G1 X190.5183 Y188.9332 E0.99515 F6000 ; Print pattern wall
G1 E-1 F2700 ; Retract
G1 Z0.65 F9000 ; Z hop
G0 X192.9683 Y146.5068 F9000 ; Move to next pattern
G1 Z0.45 F9000 ; Z hop return
G1 E1 F2700 ; Un-retract
SET_PRESSURE_ADVANCE ADVANCE=0.06 ; Set pressure advance
M117 PA 0.06
G1 X214.1815 Y167.72 E0.99515 F6000 ; Print pattern wall
G1 X192.9683 Y188.9332 E0.99515 F6000 ; Print pattern wall
G1 E-1 F2700 ; Retract
G1 Z0.65 F9000 ; Z hop
G0 X193.544 Y146.5068 F9000 ; Move to start next pattern wall
G1 Z0.45 F9000 ; Z hop return
G1 E1 F2700 ; Un-retract
G1 X214.7572 Y167.72 E0.99515 F6000 ; Print pattern wall
G1 X193.544 Y188.9332 E0.99515 F6000 ; Print pattern wall
G1 E-1 F2700 ; Retract
G1 Z0.65 F9000 ; Z hop
G0 X194.1197 Y146.5068 F9000 ; Move to start next pattern wall
G1 Z0.45 F9000 ; Z hop return
G1 E1 F2700 ; Un-retract
G1 X215.3329 Y167.72 E0.99515 F6000 ; Print pattern wall
G1 X194.1197 Y188.9332 E0.99515 F6000 ; Print pattern wall
G1 E-1 F2700 ; Retract
G1 Z0.65 F9000 ; Z hop
G0 X196.5697 Y146.5068 F9000 ; Move to next pattern
G1 Z0.45 F9000 ; Z hop return
G1 E1 F2700 ; Un-retract
SET_PRESSURE_ADVANCE ADVANCE=0.0625 ; Set pressure advance
M117 PA 0.0625
G1 X217.7829 Y167.72 E0.99515 F6000 ; Print pattern wall
G1 X196.5697 Y188.9332 E0.99515 F6000 ; Print pattern wall
G1 E-1 F2700 ; Retract
G1 Z0.65 F9000 ; Z hop
G0 X197.1454 Y146.5068 F9000 ; Move to start next pattern wall
G1 Z0.45 F9000 ; Z hop return
G1 E1 F2700 ; Un-retract
G1 X218.3586 Y167.72 E0.99515 F6000 ; Print pattern wall
G1 X197.1454 Y188.9332 E0.99515 F6000 ; Print pattern wall
G1 E-1 F2700 ; Retract
G1 Z0.65 F9000 ; Z hop
G0 X197.7211 Y146.5068 F9000 ; Move to start next pattern wall
G1 Z0.45 F9000 ; Z hop return
G1 E1 F2700 ; Un-retract
G1 X218.9343 Y167.72 E0.99515 F6000 ; Print pattern wall
G1 X197.7211 Y188.9332 E0.99515 F6000 ; Print pattern wall
G1 E-1 F2700 ; Retract
G1 Z0.65 F9000 ; Z hop
G0 X200.1711 Y146.5068 F9000 ; Move to next pattern
G1 Z0.45 F9000 ; Z hop return
G1 E1 F2700 ; Un-retract
SET_PRESSURE_ADVANCE ADVANCE=0.065 ; Set pressure advance
M117 PA 0.065
G1 X221.3843 Y167.72 E0.99515 F6000 ; Print pattern wall
G1 X200.1711 Y188.9332 E0.99515 F6000 ; Print pattern wall
G1 E-1 F2700 ; Retract
G1 Z0.65 F9000 ; Z hop
G0 X200.7468 Y146.5068 F9000 ; Move to start next pattern wall
G1 Z0.45 F9000 ; Z hop return
G1 E1 F2700 ; Un-retract
G1 X221.96 Y167.72 E0.99515 F6000 ; Print pattern wall
G1 X200.7468 Y188.9332 E0.99515 F6000 ; Print pattern wall
G1 E-1 F2700 ; Retract
G1 Z0.65 F9000 ; Z hop
