; generated by PrusaSlicer 2.7.4+win64 on 2024-04-09 at 15:21:23 UTC


;
;

;
;
; TODO: check the size of the extruder and the y-bar clearance. Optimize & test supports.

; external perimeters extrusion width = 0.40mm
; perimeters extrusion width = 0.40mm
; infill extrusion width = 0.40mm
; solid infill extrusion width = 0.40mm
; top infill extrusion width = 0.40mm
; first layer extrusion width = 0.40mm


EXCLUDE_OBJECT_DEFINE NAME='Voron_Design_Cube_v7_stl' CENTER=175.000,175.000 POLYGON=[[190.000,190.000],[160.000,190.000],[160.000,160.000],[190.000,160.000]]

;TYPE:Custom
print_start HOTEND_TEMP=200 BED_TEMP=55
G21 ; set units to millimeters
G90 ; use absolute coordinates
M83 ; use relative distances for extrusion
M107
;LAYER_CHANGE
;Z:0.2
;HEIGHT:0.2
G10 ; retract
G1 Z.2 F18000
EXCLUDE_OBJECT_START NAME='Voron_Design_Cube_v7_stl'
G1 X189.243 Y183.818
G11 ; unretract
;TYPE:Perimeter
;WIDTH:0.399999
G1 F2400
G1 X183.818 Y189.243 E.22779
G1 X166.182 Y189.243 E.52363
G1 X160.757 Y183.818 E.22779
G1 X160.757 Y166.182 E.52363
G1 X166.182 Y160.757 E.22779
G1 X183.818 Y160.757 E.52363
G1 X189.243 Y166.182 E.22779
G1 X189.243 Y167.857 E.04973
G1 X189.243 Y183.758 E.47212
G1 X189.243 Y183.758 F18000
G1 X189.6 Y183.966
;TYPE:External perimeter
G1 F2400
G1 X183.966 Y189.6 E.23657
G1 X166.034 Y189.6 E.53242
G1 X160.4 Y183.966 E.23657
G1 X160.4 Y166.034 E.53242
G1 X166.034 Y160.4 E.23657
G1 X183.966 Y160.4 E.53242
G1 X189.6 Y166.034 E.23657
G1 X189.6 Y167.857 E.05413
G1 X189.6 Y183.906 E.47651
G1 X189.345 Y184.215 F18000
G10 ; retract
G1 X182.135 Y179.441
G11 ; unretract
;TYPE:Perimeter
G1 F2400
G1 X181.627 Y180.172 E.02643
G1 X181.096 Y180.788 E.02415
G1 X180.465 Y181.387 E.02583
G1 X179.777 Y181.917 E.02579
G1 X179.037 Y182.373 E.02581
G1 X178.448 Y182.666 E.01953
G1 X177.844 Y182.911 E.01935
G1 X177.018 Y183.16 E.02562
G1 X176.165 Y183.325 E.0258
G1 X175.299 Y183.401 E.02581
G1 X174.43 Y183.387 E.02581
G1 X173.567 Y183.283 E.02581
G1 X172.72 Y183.091 E.02579
G1 X172.094 Y182.887 E.01955
G1 X171.492 Y182.64 E.01932
G1 X170.727 Y182.239 E.02565
G1 X170.105 Y181.828 E.02214
G1 X169.331 Y181.207 E.02946
G1 X168.72 Y180.589 E.0258
G1 X168.177 Y179.911 E.02579
G1 X167.706 Y179.18 E.02582
G1 X167.314 Y178.405 E.02579
G1 X167.003 Y177.593 E.02582
G1 X166.778 Y176.754 E.02579
G1 X166.641 Y175.895 E.02583
G1 X166.599 Y175.238 E.01955
G1 X166.606 Y174.538 E.02078
G1 X166.69 Y173.728 E.02418
G1 X166.866 Y172.877 E.0258
G1 X167.129 Y172.049 E.02579
G1 X167.475 Y171.252 E.0258
G1 X167.902 Y170.495 E.02581
G1 X168.405 Y169.787 E.02579
G1 X168.979 Y169.134 E.02581
G1 X169.617 Y168.543 E.02582
G1 X170.275 Y168.05 E.02441
G1 X171.057 Y167.576 E.02715
G1 X171.655 Y167.289 E.01969
G1 X172.257 Y167.053 E.0192
G1 X173.087 Y166.814 E.02565
G1 X173.942 Y166.66 E.02579
G1 X174.809 Y166.596 E.02581
G1 X175.678 Y166.621 E.02581
G1 X176.539 Y166.736 E.02579
G1 X177.384 Y166.939 E.0258
G1 X178.01 Y167.152 E.01963
G1 X178.606 Y167.406 E.01924
G1 X179.366 Y167.816 E.02564
G1 X179.851 Y168.146 E.01742
G1 X180.748 Y168.866 E.03415
G1 X181.35 Y169.492 E.02579
G1 X181.885 Y170.177 E.02581
G1 X182.346 Y170.914 E.02581
G1 X182.644 Y171.504 E.01963
G1 X182.892 Y172.104 E.01928
G1 X183.147 Y172.928 E.02561
G1 X183.317 Y173.78 E.0258
G1 X183.398 Y174.645 E.0258
G1 X183.401 Y175.306 E.01963
G1 X183.325 Y176.165 E.0256
G1 X183.16 Y177.018 E.0258
G1 X182.908 Y177.85 E.02581
G1 X182.572 Y178.651 E.02579
G1 X182.167 Y179.39 E.02502
G1 X181.842 Y179.241 F18000
;TYPE:External perimeter
G1 F2400
G1 X181.367 Y179.924 E.0247
G1 X180.825 Y180.555 E.0247
G1 X180.22 Y181.127 E.02472
G1 X179.56 Y181.633 E.02469
G1 X178.851 Y182.069 E.02471
G1 X178.29 Y182.345 E.01856
G1 X177.71 Y182.58 E.01858
G1 X176.915 Y182.818 E.02464
G1 X176.098 Y182.974 E.0247
G1 X175.269 Y183.045 E.0247
G1 X174.437 Y183.03 E.02471
G1 X173.611 Y182.929 E.02471
G1 X172.8 Y182.743 E.0247
G1 X172.206 Y182.548 E.01856
G1 X171.628 Y182.309 E.01857
G1 X170.893 Y181.923 E.02465
G1 X170.303 Y181.531 E.02103
G1 X169.559 Y180.932 E.02836
G1 X168.975 Y180.339 E.02471
G1 X168.456 Y179.688 E.02472
G1 X168.007 Y178.988 E.02469
G1 X167.633 Y178.244 E.02472
G1 X167.337 Y177.467 E.02469
G1 X167.124 Y176.662 E.02472
G1 X166.994 Y175.84 E.02471
G1 X166.956 Y175.216 E.01856
G1 X166.961 Y174.575 E.01903
G1 X167.045 Y173.765 E.02418
G1 X167.215 Y172.951 E.02469
G1 X167.469 Y172.158 E.02472
G1 X167.802 Y171.396 E.02469
G1 X168.213 Y170.672 E.02472
G1 X168.696 Y169.994 E.02472
G1 X169.246 Y169.37 E.0247
G1 X169.858 Y168.806 E.02471
G1 X170.488 Y168.336 E.02334
G1 X171.24 Y167.882 E.02608
G1 X171.808 Y167.612 E.01867
G1 X172.387 Y167.386 E.01845
G1 X173.185 Y167.158 E.02464
G1 X174.004 Y167.012 E.0247
G1 X174.834 Y166.952 E.02471
G1 X175.666 Y166.978 E.02472
G1 X176.491 Y167.09 E.02472
G1 X177.299 Y167.286 E.02469
G1 X177.894 Y167.49 E.01868
G1 X178.466 Y167.735 E.01848
G1 X179.195 Y168.13 E.02462
G1 X179.649 Y168.44 E.01632
G1 X180.517 Y169.138 E.03307
G1 X181.092 Y169.739 E.0247
G1 X181.603 Y170.396 E.02471
G1 X182.043 Y171.102 E.0247
G1 X182.325 Y171.664 E.01867
G1 X182.561 Y172.24 E.01848
G1 X182.805 Y173.033 E.02463
G1 X182.967 Y173.849 E.0247
G1 X183.043 Y174.678 E.02472
G1 X183.043 Y175.306 E.01865
G1 X182.969 Y176.133 E.02465
G1 X182.81 Y176.949 E.02468
G1 X182.567 Y177.745 E.02471
G1 X182.243 Y178.512 E.02472
G1 X181.871 Y179.188 E.02291
G1 X181.647 Y179.52 F18000
G10 ; retract
G1 X189.118 Y166.463
G11 ; unretract
;TYPE:Solid infill
;WIDTH:0.402909
G1 F2400
G1 X183.698 Y161.043 E.22944
G1 X183.189 Y161.043 E.01524
G1 X188.957 Y166.811 E.24417
G1 X188.957 Y167.32 E.01524
G1 X182.68 Y161.043 E.26572
G1 X182.17 Y161.043 E.01527
G1 X188.957 Y167.83 E.28731
G1 X188.957 Y168.339 E.01524
G1 X181.661 Y161.043 E.30885
G1 X181.152 Y161.043 E.01524
G1 X188.957 Y168.848 E.3304
G1 X188.957 Y169.357 E.01524
G1 X180.643 Y161.043 E.35195
G1 X180.134 Y161.043 E.01524
G1 X188.957 Y169.866 E.37349
G1 X188.957 Y170.375 E.01524
G1 X179.625 Y161.043 E.39504
G1 X179.116 Y161.043 E.01524
G1 X188.957 Y170.884 E.41659
G1 X188.957 Y171.393 E.01524
G1 X178.607 Y161.043 E.43814
G1 X178.098 Y161.043 E.01524
G1 X188.957 Y171.902 E.45968
G1 X188.957 Y172.411 E.01524
G1 X177.589 Y161.043 E.48123
G1 X177.079 Y161.043 E.01527
G1 X188.957 Y172.921 E.50282
G1 X188.957 Y173.43 E.01524
G1 X176.57 Y161.043 E.52437
G1 X176.061 Y161.043 E.01524
G1 X188.957 Y173.939 E.54591
G1 X188.957 Y174.448 E.01524
G1 X175.552 Y161.043 E.56746
G1 X175.043 Y161.043 E.01524
G1 X188.957 Y174.957 E.58901
G1 X188.957 Y175.466 E.01524
G1 X174.534 Y161.043 E.61055
G1 X174.025 Y161.043 E.01524
G1 X188.957 Y175.975 E.6321
G1 X188.957 Y176.484 E.01524
G1 X173.516 Y161.043 E.65365
G1 X173.007 Y161.043 E.01524
G1 X179.572 Y167.608 E.27791
G1 X180.309 Y168.118 E.02683
G1 X180.98 Y168.692 E.02643
G1 X181.609 Y169.355 E.02736
G1 X182.132 Y170.031 E.02558
G1 X182.36 Y170.396 E.01288
G1 X188.957 Y176.993 E.27926
G1 X188.957 Y177.502 E.01524
G1 X182.951 Y171.497 E.25422
G1 X183.18 Y172.062 E.01825
G1 X183.254 Y172.309 E.00772
G1 X188.957 Y178.012 E.24142
G1 X188.957 Y178.521 E.01524
G1 X183.459 Y173.022 E.23276
G1 X183.58 Y173.652 E.0192
G1 X188.957 Y179.03 E.22764
G1 X188.957 Y179.539 E.01524
G1 X183.646 Y174.227 E.22485
G1 X183.686 Y174.777 E.01651
G1 X188.957 Y180.048 E.22313
G1 X188.957 Y180.557 E.01524
G1 X183.684 Y175.283 E.22324
G1 X183.648 Y175.757 E.01423
G1 X188.957 Y181.066 E.22474
G1 X188.957 Y181.575 E.01524
G1 X183.604 Y176.222 E.2266
G1 X183.522 Y176.649 E.01302
G1 X188.957 Y182.084 E.23007
G1 X188.957 Y182.594 E.01527
G1 X183.437 Y177.073 E.23369
G1 X183.322 Y177.468 E.01231
G1 X188.957 Y183.103 E.23854
G1 X188.957 Y183.612 E.01524
G1 X183.202 Y177.856 E.24364
G1 X183.061 Y178.225 E.01182
G1 X188.747 Y183.91 E.24068
G1 X188.492 Y184.165 E.01079
G1 X182.909 Y178.581 E.23636
G1 X182.747 Y178.929 E.01149
G1 X188.238 Y184.419 E.23242
G1 X187.983 Y184.674 E.01079
G1 X182.565 Y179.256 E.22935
G1 X182.383 Y179.583 E.0112
G1 X187.729 Y184.929 E.22631
G1 X187.474 Y185.183 E.01077
G1 X182.176 Y179.885 E.22427
G1 X181.966 Y180.184 E.01094
G1 X187.219 Y185.438 E.22239
G1 X186.965 Y185.692 E.01075
G1 X181.745 Y180.472 E.22097
G1 X181.509 Y180.745 E.0108
G1 X186.71 Y185.947 E.22019
G1 X186.456 Y186.201 E.01075
G1 X181.272 Y181.018 E.21943
G1 X181.011 Y181.265 E.01076
G1 X186.201 Y186.456 E.21972
G1 X185.947 Y186.71 E.01075
G1 X180.749 Y181.512 E.22004
G1 X180.47 Y181.743 E.01084
G1 X185.692 Y186.965 E.22106
G1 X185.438 Y187.219 E.01075
G1 X180.183 Y181.964 E.22245
G1 X179.892 Y182.183 E.0109
G1 X185.183 Y187.474 E.22398
G1 X184.929 Y187.729 E.01077
G1 X179.577 Y182.377 E.22656
G1 X179.261 Y182.571 E.0111
G1 X184.674 Y187.983 E.22912
G1 X184.419 Y188.238 E.01079
G1 X178.927 Y182.745 E.23251
G1 X178.586 Y182.914 E.01139
G1 X184.165 Y188.492 E.23615
G1 X183.91 Y188.747 E.01079
G1 X178.227 Y183.063 E.24059
G1 X177.861 Y183.206 E.01176
G1 X183.612 Y188.957 E.24345
G1 X183.103 Y188.957 E.01524
G1 X177.467 Y183.322 E.23856
G1 X177.074 Y183.438 E.01227
G1 X182.593 Y188.957 E.23363
G1 X182.084 Y188.957 E.01524
G1 X176.651 Y183.524 E.22999
G1 X176.223 Y183.605 E.01304
G1 X181.575 Y188.957 E.22656
G1 X181.066 Y188.957 E.01524
G1 X175.755 Y183.646 E.22482
G1 X175.286 Y183.686 E.01409
G1 X180.557 Y188.957 E.22313
G1 X180.048 Y188.957 E.01524
G1 X174.77 Y183.679 E.22343
G1 X174.232 Y183.65 E.01613
G1 X179.539 Y188.957 E.22466
G1 X179.03 Y188.957 E.01524
G1 X173.654 Y183.581 E.22758
G1 X173.014 Y183.45 E.01955
G1 X178.521 Y188.957 E.23312
G1 X178.012 Y188.957 E.01524
G1 X172.311 Y183.257 E.24131
G1 X171.952 Y183.139 E.01131
G1 X171.491 Y182.946 E.01496
G1 X177.663 Y189.118 E.26127
G10 ; retract
G1 X177.663 Y189.118 F18000
G1 X178.849 Y167.394
G11 ; unretract
G1 F2400
G1 X172.498 Y161.043 E.26885
G1 X171.988 Y161.043 E.01527
G1 X177.686 Y166.74 E.24119
G1 X177.456 Y166.662 E.00727
G1 X176.987 Y166.55 E.01443
G1 X171.479 Y161.043 E.23314
G1 X170.97 Y161.043 E.01524
G1 X176.35 Y166.423 E.22775
G1 X175.764 Y166.345 E.0177
G1 X170.461 Y161.043 E.22447
G1 X169.952 Y161.043 E.01524
G1 X175.232 Y166.323 E.22351
G1 X174.717 Y166.316 E.01542
G1 X169.443 Y161.043 E.22324
G1 X168.934 Y161.043 E.01524
G1 X174.243 Y166.352 E.22474
G1 X173.781 Y166.399 E.0139
G1 X168.425 Y161.043 E.22673
G1 X167.916 Y161.043 E.01524
G1 X173.348 Y166.475 E.22995
G1 X172.929 Y166.565 E.01283
G1 X167.406 Y161.043 E.23378
G1 X166.897 Y161.043 E.01524
G1 X172.532 Y166.677 E.23852
G1 X172.141 Y166.795 E.01223
G1 X166.388 Y161.043 E.24351
G1 X166.3 Y161.043 E.00263
G1 X166.09 Y161.253 E.00889
G1 X171.774 Y166.937 E.24061
G1 X171.415 Y167.088 E.01166
G1 X165.835 Y161.508 E.23621
G1 X165.581 Y161.762 E.01075
G1 X171.071 Y167.253 E.23242
G1 X170.741 Y167.432 E.01124
G1 X165.326 Y162.017 E.22923
G1 X165.071 Y162.271 E.01077
G1 X170.423 Y167.623 E.22656
G1 X170.109 Y167.818 E.01106
G1 X164.817 Y162.526 E.22402
G1 X164.562 Y162.781 E.01079
G1 X169.818 Y168.036 E.22248
G1 X169.527 Y168.254 E.01088
G1 X164.308 Y163.035 E.22093
G1 X164.053 Y163.29 E.01079
G1 X169.253 Y168.49 E.22013
G1 X168.988 Y168.734 E.01078
G1 X163.799 Y163.544 E.21968
G1 X163.544 Y163.799 E.01079
G1 X168.731 Y168.985 E.21955
G1 X168.491 Y169.255 E.01081
G1 X163.29 Y164.053 E.22019
G1 X163.035 Y164.308 E.01079
G1 X168.252 Y169.525 E.22085
G1 X168.035 Y169.817 E.01089
G1 X162.781 Y164.562 E.22243
G1 X162.526 Y164.817 E.01079
G1 X167.822 Y170.113 E.22419
G1 X167.62 Y170.42 E.011
G1 X162.271 Y165.071 E.22643
G1 X162.017 Y165.326 E.01077
G1 X167.434 Y170.744 E.22933
G1 X167.249 Y171.067 E.01114
G1 X161.762 Y165.581 E.23225
G1 X161.508 Y165.835 E.01075
G1 X167.092 Y171.42 E.2364
G1 X166.936 Y171.772 E.01152
G1 X161.253 Y166.09 E.24055
G1 X161.043 Y166.3 E.00889
G1 X161.043 Y166.388 E.00263
G1 X166.8 Y172.146 E.24373
G1 X166.675 Y172.53 E.01209
G1 X161.043 Y166.897 E.23843
G1 X161.043 Y167.407 E.01527
G1 X166.566 Y172.93 E.2338
G1 X166.476 Y173.349 E.01283
G1 X161.043 Y167.916 E.22999
G1 X161.043 Y168.425 E.01524
G1 X166.401 Y173.783 E.22681
G1 X166.351 Y174.242 E.01382
G1 X161.043 Y168.934 E.2247
G1 X161.043 Y169.443 E.01524
G1 X166.319 Y174.719 E.22334
G1 X166.313 Y175.223 E.01509
G1 X161.043 Y169.952 E.22311
G1 X161.043 Y170.461 E.01524
G1 X166.348 Y175.766 E.22457
G1 X166.426 Y176.353 E.01773
G1 X161.043 Y170.97 E.22787
G1 X161.043 Y171.479 E.01524
G1 X166.544 Y176.98 E.23287
G1 X166.731 Y177.677 E.0216
G1 X161.043 Y171.988 E.24081
G1 X161.043 Y172.498 E.01527
G1 X167.404 Y178.859 E.26927
G10 ; retract
G1 X167.404 Y178.859 F18000
G1 X160.882 Y172.846
G11 ; unretract
G1 F2400
G1 X167.636 Y179.6 E.28591
G1 X167.917 Y180.039 E.0156
G1 X168.463 Y180.729 E.02634
G1 X169.095 Y181.378 E.02712
G1 X169.825 Y181.984 E.0284
G1 X170.413 Y182.377 E.02117
G1 X176.993 Y188.957 E.27854
G1 X176.484 Y188.957 E.01524
G1 X161.043 Y173.516 E.65365
G1 X161.043 Y174.025 E.01524
G1 X175.975 Y188.957 E.6321
G1 X175.466 Y188.957 E.01524
G1 X161.043 Y174.534 E.61055
G1 X161.043 Y175.043 E.01524
G1 X174.957 Y188.957 E.58901
G1 X174.448 Y188.957 E.01524
G1 X161.043 Y175.552 E.56746
G1 X161.043 Y176.061 E.01524
G1 X173.939 Y188.957 E.54591
G1 X173.43 Y188.957 E.01524
G1 X161.043 Y176.57 E.52437
G1 X161.043 Y177.079 E.01524
G1 X172.921 Y188.957 E.50282
G1 X172.411 Y188.957 E.01527
G1 X161.043 Y177.589 E.48123
G1 X161.043 Y178.098 E.01524
G1 X171.902 Y188.957 E.45968
G1 X171.393 Y188.957 E.01524
G1 X161.043 Y178.607 E.43814
G1 X161.043 Y179.116 E.01524
G1 X170.884 Y188.957 E.41659
G1 X170.375 Y188.957 E.01524
G1 X161.043 Y179.625 E.39504
G1 X161.043 Y180.134 E.01524
G1 X169.866 Y188.957 E.37349
G1 X169.357 Y188.957 E.01524
G1 X161.043 Y180.643 E.35195
G1 X161.043 Y181.152 E.01524
G1 X168.848 Y188.957 E.3304
G1 X168.339 Y188.957 E.01524
G1 X161.043 Y181.661 E.30885
G1 X161.043 Y182.17 E.01524
G1 X167.83 Y188.957 E.28731
G1 X167.32 Y188.957 E.01527
G1 X161.043 Y182.68 E.26572
G1 X161.043 Y183.189 E.01524
G1 X166.811 Y188.957 E.24417
G1 X166.302 Y188.957 E.01524
G1 X160.882 Y183.537 E.22944
M106 S255
;LAYER_CHANGE
;Z:0.4
;HEIGHT:0.2
;BEFORE_LAYER_CHANGE
;0.4
G92 E0

G10 ; retract
G1 Z.4 F18000
;AFTER_LAYER_CHANGE
;0.4
G1 X189.443 Y167.71
G11 ; unretract
;TYPE:Perimeter
;WIDTH:0.399999
G1 F6000
G1 X189.443 Y184.069 E.48572
G1 X184.069 Y189.443 E.22565
G1 X165.931 Y189.443 E.53854
G1 X160.557 Y184.069 E.22565
G1 X160.557 Y165.931 E.53854
G1 X165.931 Y160.557 E.22565
G1 X184.069 Y160.557 E.53854
G1 X189.443 Y165.931 E.22565
G1 X189.443 Y167.65 E.05104
G1 X189.443 Y167.65 F18000
G1 X189.8 Y167.71
;TYPE:External perimeter
G1 F3000
G1 X189.8 Y184.217 E.49011
G1 X184.217 Y189.8 E.23443
G1 X165.783 Y189.8 E.54733
G1 X160.2 Y184.217 E.23443
G1 X160.2 Y165.783 E.54733
G1 X165.783 Y160.2 E.23443
G1 X184.217 Y160.2 E.54733
G1 X189.8 Y165.783 E.23443
G1 X189.8 Y167.65 E.05543
G1 X189.8 Y168.05 F18000
G1 X182.876 Y172.707
;TYPE:Perimeter
G1 F6000
G1 X183.131 Y173.897 E.03613
G1 X183.203 Y174.759 E.02568
G1 X183.184 Y175.611 E.0253
G1 X183.076 Y176.456 E.02529
G1 X182.882 Y177.285 E.02528
G1 X182.602 Y178.09 E.02531
G1 X182.241 Y178.862 E.0253
G1 X181.762 Y179.648 E.02733
G1 X181.016 Y180.581 E.03547
G1 X180.395 Y181.184 E.0257
G1 X179.725 Y181.71 E.02529
G1 X179.004 Y182.163 E.02528
G1 X177.856 Y182.692 E.03753
G1 X177.031 Y182.951 E.02567
G1 X176.195 Y183.119 E.02532
G1 X175.347 Y183.199 E.02529
G1 X174.495 Y183.191 E.0253
G1 X173.649 Y183.094 E.02528
G1 X172.817 Y182.911 E.02529
G1 X172.009 Y182.642 E.02529
G1 X171.233 Y182.291 E.02529
G1 X170.497 Y181.861 E.02531
G1 X170.354 Y181.755 E.00529
G1 X169.498 Y181.088 E.03222
G1 X168.887 Y180.475 E.0257
G1 X168.352 Y179.812 E.0253
G1 X167.889 Y179.097 E.02529
G1 X167.503 Y178.337 E.02531
G1 X167.197 Y177.542 E.02529
G1 X166.962 Y176.651 E.02736
G1 X166.808 Y175.467 E.03545
G1 X166.808 Y174.532 E.02776
G1 X166.962 Y173.348 E.03545
G1 X167.18 Y172.511 E.02568
G1 X167.48 Y171.714 E.02528
G1 X167.862 Y170.952 E.02531
G1 X168.32 Y170.234 E.02529
G1 X168.85 Y169.567 E.02529
G1 X169.446 Y168.958 E.0253
G1 X170.102 Y168.415 E.02528
G1 X170.811 Y167.943 E.02529
G1 X171.566 Y167.547 E.02531
G1 X172.357 Y167.231 E.02529
G1 X173.176 Y166.999 E.02527
