; generated by PrusaSlicer 2.7.4+win64 on 2024-04-09 at 15:21:35 UTC


;
;

;
;
; TODO: check the size of the extruder and the y-bar clearance. Optimize & test supports.

; external perimeters extrusion width = 0.40mm
; perimeters extrusion width = 0.40mm
; infill extrusion width = 0.40mm
; solid infill extrusion width = 0.40mm
; top infill extrusion width = 0.40mm
; first layer extrusion width = 0.40mm


EXCLUDE_OBJECT_DEFINE NAME='first_layer_octo_02_stl' CENTER=175.000,175.000 POLYGON=[[212.500,159.467],[212.500,190.533],[190.533,212.500],[159.467,212.500],[137.500,190.533],[137.500,159.467],[159.467,137.500],[190.533,137.500]]

;TYPE:Custom
print_start HOTEND_TEMP=200 BED_TEMP=55
G21 ; set units to millimeters
G90 ; use absolute coordinates
M83 ; use relative distances for extrusion
M107
;LAYER_CHANGE
;Z:0.2
;HEIGHT:0.2
G10 ; retract
G1 Z.2 F18000
EXCLUDE_OBJECT_START NAME='first_layer_octo_02_stl'
G1 X190.261 Y211.843
G11 ; unretract
;TYPE:Perimeter
;WIDTH:0.399999
G1 F2400
G1 X159.739 Y211.843 E.90624
G1 X138.157 Y190.261 E.90622
G1 X138.157 Y159.739 E.90624
G1 X159.739 Y138.157 E.90622
G1 X190.261 Y138.157 E.90624
G1 X211.843 Y159.739 E.90622
G1 X211.843 Y175 E.45312
G1 X211.843 Y190.261 E.45312
G1 X190.303 Y211.8 E.90444
G1 X190.303 Y211.8 F18000
G1 X190.409 Y212.2
;TYPE:External perimeter
G1 F2400
G1 X159.591 Y212.2 E.91502
G1 X137.8 Y190.409 E.915
G1 X137.8 Y159.591 E.91502
G1 X159.591 Y137.8 E.915
G1 X190.409 Y137.8 E.91502
G1 X212.2 Y159.591 E.915
G1 X212.2 Y175 E.45751
G1 X212.2 Y190.409 E.45751
G1 X190.451 Y212.158 E.91324
G1 X190.053 Y212.196 F18000
G10 ; retract
G1 X211.718 Y160.019
G11 ; unretract
;TYPE:Solid infill
;WIDTH:0.401318
G1 F2400
G1 X190.142 Y138.443 E.90932
G1 X189.635 Y138.443 E.01511
G1 X211.557 Y160.365 E.9239
G1 X211.557 Y160.872 E.01511
G1 X189.128 Y138.443 E.94527
G1 X188.621 Y138.443 E.01511
G1 X211.557 Y161.379 E.96663
G1 X211.557 Y161.886 E.01511
G1 X188.114 Y138.443 E.988
G1 X187.607 Y138.443 E.01511
G1 X211.557 Y162.393 E1.00937
G1 X211.557 Y162.9 E.01511
G1 X187.1 Y138.443 E1.03074
G1 X186.594 Y138.443 E.01508
G1 X211.557 Y163.406 E1.05206
G1 X211.557 Y163.913 E.01511
G1 X186.087 Y138.443 E1.07343
G1 X185.58 Y138.443 E.01511
G1 X211.557 Y164.42 E1.0948
G1 X211.557 Y164.927 E.01511
G1 X185.073 Y138.443 E1.11616
G1 X184.566 Y138.443 E.01511
G1 X211.557 Y165.434 E1.13753
G1 X211.557 Y165.941 E.01511
G1 X184.059 Y138.443 E1.1589
G1 X183.552 Y138.443 E.01511
G1 X211.557 Y166.448 E1.18027
G1 X211.557 Y166.954 E.01508
G1 X183.046 Y138.443 E1.20159
G1 X182.539 Y138.443 E.01511
G1 X211.557 Y167.461 E1.22296
G1 X211.557 Y167.968 E.01511
G1 X182.032 Y138.443 E1.24433
G1 X181.525 Y138.443 E.01511
G1 X211.557 Y168.475 E1.26569
G1 X211.557 Y168.982 E.01511
G1 X181.018 Y138.443 E1.28706
G1 X180.511 Y138.443 E.01511
G1 X211.557 Y169.489 E1.30843
G1 X211.557 Y169.996 E.01511
G1 X180.004 Y138.443 E1.3298
G1 X179.498 Y138.443 E.01508
G1 X211.557 Y170.502 E1.35112
G1 X211.557 Y171.009 E.01511
G1 X178.991 Y138.443 E1.37249
G1 X178.484 Y138.443 E.01511
G1 X211.557 Y171.516 E1.39386
G1 X211.557 Y172.023 E.01511
G1 X177.977 Y138.443 E1.41522
G1 X177.47 Y138.443 E.01511
G1 X211.557 Y172.53 E1.43659
G1 X211.557 Y173.037 E.01511
G1 X176.963 Y138.443 E1.45796
G1 X176.457 Y138.443 E.01508
G1 X211.557 Y173.543 E1.47928
G1 X211.557 Y174.05 E.01511
G1 X175.95 Y138.443 E1.50065
G1 X175.443 Y138.443 E.01511
G1 X211.557 Y174.557 E1.52202
G1 X211.557 Y175.064 E.01511
G1 X174.936 Y138.443 E1.54339
G1 X174.429 Y138.443 E.01511
G1 X211.557 Y175.571 E1.56475
G1 X211.557 Y176.078 E.01511
G1 X173.922 Y138.443 E1.58612
G1 X173.415 Y138.443 E.01511
G1 X211.557 Y176.585 E1.60749
G1 X211.557 Y177.091 E.01508
G1 X172.909 Y138.443 E1.62881
G1 X172.402 Y138.443 E.01511
G1 X211.557 Y177.598 E1.65018
G1 X211.557 Y178.105 E.01511
G1 X171.895 Y138.443 E1.67155
G1 X171.388 Y138.443 E.01511
G1 X211.557 Y178.612 E1.69292
G1 X211.557 Y179.119 E.01511
G1 X170.881 Y138.443 E1.71428
G1 X170.374 Y138.443 E.01511
G1 X211.557 Y179.626 E1.73565
G1 X211.557 Y180.133 E.01511
G1 X169.867 Y138.443 E1.75702
G1 X169.361 Y138.443 E.01508
G1 X211.557 Y180.639 E1.77834
G1 X211.557 Y181.146 E.01511
G1 X168.854 Y138.443 E1.79971
G1 X168.347 Y138.443 E.01511
G1 X211.557 Y181.653 E1.82108
G1 X211.557 Y182.16 E.01511
G1 X167.84 Y138.443 E1.84245
G1 X167.333 Y138.443 E.01511
G1 X211.557 Y182.667 E1.86381
G1 X211.557 Y183.174 E.01511
G1 X166.826 Y138.443 E1.88518
G1 X166.319 Y138.443 E.01511
G1 X211.557 Y183.681 E1.90655
G1 X211.557 Y184.187 E.01508
G1 X165.813 Y138.443 E1.92787
G1 X165.306 Y138.443 E.01511
G1 X211.557 Y184.694 E1.94924
G1 X211.557 Y185.201 E.01511
G1 X164.799 Y138.443 E1.97061
G1 X164.292 Y138.443 E.01511
G1 X211.557 Y185.708 E1.99198
G1 X211.557 Y186.215 E.01511
G1 X163.785 Y138.443 E2.01334
G1 X163.278 Y138.443 E.01511
G1 X211.557 Y186.722 E2.03471
G1 X211.557 Y187.228 E.01508
G1 X162.772 Y138.443 E2.05604
G1 X162.265 Y138.443 E.01511
G1 X211.557 Y187.735 E2.0774
G1 X211.557 Y188.242 E.01511
G1 X161.758 Y138.443 E2.09877
G1 X161.251 Y138.443 E.01511
G1 X211.557 Y188.749 E2.12014
G1 X211.557 Y189.256 E.01511
G1 X160.744 Y138.443 E2.14151
G1 X160.237 Y138.443 E.01511
G1 X211.557 Y189.763 E2.16287
G1 X211.557 Y190.143 E.01132
G1 X211.494 Y190.206 E.00266
G1 X159.794 Y138.506 E2.17889
G1 X159.541 Y138.76 E.01068
G1 X211.24 Y190.459 E2.17885
G1 X210.987 Y190.713 E.01068
G1 X159.287 Y139.013 E2.17889
G1 X159.034 Y139.267 E.01068
G1 X210.733 Y190.966 E2.17885
G1 X210.48 Y191.22 E.01068
G1 X158.78 Y139.52 E2.17889
G1 X158.527 Y139.773 E.01066
G1 X210.227 Y191.473 E2.17889
G1 X209.973 Y191.727 E.0107
G1 X158.273 Y140.027 E2.17889
G1 X158.02 Y140.28 E.01066
G1 X209.72 Y191.98 E2.17889
G1 X209.466 Y192.233 E.01068
G1 X157.767 Y140.534 E2.17885
G1 X157.513 Y140.787 E.01068
G1 X209.213 Y192.487 E2.17889
G1 X208.959 Y192.74 E.01068
G1 X157.26 Y141.041 E2.17885
G1 X157.006 Y141.294 E.01068
G1 X208.706 Y192.994 E2.17889
G1 X208.453 Y193.247 E.01066
G1 X156.753 Y141.547 E2.17889
G1 X156.499 Y141.801 E.0107
G1 X208.199 Y193.501 E2.17889
G1 X207.946 Y193.754 E.01066
G1 X156.246 Y142.054 E2.17889
G1 X155.993 Y142.308 E.01068
G1 X207.692 Y194.007 E2.17885
G1 X207.439 Y194.261 E.01068
G1 X155.739 Y142.561 E2.17889
G1 X155.486 Y142.815 E.01068
G1 X207.185 Y194.514 E2.17885
G1 X206.932 Y194.768 E.01068
G1 X155.232 Y143.068 E2.17889
G1 X154.979 Y143.321 E.01066
G1 X206.679 Y195.021 E2.17889
G1 X206.425 Y195.275 E.0107
G1 X154.725 Y143.575 E2.17889
G1 X154.472 Y143.828 E.01066
G1 X206.172 Y195.528 E2.17889
G1 X205.918 Y195.781 E.01068
G1 X154.219 Y144.082 E2.17885
G1 X153.965 Y144.335 E.01068
G1 X205.665 Y196.035 E2.17889
G1 X205.412 Y196.288 E.01066
G1 X153.712 Y144.588 E2.17889
G1 X153.458 Y144.842 E.0107
G1 X205.158 Y196.542 E2.17889
G1 X204.905 Y196.795 E.01066
G1 X153.205 Y145.095 E2.17889
G1 X152.951 Y145.349 E.0107
G1 X204.651 Y197.049 E2.17889
G1 X204.398 Y197.302 E.01066
G1 X152.698 Y145.602 E2.17889
G1 X152.445 Y145.856 E.01068
G1 X204.144 Y197.555 E2.17885
G1 X203.891 Y197.809 E.01068
G1 X152.191 Y146.109 E2.17889
G1 X151.938 Y146.362 E.01066
G1 X203.638 Y198.062 E2.17889
G1 X203.384 Y198.316 E.0107
G1 X151.684 Y146.616 E2.17889
G1 X151.431 Y146.869 E.01066
G1 X203.131 Y198.569 E2.17889
G1 X202.877 Y198.823 E.0107
G1 X151.177 Y147.123 E2.17889
G1 X150.924 Y147.376 E.01066
G1 X202.624 Y199.076 E2.17889
G1 X202.37 Y199.329 E.01068
G1 X150.671 Y147.63 E2.17885
G1 X150.417 Y147.883 E.01068
G1 X202.117 Y199.583 E2.17889
G1 X201.864 Y199.836 E.01066
G1 X150.164 Y148.136 E2.17889
G1 X149.91 Y148.39 E.0107
G1 X201.61 Y200.09 E2.17889
G1 X201.357 Y200.343 E.01066
G1 X149.657 Y148.643 E2.17889
G1 X149.404 Y148.897 E.01068
G1 X201.103 Y200.596 E2.17885
G1 X200.85 Y200.85 E.01068
G1 X149.15 Y149.15 E2.17889
G1 X148.897 Y149.404 E.01068
G1 X200.596 Y201.103 E2.17885
G1 X200.343 Y201.357 E.01068
G1 X148.643 Y149.657 E2.17889
G1 X148.39 Y149.91 E.01066
G1 X200.09 Y201.61 E2.17889
G1 X199.836 Y201.864 E.0107
G1 X148.136 Y150.164 E2.17889
G1 X147.883 Y150.417 E.01066
G1 X199.583 Y202.117 E2.17889
G1 X199.329 Y202.37 E.01068
G1 X147.63 Y150.671 E2.17885
G1 X147.376 Y150.924 E.01068
G1 X199.076 Y202.624 E2.17889
G1 X198.822 Y202.877 E.01068
G1 X147.123 Y151.178 E2.17885
G1 X146.869 Y151.431 E.01068
G1 X198.569 Y203.131 E2.17889
G1 X198.316 Y203.384 E.01066
G1 X146.616 Y151.684 E2.17889
G1 X146.362 Y151.938 E.0107
G1 X198.062 Y203.638 E2.17889
G1 X197.809 Y203.891 E.01066
G1 X146.109 Y152.191 E2.17889
G1 X145.856 Y152.445 E.01068
G1 X197.555 Y204.144 E2.17885
G1 X197.302 Y204.398 E.01068
G1 X145.602 Y152.698 E2.17889
G1 X145.349 Y152.952 E.01068
G1 X197.048 Y204.651 E2.17885
G1 X196.795 Y204.905 E.01068
G1 X145.095 Y153.205 E2.17889
G1 X144.842 Y153.458 E.01066
G1 X196.542 Y205.158 E2.17889
G1 X196.288 Y205.412 E.0107
G1 X144.588 Y153.712 E2.17889
G1 X144.335 Y153.965 E.01066
G1 X196.035 Y205.665 E2.17889
G1 X195.781 Y205.918 E.01068
G1 X144.082 Y154.219 E2.17885
G1 X143.828 Y154.472 E.01068
G1 X195.528 Y206.172 E2.17889
G1 X195.274 Y206.425 E.01068
G1 X143.575 Y154.726 E2.17885
G1 X143.321 Y154.979 E.01068
G1 X195.021 Y206.679 E2.17889
G1 X194.768 Y206.932 E.01066
G1 X143.068 Y155.232 E2.17889
G1 X142.814 Y155.486 E.0107
G1 X194.514 Y207.186 E2.17889
G1 X194.261 Y207.439 E.01066
G1 X142.561 Y155.739 E2.17889
G1 X142.308 Y155.993 E.01068
G1 X194.007 Y207.692 E2.17885
G1 X193.754 Y207.946 E.01068
G1 X142.054 Y156.246 E2.17889
G1 X141.801 Y156.499 E.01066
G1 X193.501 Y208.199 E2.17889
G1 X193.247 Y208.453 E.0107
G1 X141.547 Y156.753 E2.17889
G1 X141.294 Y157.006 E.01066
G1 X192.994 Y208.706 E2.17889
G1 X192.74 Y208.96 E.0107
G1 X141.04 Y157.26 E2.17889
G1 X140.787 Y157.513 E.01066
G1 X192.487 Y209.213 E2.17889
G1 X192.233 Y209.466 E.01068
G1 X140.534 Y157.767 E2.17885
G1 X140.28 Y158.02 E.01068
G1 X191.98 Y209.72 E2.17889
G1 X191.727 Y209.973 E.01066
G1 X140.027 Y158.273 E2.17889
G1 X139.773 Y158.527 E.0107
G1 X191.473 Y210.227 E2.17889
G1 X191.22 Y210.48 E.01066
G1 X139.52 Y158.78 E2.17889
G1 X139.266 Y159.034 E.0107
G1 X190.966 Y210.734 E2.17889
G1 X190.713 Y210.987 E.01066
G1 X139.013 Y159.287 E2.17889
G1 X138.76 Y159.541 E.01068
G1 X190.459 Y211.24 E2.17885
G1 X190.206 Y211.494 E.01068
G1 X138.506 Y159.794 E2.17889
G1 X138.443 Y159.857 E.00266
G1 X138.443 Y160.237 E.01132
G1 X189.763 Y211.557 E2.16287
G1 X189.256 Y211.557 E.01511
G1 X138.443 Y160.744 E2.14151
G1 X138.443 Y161.251 E.01511
G1 X188.749 Y211.557 E2.12014
G1 X188.242 Y211.557 E.01511
G1 X138.443 Y161.758 E2.09877
G1 X138.443 Y162.265 E.01511
G1 X187.735 Y211.557 E2.0774
G1 X187.228 Y211.557 E.01511
G1 X138.443 Y162.772 E2.05604
G1 X138.443 Y163.279 E.01511
G1 X186.721 Y211.557 E2.03467
G1 X186.215 Y211.557 E.01508
G1 X138.443 Y163.785 E2.01334
G1 X138.443 Y164.292 E.01511
G1 X185.708 Y211.557 E1.99198
G1 X185.201 Y211.557 E.01511
G1 X138.443 Y164.799 E1.97061
G1 X138.443 Y165.306 E.01511
G1 X184.694 Y211.557 E1.94924
G1 X184.187 Y211.557 E.01511
G1 X138.443 Y165.813 E1.92787
G1 X138.443 Y166.32 E.01511
G1 X183.68 Y211.557 E1.90651
G1 X183.174 Y211.557 E.01508
G1 X138.443 Y166.826 E1.88518
G1 X138.443 Y167.333 E.01511
G1 X182.667 Y211.557 E1.86381
G1 X182.16 Y211.557 E.01511
G1 X138.443 Y167.84 E1.84245
G1 X138.443 Y168.347 E.01511
G1 X181.653 Y211.557 E1.82108
G1 X181.146 Y211.557 E.01511
G1 X138.443 Y168.854 E1.79971
G1 X138.443 Y169.361 E.01511
G1 X180.639 Y211.557 E1.77834
G1 X180.132 Y211.557 E.01511
G1 X138.443 Y169.868 E1.75698
G1 X138.443 Y170.374 E.01508
G1 X179.626 Y211.557 E1.73565
G1 X179.119 Y211.557 E.01511
G1 X138.443 Y170.881 E1.71428
G1 X138.443 Y171.388 E.01511
G1 X178.612 Y211.557 E1.69292
G1 X178.105 Y211.557 E.01511
G1 X138.443 Y171.895 E1.67155
G1 X138.443 Y172.402 E.01511
G1 X177.598 Y211.557 E1.65018
G1 X177.091 Y211.557 E.01511
G1 X138.443 Y172.909 E1.62881
G1 X138.443 Y173.416 E.01511
G1 X176.584 Y211.557 E1.60745
G1 X176.078 Y211.557 E.01508
G1 X138.443 Y173.922 E1.58612
G1 X138.443 Y174.429 E.01511
G1 X175.571 Y211.557 E1.56475
G1 X175.064 Y211.557 E.01511
G1 X138.443 Y174.936 E1.54339
G1 X138.443 Y175.443 E.01511
G1 X174.557 Y211.557 E1.52202
G1 X174.05 Y211.557 E.01511
G1 X138.443 Y175.95 E1.50065
G1 X138.443 Y176.457 E.01511
G1 X173.543 Y211.557 E1.47928
G1 X173.036 Y211.557 E.01511
G1 X138.443 Y176.964 E1.45792
G1 X138.443 Y177.47 E.01508
G1 X172.53 Y211.557 E1.43659
G1 X172.023 Y211.557 E.01511
G1 X138.443 Y177.977 E1.41522
G1 X138.443 Y178.484 E.01511
G1 X171.516 Y211.557 E1.39386
G1 X171.009 Y211.557 E.01511
G1 X138.443 Y178.991 E1.37249
G1 X138.443 Y179.498 E.01511
G1 X170.502 Y211.557 E1.35112
G1 X169.995 Y211.557 E.01511
G1 X138.443 Y180.005 E1.32975
G1 X138.443 Y180.511 E.01508
G1 X169.489 Y211.557 E1.30843
G1 X168.982 Y211.557 E.01511
G1 X138.443 Y181.018 E1.28706
G1 X138.443 Y181.525 E.01511
G1 X168.475 Y211.557 E1.26569
G1 X167.968 Y211.557 E.01511
G1 X138.443 Y182.032 E1.24433
G1 X138.443 Y182.539 E.01511
G1 X167.461 Y211.557 E1.22296
G1 X166.954 Y211.557 E.01511
G1 X138.443 Y183.046 E1.20159
G1 X138.443 Y183.553 E.01511
G1 X166.447 Y211.557 E1.18022
G1 X165.941 Y211.557 E.01508
G1 X138.443 Y184.059 E1.1589
G1 X138.443 Y184.566 E.01511
G1 X165.434 Y211.557 E1.13753
G1 X164.927 Y211.557 E.01511
G1 X138.443 Y185.073 E1.11616
G1 X138.443 Y185.58 E.01511
G1 X164.42 Y211.557 E1.0948
G1 X163.913 Y211.557 E.01511
G1 X138.443 Y186.087 E1.07343
G1 X138.443 Y186.594 E.01511
G1 X163.406 Y211.557 E1.05206
G1 X162.899 Y211.557 E.01511
G1 X138.443 Y187.101 E1.03069
G1 X138.443 Y187.607 E.01508
G1 X162.393 Y211.557 E1.00937
G1 X161.886 Y211.557 E.01511
G1 X138.443 Y188.114 E.988
G1 X138.443 Y188.621 E.01511
G1 X161.379 Y211.557 E.96663
G1 X160.872 Y211.557 E.01511
G1 X138.443 Y189.128 E.94527
G1 X138.443 Y189.635 E.01511
G1 X160.365 Y211.557 E.9239
G1 X159.858 Y211.557 E.01511
G1 X138.282 Y189.981 E.90932
EXCLUDE_OBJECT_END NAME='first_layer_octo_02_stl'
G10 ; retract
M107
;TYPE:Custom
print_end    ;end script from macro
; objects_info = {"objects":[{"name":"first_layer_octo_02_stl","polygon":[[212.500,159.467],[212.500,190.533],[190.533,212.500],[159.467,212.500],[137.500,190.533],[137.500,159.467],[159.467,137.500],[190.533,137.500]]}]}
; filament used [mm] = 386.42
; filament used [cm3] = 0.93
; filament used [g] = 1.15
; filament cost = 0.02
; total filament used [g] = 1.15
; total filament cost = 0.02
; total filament used for wipe tower [g] = 0.00
; estimated printing time (normal mode) = 5m 30s
; estimated first layer printing time (normal mode) = 5m 30s

; prusaslicer_config = begin
; arc_fitting = disabled
; autoemit_temperature_commands = 0
; avoid_crossing_curled_overhangs = 0
; avoid_crossing_perimeters = 0
; avoid_crossing_perimeters_max_detour = 0
; bed_custom_model = 
; bed_custom_texture = 
; bed_shape = 0x0,350x0,350x350,0x350
; bed_temperature = 55
; before_layer_gcode = ;BEFORE_LAYER_CHANGE\n;[layer_z]\nG92 E0\n
; between_objects_gcode = 
; binary_gcode = 0
; bottom_fill_pattern = monotonic
; bottom_solid_layers = 2
; bottom_solid_min_thickness = 0
; bridge_acceleration = 0
; bridge_angle = 0
; bridge_fan_speed = 100
; bridge_flow_ratio = 0.8
; bridge_speed = 60
; brim_separation = 0
; brim_type = outer_only
; brim_width = 0
; color_change_gcode = M600
; compatible_printers_condition_cummulative = "printer_model=~/.*Voron_v2.*/ and nozzle_diameter[0]==0.4";"printer_model=~/.*Voron.*/ and printer_notes=~/.*E3DV6.*/"
; complete_objects = 0
; cooling = 1
; cooling_tube_length = 5
; cooling_tube_retraction = 91.5
; default_acceleration = 0
; default_filament_profile = "Basic PLA @VORON"
; default_print_profile = 0.15mm 0.4nozzle
; deretract_speed = 30
; disable_fan_first_layers = 1
; dont_support_bridges = 1
; draft_shield = disabled
; duplicate_distance = 6
; elefant_foot_compensation = 0.1
; enable_dynamic_fan_speeds = 0
; enable_dynamic_overhang_speeds = 0
; end_filament_gcode = ""
; end_gcode = print_end    ;end script from macro
; external_perimeter_acceleration = 0
; external_perimeter_extrusion_width = 0.4
; external_perimeter_speed = 50
; external_perimeters_first = 0
; extra_loading_move = -2
; extra_perimeters = 0
